{
  "compressionlevel": -1,
  "height": 27,
  "width": 163,
  "infinite": false,
  "nextlayerid": 45,
  "nextobjectid": 62,
  "orientation": "orthogonal",
  "renderorder": "right-down",
  "tiledversion": "1.11.2",
  "tileheight": 32,
  "tilewidth": 32,
  "type": "map",
  "version": "1.10",
  "layers": [
    {
      "id": 2,
      "name": "BackgroundReference",
      "type": "objectgroup",
      "draworder": "topdown",
      "opacity": 1,
      "visible": false,
      "objects": [
        {
          "id": 1,
          "name": "reference-photo",
          "type": "reference-photo",
          "x": 0,
          "y": 0,
          "width": 5200,
          "height": 864,
          "rotation": 0,
          "visible": true,
          "properties": [
            {
              "name": "editorOnly",
              "type": "bool",
              "value": true
            },
            {
              "name": "runtimeId",
              "type": "string",
              "value": "level_1_comedor_resistencia-reference"
            }
          ],
          "image": "../../../../../public/ground-floor.jpg"
        }
      ],
      "locked": true,
      "properties": [
        {
          "name": "editorOnly",
          "type": "bool",
          "value": true
        }
      ]
    },
    {
      "id": 3,
      "name": "Background",
      "type": "objectgroup",
      "draworder": "topdown",
      "opacity": 1,
      "visible": true,
      "objects": [
        {
          "id": 39,
          "name": "context-wall",
          "type": "visual",
          "x": 0,
          "y": 444,
          "width": 5216,
          "height": 420,
          "rotation": 0,
          "visible": true,
          "properties": [
            {
              "name": "assetKey",
              "type": "string",
              "value": "wall-damaged"
            },
            {
              "name": "visualRole",
              "type": "string",
              "value": "background"
            },
            {
              "name": "sector",
              "type": "string",
              "value": "entrada"
            },
            {
              "name": "depth",
              "type": "int",
              "value": -50
            },
            {
              "name": "runtimeId",
              "type": "string",
              "value": "level_1_comedor_resistencia-visual-39"
            }
          ]
        }
      ]
    },
    {
      "id": 41,
      "name": "DistantArchitecture",
      "type": "objectgroup",
      "draworder": "topdown",
      "opacity": 1,
      "visible": true,
      "objects": [
        {
          "id": 40,
          "name": "distant-depth",
          "type": "visual",
          "x": 417,
          "y": 364,
          "width": 4381,
          "height": 260,
          "rotation": 0,
          "visible": true,
          "properties": [
            {
              "name": "assetKey",
              "type": "string",
              "value": "service-door"
            },
            {
              "name": "visualRole",
              "type": "string",
              "value": "distantArchitecture"
            },
            {
              "name": "sector",
              "type": "string",
              "value": "entrada"
            },
            {
              "name": "depth",
              "type": "int",
              "value": -40
            },
            {
              "name": "runtimeId",
              "type": "string",
              "value": "level_1_comedor_resistencia-visual-40"
            }
          ]
        }
      ]
    },
    {
      "id": 4,
      "name": "RearArchitecture",
      "type": "objectgroup",
      "draworder": "topdown",
      "opacity": 1,
      "visible": true,
      "objects": []
    },
    {
      "id": 5,
      "name": "Architecture",
      "type": "objectgroup",
      "draworder": "topdown",
      "opacity": 1,
      "visible": true,
      "objects": [
        {
          "id": 41,
          "name": "entrada-architecture",
          "type": "visual",
          "x": 365,
          "y": 534,
          "width": 340,
          "height": 210,
          "rotation": 0,
          "visible": true,
          "properties": [
            {
              "name": "assetKey",
              "type": "string",
              "value": "service-door"
            },
            {
              "name": "visualRole",
              "type": "string",
              "value": "architecture"
            },
            {
              "name": "sector",
              "type": "string",
              "value": "entrada"
            },
            {
              "name": "depth",
              "type": "int",
              "value": -15
            },
            {
              "name": "runtimeId",
              "type": "string",
              "value": "level_1_comedor_resistencia-visual-41"
            }
          ]
        },
        {
          "id": 42,
          "name": "nucleo-comedor-architecture",
          "type": "visual",
          "x": 1408,
          "y": 534,
          "width": 340,
          "height": 210,
          "rotation": 0,
          "visible": true,
          "properties": [
            {
              "name": "assetKey",
              "type": "string",
              "value": "wall-clean"
            },
            {
              "name": "visualRole",
              "type": "string",
              "value": "architecture"
            },
            {
              "name": "sector",
              "type": "string",
              "value": "nucleo-comedor"
            },
            {
              "name": "depth",
              "type": "int",
              "value": -15
            },
            {
              "name": "runtimeId",
              "type": "string",
              "value": "level_1_comedor_resistencia-visual-42"
            }
          ]
        },
        {
          "id": 43,
          "name": "zona-resistencia-architecture",
          "type": "visual",
          "x": 2452,
          "y": 534,
          "width": 340,
          "height": 210,
          "rotation": 0,
          "visible": true,
          "properties": [
            {
              "name": "assetKey",
              "type": "string",
              "value": "teller-window"
            },
            {
              "name": "visualRole",
              "type": "string",
              "value": "architecture"
            },
            {
              "name": "sector",
              "type": "string",
              "value": "zona-resistencia"
            },
            {
              "name": "depth",
              "type": "int",
              "value": -15
            },
            {
              "name": "runtimeId",
              "type": "string",
              "value": "level_1_comedor_resistencia-visual-43"
            }
          ]
        },
        {
          "id": 44,
          "name": "area-servicio-architecture",
          "type": "visual",
          "x": 3495,
          "y": 534,
          "width": 340,
          "height": 210,
          "rotation": 0,
          "visible": true,
          "properties": [
            {
              "name": "assetKey",
              "type": "string",
              "value": "wall-damaged"
            },
            {
              "name": "visualRole",
              "type": "string",
              "value": "architecture"
            },
            {
              "name": "sector",
              "type": "string",
              "value": "area-servicio"
            },
            {
              "name": "depth",
              "type": "int",
              "value": -15
            },
            {
              "name": "runtimeId",
              "type": "string",
              "value": "level_1_comedor_resistencia-visual-44"
            }
          ]
        },
        {
          "id": 45,
          "name": "aproximacion-salida-architecture",
          "type": "visual",
          "x": 4538,
          "y": 534,
          "width": 340,
          "height": 210,
          "rotation": 0,
          "visible": true,
          "properties": [
            {
              "name": "assetKey",
              "type": "string",
              "value": "exit-door"
            },
            {
              "name": "visualRole",
              "type": "string",
              "value": "architecture"
            },
            {
              "name": "sector",
              "type": "string",
              "value": "aproximacion-salida"
            },
            {
              "name": "depth",
              "type": "int",
              "value": -15
            },
            {
              "name": "runtimeId",
              "type": "string",
              "value": "level_1_comedor_resistencia-visual-45"
            }
          ]
        }
      ]
    },
    {
      "id": 6,
      "name": "RearProps",
      "type": "objectgroup",
      "draworder": "topdown",
      "opacity": 1,
      "visible": true,
      "objects": [
        {
          "id": 52,
          "name": "upper-services",
          "type": "visual",
          "x": 1460,
          "y": 434,
          "width": 220,
          "height": 64,
          "rotation": 0,
          "visible": true,
          "properties": [
            {
              "name": "assetKey",
              "type": "string",
              "value": "pipe-bundle"
            },
            {
              "name": "visualRole",
              "type": "string",
              "value": "rearProp"
            },
            {
              "name": "sector",
              "type": "string",
              "value": "nucleo-comedor"
            },
            {
              "name": "depth",
              "type": "int",
              "value": -5
            },
            {
              "name": "runtimeId",
              "type": "string",
              "value": "level_1_comedor_resistencia-visual-52"
            }
          ]
        }
      ]
    },
    {
      "id": 7,
      "name": "GameplayDecor",
      "type": "objectgroup",
      "draworder": "topdown",
      "opacity": 1,
      "visible": true,
      "objects": [
        {
          "id": 46,
          "name": "entrada-decor-1",
          "type": "visual",
          "x": 565,
          "y": 718,
          "width": 180,
          "height": 76,
          "rotation": 0,
          "visible": true,
          "properties": [
            {
              "name": "assetKey",
              "type": "string",
              "value": "bank-bench"
            },
            {
              "name": "visualRole",
              "type": "string",
              "value": "gameplayDecor"
            },
            {
              "name": "sector",
              "type": "string",
              "value": "entrada"
            },
            {
              "name": "depth",
              "type": "int",
              "value": 2
            },
            {
              "name": "runtimeId",
              "type": "string",
              "value": "level_1_comedor_resistencia-visual-46"
            }
          ]
        },
        {
          "id": 47,
          "name": "nucleo-comedor-decor-2",
          "type": "visual",
          "x": 1434,
          "y": 746,
          "width": 180,
          "height": 48,
          "rotation": 0,
          "visible": true,
          "properties": [
            {
              "name": "assetKey",
              "type": "string",
              "value": "paper-cluster"
            },
            {
              "name": "visualRole",
              "type": "string",
              "value": "gameplayDecor"
            },
            {
              "name": "sector",
              "type": "string",
              "value": "nucleo-comedor"
            },
            {
              "name": "depth",
              "type": "int",
              "value": 2
            },
            {
              "name": "runtimeId",
              "type": "string",
              "value": "level_1_comedor_resistencia-visual-47"
            }
          ]
        },
        {
          "id": 48,
          "name": "zona-resistencia-decor-3",
          "type": "visual",
          "x": 2304,
          "y": 718,
          "width": 180,
          "height": 76,
          "rotation": 0,
          "visible": true,
          "properties": [
            {
              "name": "assetKey",
              "type": "string",
              "value": "broken-furniture"
            },
            {
              "name": "visualRole",
              "type": "string",
              "value": "gameplayDecor"
            },
            {
              "name": "sector",
              "type": "string",
              "value": "zona-resistencia"
            },
            {
              "name": "depth",
              "type": "int",
              "value": 2
            },
            {
              "name": "runtimeId",
              "type": "string",
              "value": "level_1_comedor_resistencia-visual-48"
            }
          ]
        },
        {
          "id": 49,
          "name": "area-servicio-decor-4",
          "type": "visual",
          "x": 3173,
          "y": 718,
          "width": 180,
          "height": 76,
          "rotation": 0,
          "visible": true,
          "properties": [
            {
              "name": "assetKey",
              "type": "string",
              "value": "pipe-bundle"
            },
            {
              "name": "visualRole",
              "type": "string",
              "value": "gameplayDecor"
            },
            {
              "name": "sector",
              "type": "string",
              "value": "area-servicio"
            },
            {
              "name": "depth",
              "type": "int",
              "value": 2
            },
            {
              "name": "runtimeId",
              "type": "string",
              "value": "level_1_comedor_resistencia-visual-49"
            }
          ]
        },
        {
          "id": 50,
          "name": "aproximacion-salida-decor-5",
          "type": "visual",
          "x": 4042,
          "y": 718,
          "width": 180,
          "height": 76,
          "rotation": 0,
          "visible": true,
          "properties": [
            {
              "name": "assetKey",
              "type": "string",
              "value": "exit-sign"
            },
            {
              "name": "visualRole",
              "type": "string",
              "value": "gameplayDecor"
            },
            {
              "name": "sector",
              "type": "string",
              "value": "aproximacion-salida"
            },
            {
              "name": "depth",
              "type": "int",
              "value": 2
            },
            {
              "name": "runtimeId",
              "type": "string",
              "value": "level_1_comedor_resistencia-visual-50"
            }
          ]
        },
        {
          "id": 51,
          "name": "aproximacion-salida-decor-6",
          "type": "visual",
          "x": 4912,
          "y": 746,
          "width": 180,
          "height": 48,
          "rotation": 0,
          "visible": true,
          "properties": [
            {
              "name": "assetKey",
              "type": "string",
              "value": "debris"
            },
            {
              "name": "visualRole",
              "type": "string",
              "value": "gameplayDecor"
            },
            {
              "name": "sector",
              "type": "string",
              "value": "aproximacion-salida"
            },
            {
              "name": "depth",
              "type": "int",
              "value": 2
            },
            {
              "name": "runtimeId",
              "type": "string",
              "value": "level_1_comedor_resistencia-visual-51"
            }
          ]
        }
      ]
    },
    {
      "id": 8,
      "name": "FrontProps",
      "type": "objectgroup",
      "draworder": "topdown",
      "opacity": 1,
      "visible": true,
      "objects": [
        {
          "id": 53,
          "name": "route-damage",
          "type": "visual",
          "x": 3025,
          "y": 769,
          "width": 180,
          "height": 40,
          "rotation": 0,
          "visible": true,
          "properties": [
            {
              "name": "assetKey",
              "type": "string",
              "value": "floor-damage"
            },
            {
              "name": "visualRole",
              "type": "string",
              "value": "frontProp"
            },
            {
              "name": "sector",
              "type": "string",
              "value": "area-servicio"
            },
            {
              "name": "depth",
              "type": "int",
              "value": 6
            },
            {
              "name": "runtimeId",
              "type": "string",
              "value": "level_1_comedor_resistencia-visual-53"
            }
          ]
        }
      ]
    },
    {
      "id": 9,
      "name": "Foreground",
      "type": "objectgroup",
      "draworder": "topdown",
      "opacity": 1,
      "visible": true,
      "objects": [
        {
          "id": 54,
          "name": "foreground-left",
          "type": "visual",
          "x": 104,
          "y": 564,
          "width": 90,
          "height": 260,
          "rotation": 0,
          "visible": true,
          "properties": [
            {
              "name": "assetKey",
              "type": "string",
              "value": "foreground-column"
            },
            {
              "name": "visualRole",
              "type": "string",
              "value": "foreground"
            },
            {
              "name": "sector",
              "type": "string",
              "value": "entrada"
            },
            {
              "name": "depth",
              "type": "int",
              "value": 80
            },
            {
              "name": "runtimeId",
              "type": "string",
              "value": "level_1_comedor_resistencia-visual-54"
            }
          ]
        },
        {
          "id": 55,
          "name": "foreground-right",
          "type": "visual",
          "x": 4590,
          "y": 594,
          "width": 150,
          "height": 230,
          "rotation": 0,
          "visible": true,
          "properties": [
            {
              "name": "assetKey",
              "type": "string",
              "value": "foreground-bars"
            },
            {
              "name": "visualRole",
              "type": "string",
              "value": "foreground"
            },
            {
              "name": "sector",
              "type": "string",
              "value": "aproximacion-salida"
            },
            {
              "name": "depth",
              "type": "int",
              "value": 80
            },
            {
              "name": "runtimeId",
              "type": "string",
              "value": "level_1_comedor_resistencia-visual-55"
            }
          ]
        }
      ]
    },
    {
      "id": 10,
      "name": "LightingAnchors",
      "type": "objectgroup",
      "draworder": "topdown",
      "opacity": 1,
      "visible": true,
      "objects": [
        {
          "id": 59,
          "name": "practical-light-1",
          "type": "light-anchor",
          "x": 1148,
          "y": 474,
          "width": 1,
          "height": 1,
          "rotation": 0,
          "visible": true,
          "properties": [
            {
              "name": "lightAnchorId",
              "type": "string",
              "value": "level_1_comedor_resistencia-light-1"
            },
            {
              "name": "tint",
              "type": "string",
              "value": "0xffd27a"
            },
            {
              "name": "qualityTier",
              "type": "string",
              "value": "balanced"
            },
            {
              "name": "runtimeId",
              "type": "string",
              "value": "level_1_comedor_resistencia-visual-59"
            }
          ]
        },
        {
          "id": 60,
          "name": "practical-light-2",
          "type": "light-anchor",
          "x": 2712,
          "y": 474,
          "width": 1,
          "height": 1,
          "rotation": 0,
          "visible": true,
          "properties": [
            {
              "name": "lightAnchorId",
              "type": "string",
              "value": "level_1_comedor_resistencia-light-2"
            },
            {
              "name": "tint",
              "type": "string",
              "value": "0xb9d8ff"
            },
            {
              "name": "qualityTier",
              "type": "string",
              "value": "balanced"
            },
            {
              "name": "runtimeId",
              "type": "string",
              "value": "level_1_comedor_resistencia-visual-60"
            }
          ]
        },
        {
          "id": 61,
          "name": "practical-light-3",
          "type": "light-anchor",
          "x": 4173,
          "y": 474,
          "width": 1,
          "height": 1,
          "rotation": 0,
          "visible": true,
          "properties": [
            {
              "name": "lightAnchorId",
              "type": "string",
              "value": "level_1_comedor_resistencia-light-3"
            },
            {
              "name": "tint",
              "type": "string",
              "value": "0xffd27a"
            },
            {
              "name": "qualityTier",
              "type": "string",
              "value": "balanced"
            },
            {
              "name": "runtimeId",
              "type": "string",
              "value": "level_1_comedor_resistencia-visual-61"
            }
          ]
        }
      ]
    },
    {
      "id": 44,
      "name": "OcclusionZones",
      "type": "objectgroup",
      "draworder": "topdown",
      "opacity": 1,
      "visible": true,
      "objects": [
        {
          "id": 58,
          "name": "localized-darkness",
          "type": "occlusion-zone",
          "x": 3547,
          "y": 464,
          "width": 835,
          "height": 300,
          "rotation": 0,
          "visible": true,
          "properties": [
            {
              "name": "alpha",
              "type": "float",
              "value": 0.18
            },
            {
              "name": "runtimeId",
              "type": "string",
              "value": "level_1_comedor_resistencia-visual-58"
            }
          ]
        }
      ]
    },
    {
      "id": 43,
      "name": "ReflectionZones",
      "type": "objectgroup",
      "draworder": "topdown",
      "opacity": 1,
      "visible": true,
      "objects": [
        {
          "id": 57,
          "name": "wet-floor",
          "type": "reflection-zone",
          "x": 1826,
          "y": 734,
          "width": 1565,
          "height": 70,
          "rotation": 0,
          "visible": true,
          "properties": [
            {
              "name": "reflectionStrength",
              "type": "float",
              "value": 0.28
            },
            {
              "name": "runtimeId",
              "type": "string",
              "value": "level_1_comedor_resistencia-visual-57"
            }
          ]
        }
      ]
    },
    {
      "id": 42,
      "name": "AmbientZones",
      "type": "objectgroup",
      "draworder": "topdown",
      "opacity": 1,
      "visible": true,
      "objects": [
        {
          "id": 56,
          "name": "ambient-main",
          "type": "ambient-zone",
          "x": 0,
          "y": 0,
          "width": 5216,
          "height": 864,
          "rotation": 0,
          "visible": true,
          "properties": [
            {
              "name": "tint",
              "type": "string",
              "value": "0x18212a"
            },
            {
              "name": "alpha",
              "type": "float",
              "value": 0.22
            },
            {
              "name": "qualityTier",
              "type": "string",
              "value": "balanced"
            },
            {
              "name": "runtimeId",
              "type": "string",
              "value": "level_1_comedor_resistencia-visual-56"
            }
          ]
        }
      ]
    },
    {
      "id": 12,
      "name": "Collision",
      "type": "objectgroup",
      "draworder": "topdown",
      "opacity": 1,
      "visible": true,
      "objects": [
        {
          "id": 11,
          "name": "floor",
          "type": "floor",
          "x": 0,
          "y": 800,
          "width": 5200,
          "height": 64,
          "rotation": 0,
          "visible": true,
          "properties": [
            {
              "name": "runtimeId",
              "type": "string",
              "value": "level_1_comedor_resistencia-floor"
            },
            {
              "name": "collisionCategory",
              "type": "string",
              "value": "World"
            },
            {
              "name": "collisionMask",
              "type": "string",
              "value": "Player|Ally|Enemy|Projectile"
            },
            {
              "name": "sensor",
              "type": "bool",
              "value": false
            },
            {
              "name": "floorId",
              "type": "string",
              "value": "floor-1"
            }
          ]
        }
      ]
    },
    {
      "id": 13,
      "name": "OneWayPlatforms",
      "type": "objectgroup",
      "draworder": "topdown",
      "opacity": 1,
      "visible": true,
      "objects": []
    },
    {
      "id": 14,
      "name": "Stairs",
      "type": "objectgroup",
      "draworder": "topdown",
      "opacity": 1,
      "visible": true,
      "objects": []
    },
    {
      "id": 16,
      "name": "PlayerSpawns",
      "type": "objectgroup",
      "draworder": "topdown",
      "opacity": 1,
      "visible": true,
      "objects": [
        {
          "id": 15,
          "name": "default-spawn",
          "type": "default-spawn",
          "x": 240,
          "y": 724,
          "width": 40,
          "height": 72,
          "rotation": 0,
          "visible": true,
          "properties": [
            {
              "name": "runtimeId",
              "type": "string",
              "value": "level_1_comedor_resistencia-spawn-default"
            },
            {
              "name": "spawnId",
              "type": "string",
              "value": "default"
            },
            {
              "name": "floorId",
              "type": "string",
              "value": "floor-1"
            },
            {
              "name": "elevation",
              "type": "float",
              "value": 0
            }
          ]
        }
      ]
    },
    {
      "id": 17,
      "name": "AllySpawns",
      "type": "objectgroup",
      "draworder": "topdown",
      "opacity": 1,
      "visible": true,
      "objects": []
    },
    {
      "id": 20,
      "name": "EnemySpawns",
      "type": "objectgroup",
      "draworder": "topdown",
      "opacity": 1,
      "visible": true,
      "objects": [
        {
          "id": 18,
          "name": "comedor-oleada-spawn",
          "type": "comedor-oleada-spawn",
          "x": 1730,
          "y": 724,
          "width": 40,
          "height": 72,
          "rotation": 0,
          "visible": true,
          "properties": [
            {
              "name": "runtimeId",
              "type": "string",
              "value": "comedor-oleada-spawn"
            },
            {
              "name": "spawnId",
              "type": "string",
              "value": "comedor-oleada-spawn"
            },
            {
              "name": "floorId",
              "type": "string",
              "value": "floor-1"
            }
          ]
        },
        {
          "id": 19,
          "name": "comedor-retaguardia-spawn",
          "type": "comedor-retaguardia-spawn",
          "x": 3430,
          "y": 724,
          "width": 40,
          "height": 72,
          "rotation": 0,
          "visible": true,
          "properties": [
            {
              "name": "runtimeId",
              "type": "string",
              "value": "comedor-retaguardia-spawn"
            },
            {
              "name": "spawnId",
              "type": "string",
              "value": "comedor-retaguardia-spawn"
            },
            {
              "name": "floorId",
              "type": "string",
              "value": "floor-1"
            }
          ]
        }
      ]
    },
    {
      "id": 23,
      "name": "SpawnAreas",
      "type": "objectgroup",
      "draworder": "topdown",
      "opacity": 1,
      "visible": true,
      "objects": [
        {
          "id": 21,
          "name": "comedor-oleada",
          "type": "comedor-oleada",
          "x": 950,
          "y": 494,
          "width": 1000,
          "height": 300,
          "rotation": 0,
          "visible": true,
          "properties": [
            {
              "name": "runtimeId",
              "type": "string",
              "value": "comedor-oleada"
            },
            {
              "name": "sensor",
              "type": "bool",
              "value": true
            }
          ]
        },
        {
          "id": 22,
          "name": "comedor-retaguardia",
          "type": "comedor-retaguardia",
          "x": 2650,
          "y": 494,
          "width": 1000,
          "height": 300,
          "rotation": 0,
          "visible": true,
          "properties": [
            {
              "name": "runtimeId",
              "type": "string",
              "value": "comedor-retaguardia"
            },
            {
              "name": "sensor",
              "type": "bool",
              "value": true
            }
          ]
        }
      ]
    },
    {
      "id": 26,
      "name": "Interactables",
      "type": "objectgroup",
      "draworder": "topdown",
      "opacity": 1,
      "visible": true,
      "objects": [
        {
          "id": 24,
          "name": "level_1_comedor_resistencia-checkpoint",
          "type": "level_1_comedor_resistencia-checkpoint",
          "x": 2600,
          "y": 724,
          "width": 64,
          "height": 96,
          "rotation": 0,
          "visible": true,
          "properties": [
            {
              "name": "runtimeId",
              "type": "string",
              "value": "level_1_comedor_resistencia-checkpoint"
            },
            {
              "name": "interactionId",
              "type": "string",
              "value": "level_1_comedor_resistencia-checkpoint"
            },
            {
              "name": "prompt",
              "type": "string",
              "value": "E · Asegurar checkpoint"
            },
            {
              "name": "sensor",
              "type": "bool",
              "value": true
            }
          ]
        },
        {
          "id": 25,
          "name": "level_1_comedor_resistencia-exit",
          "type": "level_1_comedor_resistencia-exit",
          "x": 4900,
          "y": 724,
          "width": 64,
          "height": 96,
          "rotation": 0,
          "visible": true,
          "properties": [
            {
              "name": "runtimeId",
              "type": "string",
              "value": "level_1_comedor_resistencia-exit"
            },
            {
              "name": "interactionId",
              "type": "string",
              "value": "level_1_comedor_resistencia-exit"
            },
            {
              "name": "prompt",
              "type": "string",
              "value": "E · Pasar a los pasillos"
            },
            {
              "name": "sensor",
              "type": "bool",
              "value": true
            }
          ]
        }
      ]
    },
    {
      "id": 28,
      "name": "Triggers",
      "type": "objectgroup",
      "draworder": "topdown",
      "opacity": 1,
      "visible": true,
      "objects": [
        {
          "id": 27,
          "name": "level_1_comedor_resistencia-narrative",
          "type": "level_1_comedor_resistencia-narrative",
          "width": 64,
          "height": 96,
          "rotation": 0,
          "visible": true,
          "properties": [
            {
              "name": "runtimeId",
              "type": "string",
              "value": "level_1_comedor_resistencia-narrative"
            },
            {
              "name": "targetId",
              "type": "string",
              "value": ""
            },
            {
              "name": "sensor",
              "type": "bool",
              "value": true
            }
          ]
        }
      ]
    },
    {
      "id": 31,
      "name": "Objectives",
      "type": "objectgroup",
      "draworder": "topdown",
      "opacity": 1,
      "visible": true,
      "objects": [
        {
          "id": 29,
          "name": "resistir-comedor",
          "type": "resistir-comedor",
          "x": 400,
          "y": 628,
          "width": 48,
          "height": 48,
          "rotation": 0,
          "visible": true,
          "properties": [
            {
              "name": "runtimeId",
              "type": "string",
              "value": "resistir-comedor"
            },
            {
              "name": "objectiveId",
              "type": "string",
              "value": "resistir-comedor"
            },
            {
              "name": "targetId",
              "type": "string",
              "value": "comedor-resistencia"
            }
          ]
        },
        {
          "id": 30,
          "name": "salir-comedor",
          "type": "salir-comedor",
          "x": 480,
          "y": 628,
          "width": 48,
          "height": 48,
          "rotation": 0,
          "visible": true,
          "properties": [
            {
              "name": "runtimeId",
              "type": "string",
              "value": "salir-comedor"
            },
            {
              "name": "objectiveId",
              "type": "string",
              "value": "salir-comedor"
            },
            {
              "name": "targetId",
              "type": "string",
              "value": "salida-comedor"
            }
          ]
        }
      ]
    },
    {
      "id": 33,
      "name": "Checkpoints",
      "type": "objectgroup",
      "draworder": "topdown",
      "opacity": 1,
      "visible": true,
      "objects": [
        {
          "id": 32,
          "name": "level_1_comedor_resistencia-checkpoint",
          "type": "level_1_comedor_resistencia-checkpoint",
          "x": 2600,
          "y": 724,
          "width": 64,
          "height": 96,
          "rotation": 0,
          "visible": true,
          "properties": [
            {
              "name": "runtimeId",
              "type": "string",
              "value": "level_1_comedor_resistencia-checkpoint-checkpoints"
            },
            {
              "name": "checkpointId",
              "type": "string",
              "value": "level_1_comedor_resistencia-checkpoint"
            },
            {
              "name": "spawnId",
              "type": "string",
              "value": "default"
            },
            {
              "name": "sensor",
              "type": "bool",
              "value": true
            }
          ]
        }
      ]
    },
    {
      "id": 35,
      "name": "Pickups",
      "type": "objectgroup",
      "draworder": "topdown",
      "opacity": 1,
      "visible": true,
      "objects": [
        {
          "id": 34,
          "name": "level_1_comedor_resistencia-medkit",
          "type": "level_1_comedor_resistencia-medkit",
          "x": 2300,
          "y": 724,
          "width": 32,
          "height": 32,
          "rotation": 0,
          "visible": true,
          "properties": [
            {
              "name": "runtimeId",
              "type": "string",
              "value": "level_1_comedor_resistencia-medkit"
            },
            {
              "name": "targetId",
              "type": "string",
              "value": "level_1_comedor_resistencia-medkit"
            },
            {
              "name": "sensor",
              "type": "bool",
              "value": true
            }
          ]
        }
      ]
    },
    {
      "id": 37,
      "name": "Exits",
      "type": "objectgroup",
      "draworder": "topdown",
      "opacity": 1,
      "visible": true,
      "objects": [
        {
          "id": 36,
          "name": "salida-comedor",
          "type": "salida-comedor",
          "x": 5020,
          "y": 680,
          "width": 100,
          "height": 120,
          "rotation": 0,
          "visible": true,
          "properties": [
            {
              "name": "runtimeId",
              "type": "string",
              "value": "salida-comedor"
            },
            {
              "name": "interactionId",
              "type": "string",
              "value": "salida-comedor"
            },
            {
              "name": "connectorId",
              "type": "string",
              "value": "salida-comedor"
            },
            {
              "name": "targetNodeId",
              "type": "string",
              "value": "lvl01-esc02-pasillos-hacia-escaleras-pb"
            },
            {
              "name": "targetConnectorId",
              "type": "string",
              "value": "default"
            },
            {
              "name": "enabledByObjectiveId",
              "type": "string",
              "value": "salir-comedor"
            },
            {
              "name": "sensor",
              "type": "bool",
              "value": true
            },
            {
              "name": "prompt",
              "type": "string",
              "value": "Usar salida"
            }
          ]
        }
      ]
    },
    {
      "id": 39,
      "name": "CameraBounds",
      "type": "objectgroup",
      "draworder": "topdown",
      "opacity": 1,
      "visible": true,
      "objects": [
        {
          "id": 38,
          "name": "camera-bounds",
          "type": "camera-bounds",
          "x": 0,
          "y": 0,
          "width": 5200,
          "height": 864,
          "rotation": 0,
          "visible": true,
          "properties": [
            {
              "name": "runtimeId",
              "type": "string",
              "value": "level_1_comedor_resistencia-camera"
            },
            {
              "name": "editorOnly",
              "type": "bool",
              "value": false
            }
          ]
        }
      ]
    },
    {
      "id": 40,
      "name": "NavigationHints",
      "type": "objectgroup",
      "draworder": "topdown",
      "opacity": 1,
      "visible": true,
      "objects": []
    }
  ],
  "properties": [
    {
      "name": "schemaVersion",
      "type": "int",
      "value": 1
    },
    {
      "name": "nodeId",
      "type": "string",
      "value": "lvl01-esc01-comedor-resistencia"
    },
    {
      "name": "canonicalNodeIds",
      "type": "string",
      "value": "lvl01-esc01-comedor-resistencia"
    },
    {
      "name": "runtimeLevelId",
      "type": "string",
      "value": "level_1_comedor_resistencia"
    },
    {
      "name": "locationId",
      "type": "string",
      "value": "level1_subsuelo_comedor_pasillos"
    },
    {
      "name": "locationLabel",
      "type": "string",
      "value": "Resiste en el comedor y asegura la puerta al pasillo."
    },
    {
      "name": "floorId",
      "type": "string",
      "value": "floor-1"
    },
    {
      "name": "floorLabel",
      "type": "string",
      "value": "Piso canónico 1"
    },
    {
      "name": "canonicalIndex",
      "type": "int",
      "value": 1
    },
    {
      "name": "entryConnectorId",
      "type": "string",
      "value": "default"
    },
    {
      "name": "exitConnectorId",
      "type": "string",
      "value": "salida-comedor"
    },
    {
      "name": "targetNodeId",
      "type": "string",
      "value": "lvl01-esc02-pasillos-hacia-escaleras-pb"
    },
    {
      "name": "defaultCameraZoom",
      "type": "float",
      "value": 1.34
    },
    {
      "name": "gravityScale",
      "type": "float",
      "value": 1
    },
    {
      "name": "referencePhotoPath",
      "type": "file",
      "value": "public/ground-floor.jpg"
    },
    {
      "name": "runtimeBackgroundPath",
      "type": "file",
      "value": ""
    },
    {
      "name": "supportsVerticalCamera",
      "type": "bool",
      "value": false
    },
    {
      "name": "musicProfile",
      "type": "string",
      "value": "campaign-default"
    },
    {
      "name": "environmentProfile",
      "type": "string",
      "value": "level1_subsuelo_comedor_pasillos"
    }
  ],
  "backgroundcolor": "#111827"
}
