{
  "compressionlevel": -1,
  "height": 30,
  "width": 204,
  "infinite": false,
  "nextlayerid": 44,
  "nextobjectid": 60,
  "orientation": "orthogonal",
  "renderorder": "right-down",
  "tiledversion": "1.11.2",
  "tileheight": 32,
  "tilewidth": 32,
  "type": "map",
  "version": "1.10",
  "layers": [
    {
      "id": 2,
      "name": "BackgroundReference",
      "type": "objectgroup",
      "draworder": "topdown",
      "opacity": 1,
      "visible": false,
      "objects": [
        {
          "id": 1,
          "name": "reference-photo",
          "type": "reference-photo",
          "x": 0,
          "y": 0,
          "width": 6500,
          "height": 960,
          "rotation": 0,
          "visible": true,
          "properties": [
            {
              "name": "editorOnly",
              "type": "bool",
              "value": true
            },
            {
              "name": "runtimeId",
              "type": "string",
              "value": "level_3_segundo_piso-reference"
            }
          ],
          "image": "../../../../../public/entrance.jpg"
        }
      ],
      "locked": true,
      "properties": [
        {
          "name": "editorOnly",
          "type": "bool",
          "value": true
        }
      ]
    },
    {
      "id": 3,
      "name": "Background",
      "type": "objectgroup",
      "draworder": "topdown",
      "opacity": 1,
      "visible": true,
      "objects": [
        {
          "id": 38,
          "name": "context-wall",
          "type": "visual",
          "x": 0,
          "y": 540,
          "width": 6528,
          "height": 420,
          "rotation": 0,
          "visible": true,
          "properties": [
            {
              "name": "assetKey",
              "type": "string",
              "value": "wall-damaged"
            },
            {
              "name": "visualRole",
              "type": "string",
              "value": "background"
            },
            {
              "name": "sector",
              "type": "string",
              "value": "landing"
            },
            {
              "name": "depth",
              "type": "int",
              "value": -50
            },
            {
              "name": "runtimeId",
              "type": "string",
              "value": "level_3_segundo_piso-visual-38"
            }
          ]
        }
      ]
    },
    {
      "id": 40,
      "name": "DistantArchitecture",
      "type": "objectgroup",
      "draworder": "topdown",
      "opacity": 1,
      "visible": true,
      "objects": [
        {
          "id": 39,
          "name": "distant-depth",
          "type": "visual",
          "x": 522,
          "y": 460,
          "width": 5484,
          "height": 260,
          "rotation": 0,
          "visible": true,
          "properties": [
            {
              "name": "assetKey",
              "type": "string",
              "value": "service-door"
            },
            {
              "name": "visualRole",
              "type": "string",
              "value": "distantArchitecture"
            },
            {
              "name": "sector",
              "type": "string",
              "value": "landing"
            },
            {
              "name": "depth",
              "type": "int",
              "value": -40
            },
            {
              "name": "runtimeId",
              "type": "string",
              "value": "level_3_segundo_piso-visual-39"
            }
          ]
        }
      ]
    },
    {
      "id": 4,
      "name": "RearArchitecture",
      "type": "objectgroup",
      "draworder": "topdown",
      "opacity": 1,
      "visible": true,
      "objects": []
    },
    {
      "id": 5,
      "name": "Architecture",
      "type": "objectgroup",
      "draworder": "topdown",
      "opacity": 1,
      "visible": true,
      "objects": [
        {
          "id": 40,
          "name": "landing-architecture",
          "type": "visual",
          "x": 571,
          "y": 630,
          "width": 340,
          "height": 210,
          "rotation": 0,
          "visible": true,
          "properties": [
            {
              "name": "assetKey",
              "type": "string",
              "value": "service-door"
            },
            {
              "name": "visualRole",
              "type": "string",
              "value": "architecture"
            },
            {
              "name": "sector",
              "type": "string",
              "value": "landing"
            },
            {
              "name": "depth",
              "type": "int",
              "value": -15
            },
            {
              "name": "runtimeId",
              "type": "string",
              "value": "level_3_segundo_piso-visual-40"
            }
          ]
        },
        {
          "id": 41,
          "name": "administracion-architecture",
          "type": "visual",
          "x": 2203,
          "y": 630,
          "width": 340,
          "height": 210,
          "rotation": 0,
          "visible": true,
          "properties": [
            {
              "name": "assetKey",
              "type": "string",
              "value": "office-lit"
            },
            {
              "name": "visualRole",
              "type": "string",
              "value": "architecture"
            },
            {
              "name": "sector",
              "type": "string",
              "value": "administracion"
            },
            {
              "name": "depth",
              "type": "int",
              "value": -15
            },
            {
              "name": "runtimeId",
              "type": "string",
              "value": "level_3_segundo_piso-visual-41"
            }
          ]
        },
        {
          "id": 42,
          "name": "archivo-architecture",
          "type": "visual",
          "x": 3835,
          "y": 630,
          "width": 340,
          "height": 210,
          "rotation": 0,
          "visible": true,
          "properties": [
            {
              "name": "assetKey",
              "type": "string",
              "value": "office-dark"
            },
            {
              "name": "visualRole",
              "type": "string",
              "value": "architecture"
            },
            {
              "name": "sector",
              "type": "string",
              "value": "archivo"
            },
            {
              "name": "depth",
              "type": "int",
              "value": -15
            },
            {
              "name": "runtimeId",
              "type": "string",
              "value": "level_3_segundo_piso-visual-42"
            }
          ]
        },
        {
          "id": 43,
          "name": "contacto-architecture",
          "type": "visual",
          "x": 5467,
          "y": 630,
          "width": 340,
          "height": 210,
          "rotation": 0,
          "visible": true,
          "properties": [
            {
              "name": "assetKey",
              "type": "string",
              "value": "exit-door"
            },
            {
              "name": "visualRole",
              "type": "string",
              "value": "architecture"
            },
            {
              "name": "sector",
              "type": "string",
              "value": "contacto"
            },
            {
              "name": "depth",
              "type": "int",
              "value": -15
            },
            {
              "name": "runtimeId",
              "type": "string",
              "value": "level_3_segundo_piso-visual-43"
            }
          ]
        }
      ]
    },
    {
      "id": 6,
      "name": "RearProps",
      "type": "objectgroup",
      "draworder": "topdown",
      "opacity": 1,
      "visible": true,
      "objects": [
        {
          "id": 50,
          "name": "upper-services",
          "type": "visual",
          "x": 1828,
          "y": 530,
          "width": 220,
          "height": 64,
          "rotation": 0,
          "visible": true,
          "properties": [
            {
              "name": "assetKey",
              "type": "string",
              "value": "pipe-bundle"
            },
            {
              "name": "visualRole",
              "type": "string",
              "value": "rearProp"
            },
            {
              "name": "sector",
              "type": "string",
              "value": "administracion"
            },
            {
              "name": "depth",
              "type": "int",
              "value": -5
            },
            {
              "name": "runtimeId",
              "type": "string",
              "value": "level_3_segundo_piso-visual-50"
            }
          ]
        }
      ]
    },
    {
      "id": 7,
      "name": "GameplayDecor",
      "type": "objectgroup",
      "draworder": "topdown",
      "opacity": 1,
      "visible": true,
      "objects": [
        {
          "id": 44,
          "name": "landing-decor-1",
          "type": "visual",
          "x": 707,
          "y": 814,
          "width": 180,
          "height": 76,
          "rotation": 0,
          "visible": true,
          "properties": [
            {
              "name": "assetKey",
              "type": "string",
              "value": "bank-bench"
            },
            {
              "name": "visualRole",
              "type": "string",
              "value": "gameplayDecor"
            },
            {
              "name": "sector",
              "type": "string",
              "value": "landing"
            },
            {
              "name": "depth",
              "type": "int",
              "value": 2
            },
            {
              "name": "runtimeId",
              "type": "string",
              "value": "level_3_segundo_piso-visual-44"
            }
          ]
        },
        {
          "id": 45,
          "name": "administracion-decor-2",
          "type": "visual",
          "x": 1795,
          "y": 842,
          "width": 180,
          "height": 48,
          "rotation": 0,
          "visible": true,
          "properties": [
            {
              "name": "assetKey",
              "type": "string",
              "value": "paper-cluster"
            },
            {
              "name": "visualRole",
              "type": "string",
              "value": "gameplayDecor"
            },
            {
              "name": "sector",
              "type": "string",
              "value": "administracion"
            },
            {
              "name": "depth",
              "type": "int",
              "value": 2
            },
            {
              "name": "runtimeId",
              "type": "string",
              "value": "level_3_segundo_piso-visual-45"
            }
          ]
        },
        {
          "id": 46,
          "name": "archivo-decor-3",
          "type": "visual",
          "x": 2883,
          "y": 814,
          "width": 180,
          "height": 76,
          "rotation": 0,
          "visible": true,
          "properties": [
            {
              "name": "assetKey",
              "type": "string",
              "value": "cracks-a"
            },
            {
              "name": "visualRole",
              "type": "string",
              "value": "gameplayDecor"
            },
            {
              "name": "sector",
              "type": "string",
              "value": "archivo"
            },
            {
              "name": "depth",
              "type": "int",
              "value": 2
            },
            {
              "name": "runtimeId",
              "type": "string",
              "value": "level_3_segundo_piso-visual-46"
            }
          ]
        },
        {
          "id": 47,
          "name": "contacto-decor-4",
          "type": "visual",
          "x": 3971,
          "y": 842,
          "width": 180,
          "height": 48,
          "rotation": 0,
          "visible": true,
          "properties": [
            {
              "name": "assetKey",
              "type": "string",
              "value": "debris"
            },
            {
              "name": "visualRole",
              "type": "string",
              "value": "gameplayDecor"
            },
            {
              "name": "sector",
              "type": "string",
              "value": "contacto"
            },
            {
              "name": "depth",
              "type": "int",
              "value": 2
            },
            {
              "name": "runtimeId",
              "type": "string",
              "value": "level_3_segundo_piso-visual-47"
            }
          ]
        },
        {
          "id": 48,
          "name": "contacto-decor-5",
          "type": "visual",
          "x": 5059,
          "y": 814,
          "width": 180,
          "height": 76,
          "rotation": 0,
          "visible": true,
          "properties": [
            {
              "name": "assetKey",
              "type": "string",
              "value": "cold-light"
            },
            {
              "name": "visualRole",
              "type": "string",
              "value": "gameplayDecor"
            },
            {
              "name": "sector",
              "type": "string",
              "value": "contacto"
            },
            {
              "name": "depth",
              "type": "int",
              "value": 2
            },
            {
              "name": "runtimeId",
              "type": "string",
              "value": "level_3_segundo_piso-visual-48"
            }
          ]
        },
        {
          "id": 49,
          "name": "contacto-decor-6",
          "type": "visual",
          "x": 6147,
          "y": 814,
          "width": 180,
          "height": 76,
          "rotation": 0,
          "visible": true,
          "properties": [
            {
              "name": "assetKey",
              "type": "string",
              "value": "exit-sign"
            },
            {
              "name": "visualRole",
              "type": "string",
              "value": "gameplayDecor"
            },
            {
              "name": "sector",
              "type": "string",
              "value": "contacto"
            },
            {
              "name": "depth",
              "type": "int",
              "value": 2
            },
            {
              "name": "runtimeId",
              "type": "string",
              "value": "level_3_segundo_piso-visual-49"
            }
          ]
        }
      ]
    },
    {
      "id": 8,
      "name": "FrontProps",
      "type": "objectgroup",
      "draworder": "topdown",
      "opacity": 1,
      "visible": true,
      "objects": [
        {
          "id": 51,
          "name": "route-damage",
          "type": "visual",
          "x": 3786,
          "y": 865,
          "width": 180,
          "height": 40,
          "rotation": 0,
          "visible": true,
          "properties": [
            {
              "name": "assetKey",
              "type": "string",
              "value": "floor-damage"
            },
            {
              "name": "visualRole",
              "type": "string",
              "value": "frontProp"
            },
            {
              "name": "sector",
              "type": "string",
              "value": "archivo"
            },
            {
              "name": "depth",
              "type": "int",
              "value": 6
            },
            {
              "name": "runtimeId",
              "type": "string",
              "value": "level_3_segundo_piso-visual-51"
            }
          ]
        }
      ]
    },
    {
      "id": 9,
      "name": "Foreground",
      "type": "objectgroup",
      "draworder": "topdown",
      "opacity": 1,
      "visible": true,
      "objects": [
        {
          "id": 52,
          "name": "foreground-left",
          "type": "visual",
          "x": 131,
          "y": 660,
          "width": 90,
          "height": 260,
          "rotation": 0,
          "visible": true,
          "properties": [
            {
              "name": "assetKey",
              "type": "string",
              "value": "foreground-column"
            },
            {
              "name": "visualRole",
              "type": "string",
              "value": "foreground"
            },
            {
              "name": "sector",
              "type": "string",
              "value": "landing"
            },
            {
              "name": "depth",
              "type": "int",
              "value": 80
            },
            {
              "name": "runtimeId",
              "type": "string",
              "value": "level_3_segundo_piso-visual-52"
            }
          ]
        },
        {
          "id": 53,
          "name": "foreground-right",
          "type": "visual",
          "x": 5745,
          "y": 690,
          "width": 150,
          "height": 230,
          "rotation": 0,
          "visible": true,
          "properties": [
            {
              "name": "assetKey",
              "type": "string",
              "value": "foreground-bars"
            },
            {
              "name": "visualRole",
              "type": "string",
              "value": "foreground"
            },
            {
              "name": "sector",
              "type": "string",
              "value": "contacto"
            },
            {
              "name": "depth",
              "type": "int",
              "value": 80
            },
            {
              "name": "runtimeId",
              "type": "string",
              "value": "level_3_segundo_piso-visual-53"
            }
          ]
        }
      ]
    },
    {
      "id": 10,
      "name": "LightingAnchors",
      "type": "objectgroup",
      "draworder": "topdown",
      "opacity": 1,
      "visible": true,
      "objects": [
        {
          "id": 57,
          "name": "practical-light-1",
          "type": "light-anchor",
          "x": 1436,
          "y": 570,
          "width": 1,
          "height": 1,
          "rotation": 0,
          "visible": true,
          "properties": [
            {
              "name": "lightAnchorId",
              "type": "string",
              "value": "level_3_segundo_piso-light-1"
            },
            {
              "name": "tint",
              "type": "string",
              "value": "0xffd27a"
            },
            {
              "name": "qualityTier",
              "type": "string",
              "value": "balanced"
            },
            {
              "name": "runtimeId",
              "type": "string",
              "value": "level_3_segundo_piso-visual-57"
            }
          ]
        },
        {
          "id": 58,
          "name": "practical-light-2",
          "type": "light-anchor",
          "x": 3395,
          "y": 570,
          "width": 1,
          "height": 1,
          "rotation": 0,
          "visible": true,
          "properties": [
            {
              "name": "lightAnchorId",
              "type": "string",
              "value": "level_3_segundo_piso-light-2"
            },
            {
              "name": "tint",
              "type": "string",
              "value": "0xb9d8ff"
            },
            {
              "name": "qualityTier",
              "type": "string",
              "value": "balanced"
            },
            {
              "name": "runtimeId",
              "type": "string",
              "value": "level_3_segundo_piso-visual-58"
            }
          ]
        },
        {
          "id": 59,
          "name": "practical-light-3",
          "type": "light-anchor",
          "x": 5222,
          "y": 570,
          "width": 1,
          "height": 1,
          "rotation": 0,
          "visible": true,
          "properties": [
            {
              "name": "lightAnchorId",
              "type": "string",
              "value": "level_3_segundo_piso-light-3"
            },
            {
              "name": "tint",
              "type": "string",
              "value": "0xffd27a"
            },
            {
              "name": "qualityTier",
              "type": "string",
              "value": "balanced"
            },
            {
              "name": "runtimeId",
              "type": "string",
              "value": "level_3_segundo_piso-visual-59"
            }
          ]
        }
      ]
    },
    {
      "id": 43,
      "name": "OcclusionZones",
      "type": "objectgroup",
      "draworder": "topdown",
      "opacity": 1,
      "visible": true,
      "objects": [
        {
          "id": 56,
          "name": "localized-darkness",
          "type": "occlusion-zone",
          "x": 4439,
          "y": 560,
          "width": 1044,
          "height": 300,
          "rotation": 0,
          "visible": true,
          "properties": [
            {
              "name": "alpha",
              "type": "float",
              "value": 0.18
            },
            {
              "name": "runtimeId",
              "type": "string",
              "value": "level_3_segundo_piso-visual-56"
            }
          ]
        }
      ]
    },
    {
      "id": 42,
      "name": "ReflectionZones",
      "type": "objectgroup",
      "draworder": "topdown",
      "opacity": 1,
      "visible": true,
      "objects": [
        {
          "id": 55,
          "name": "wet-floor",
          "type": "reflection-zone",
          "x": 2285,
          "y": 830,
          "width": 1958,
          "height": 70,
          "rotation": 0,
          "visible": true,
          "properties": [
            {
              "name": "reflectionStrength",
              "type": "float",
              "value": 0.28
            },
            {
              "name": "runtimeId",
              "type": "string",
              "value": "level_3_segundo_piso-visual-55"
            }
          ]
        }
      ]
    },
    {
      "id": 41,
      "name": "AmbientZones",
      "type": "objectgroup",
      "draworder": "topdown",
      "opacity": 1,
      "visible": true,
      "objects": [
        {
          "id": 54,
          "name": "ambient-main",
          "type": "ambient-zone",
          "x": 0,
          "y": 0,
          "width": 6528,
          "height": 960,
          "rotation": 0,
          "visible": true,
          "properties": [
            {
              "name": "tint",
              "type": "string",
              "value": "0x18212a"
            },
            {
              "name": "alpha",
              "type": "float",
              "value": 0.22
            },
            {
              "name": "qualityTier",
              "type": "string",
              "value": "balanced"
            },
            {
              "name": "runtimeId",
              "type": "string",
              "value": "level_3_segundo_piso-visual-54"
            }
          ]
        }
      ]
    },
    {
      "id": 12,
      "name": "Collision",
      "type": "objectgroup",
      "draworder": "topdown",
      "opacity": 1,
      "visible": true,
      "objects": [
        {
          "id": 11,
          "name": "floor",
          "type": "floor",
          "x": 0,
          "y": 896,
          "width": 6500,
          "height": 64,
          "rotation": 0,
          "visible": true,
          "properties": [
            {
              "name": "runtimeId",
              "type": "string",
              "value": "level_3_segundo_piso-floor"
            },
            {
              "name": "collisionCategory",
              "type": "string",
              "value": "World"
            },
            {
              "name": "collisionMask",
              "type": "string",
              "value": "Player|Ally|Enemy|Projectile"
            },
            {
              "name": "sensor",
              "type": "bool",
              "value": false
            },
            {
              "name": "floorId",
              "type": "string",
              "value": "floor-6"
            }
          ]
        }
      ]
    },
    {
      "id": 13,
      "name": "OneWayPlatforms",
      "type": "objectgroup",
      "draworder": "topdown",
      "opacity": 1,
      "visible": true,
      "objects": []
    },
    {
      "id": 14,
      "name": "Stairs",
      "type": "objectgroup",
      "draworder": "topdown",
      "opacity": 1,
      "visible": true,
      "objects": []
    },
    {
      "id": 16,
      "name": "PlayerSpawns",
      "type": "objectgroup",
      "draworder": "topdown",
      "opacity": 1,
      "visible": true,
      "objects": [
        {
          "id": 15,
          "name": "default-spawn",
          "type": "default-spawn",
          "x": 240,
          "y": 820,
          "width": 40,
          "height": 72,
          "rotation": 0,
          "visible": true,
          "properties": [
            {
              "name": "runtimeId",
              "type": "string",
              "value": "level_3_segundo_piso-spawn-default"
            },
            {
              "name": "spawnId",
              "type": "string",
              "value": "default"
            },
            {
              "name": "floorId",
              "type": "string",
              "value": "floor-6"
            },
            {
              "name": "elevation",
              "type": "float",
              "value": 0
            }
          ]
        }
      ]
    },
    {
      "id": 17,
      "name": "AllySpawns",
      "type": "objectgroup",
      "draworder": "topdown",
      "opacity": 1,
      "visible": true,
      "objects": []
    },
    {
      "id": 20,
      "name": "EnemySpawns",
      "type": "objectgroup",
      "draworder": "topdown",
      "opacity": 1,
      "visible": true,
      "objects": [
        {
          "id": 18,
          "name": "oficinas-a-spawn",
          "type": "oficinas-a-spawn",
          "x": 2380,
          "y": 820,
          "width": 40,
          "height": 72,
          "rotation": 0,
          "visible": true,
          "properties": [
            {
              "name": "runtimeId",
              "type": "string",
              "value": "oficinas-a-spawn"
            },
            {
              "name": "spawnId",
              "type": "string",
              "value": "oficinas-a-spawn"
            },
            {
              "name": "floorId",
              "type": "string",
              "value": "floor-6"
            }
          ]
        },
        {
          "id": 19,
          "name": "oficinas-b-spawn",
          "type": "oficinas-b-spawn",
          "x": 4580,
          "y": 820,
          "width": 40,
          "height": 72,
          "rotation": 0,
          "visible": true,
          "properties": [
            {
              "name": "runtimeId",
              "type": "string",
              "value": "oficinas-b-spawn"
            },
            {
              "name": "spawnId",
              "type": "string",
              "value": "oficinas-b-spawn"
            },
            {
              "name": "floorId",
              "type": "string",
              "value": "floor-6"
            }
          ]
        }
      ]
    },
    {
      "id": 23,
      "name": "SpawnAreas",
      "type": "objectgroup",
      "draworder": "topdown",
      "opacity": 1,
      "visible": true,
      "objects": [
        {
          "id": 21,
          "name": "oficinas-a",
          "type": "oficinas-a",
          "x": 1600,
          "y": 590,
          "width": 1000,
          "height": 300,
          "rotation": 0,
          "visible": true,
          "properties": [
            {
              "name": "runtimeId",
              "type": "string",
              "value": "oficinas-a"
            },
            {
              "name": "sensor",
              "type": "bool",
              "value": true
            }
          ]
        },
        {
          "id": 22,
          "name": "oficinas-b",
          "type": "oficinas-b",
          "x": 3800,
          "y": 590,
          "width": 1000,
          "height": 300,
          "rotation": 0,
          "visible": true,
          "properties": [
            {
              "name": "runtimeId",
              "type": "string",
              "value": "oficinas-b"
            },
            {
              "name": "sensor",
              "type": "bool",
              "value": true
            }
          ]
        }
      ]
    },
    {
      "id": 26,
      "name": "Interactables",
      "type": "objectgroup",
      "draworder": "topdown",
      "opacity": 1,
      "visible": true,
      "objects": [
        {
          "id": 24,
          "name": "level_3_segundo_piso-checkpoint",
          "type": "level_3_segundo_piso-checkpoint",
          "x": 3250,
          "y": 820,
          "width": 64,
          "height": 96,
          "rotation": 0,
          "visible": true,
          "properties": [
            {
              "name": "runtimeId",
              "type": "string",
              "value": "level_3_segundo_piso-checkpoint"
            },
            {
              "name": "interactionId",
              "type": "string",
              "value": "level_3_segundo_piso-checkpoint"
            },
            {
              "name": "prompt",
              "type": "string",
              "value": "E · Asegurar checkpoint"
            },
            {
              "name": "sensor",
              "type": "bool",
              "value": true
            }
          ]
        },
        {
          "id": 25,
          "name": "level_3_segundo_piso-exit",
          "type": "level_3_segundo_piso-exit",
          "x": 6200,
          "y": 820,
          "width": 64,
          "height": 96,
          "rotation": 0,
          "visible": true,
          "properties": [
            {
              "name": "runtimeId",
              "type": "string",
              "value": "level_3_segundo_piso-exit"
            },
            {
              "name": "interactionId",
              "type": "string",
              "value": "level_3_segundo_piso-exit"
            },
            {
              "name": "prompt",
              "type": "string",
              "value": "E · Atender el llamado de Lorena"
            },
            {
              "name": "sensor",
              "type": "bool",
              "value": true
            }
          ]
        }
      ]
    },
    {
      "id": 28,
      "name": "Triggers",
      "type": "objectgroup",
      "draworder": "topdown",
      "opacity": 1,
      "visible": true,
      "objects": [
        {
          "id": 27,
          "name": "level_3_segundo_piso-narrative",
          "type": "level_3_segundo_piso-narrative",
          "width": 64,
          "height": 96,
          "rotation": 0,
          "visible": true,
          "properties": [
            {
              "name": "runtimeId",
              "type": "string",
              "value": "level_3_segundo_piso-narrative"
            },
            {
              "name": "targetId",
              "type": "string",
              "value": ""
            },
            {
              "name": "sensor",
              "type": "bool",
              "value": true
            }
          ]
        }
      ]
    },
    {
      "id": 30,
      "name": "Objectives",
      "type": "objectgroup",
      "draworder": "topdown",
      "opacity": 1,
      "visible": true,
      "objects": [
        {
          "id": 29,
          "name": "level_3_segundo_piso-objective",
          "type": "level_3_segundo_piso-objective",
          "x": 400,
          "y": 724,
          "width": 48,
          "height": 48,
          "rotation": 0,
          "visible": true,
          "properties": [
            {
              "name": "runtimeId",
              "type": "string",
              "value": "level_3_segundo_piso-objective"
            },
            {
              "name": "objectiveId",
              "type": "string",
              "value": "level_3_segundo_piso-objective"
            },
            {
              "name": "targetId",
              "type": "string",
              "value": "salida-segundo"
            }
          ]
        }
      ]
    },
    {
      "id": 32,
      "name": "Checkpoints",
      "type": "objectgroup",
      "draworder": "topdown",
      "opacity": 1,
      "visible": true,
      "objects": [
        {
          "id": 31,
          "name": "level_3_segundo_piso-checkpoint",
          "type": "level_3_segundo_piso-checkpoint",
          "x": 3250,
          "y": 820,
          "width": 64,
          "height": 96,
          "rotation": 0,
          "visible": true,
          "properties": [
            {
              "name": "runtimeId",
              "type": "string",
              "value": "level_3_segundo_piso-checkpoint-checkpoints"
            },
            {
              "name": "checkpointId",
              "type": "string",
              "value": "level_3_segundo_piso-checkpoint"
            },
            {
              "name": "spawnId",
              "type": "string",
              "value": "default"
            },
            {
              "name": "sensor",
              "type": "bool",
              "value": true
            }
          ]
        }
      ]
    },
    {
      "id": 34,
      "name": "Pickups",
      "type": "objectgroup",
      "draworder": "topdown",
      "opacity": 1,
      "visible": true,
      "objects": [
        {
          "id": 33,
          "name": "level_3_segundo_piso-medkit",
          "type": "level_3_segundo_piso-medkit",
          "x": 2950,
          "y": 820,
          "width": 32,
          "height": 32,
          "rotation": 0,
          "visible": true,
          "properties": [
            {
              "name": "runtimeId",
              "type": "string",
              "value": "level_3_segundo_piso-medkit"
            },
            {
              "name": "targetId",
              "type": "string",
              "value": "level_3_segundo_piso-medkit"
            },
            {
              "name": "sensor",
              "type": "bool",
              "value": true
            }
          ]
        }
      ]
    },
    {
      "id": 36,
      "name": "Exits",
      "type": "objectgroup",
      "draworder": "topdown",
      "opacity": 1,
      "visible": true,
      "objects": [
        {
          "id": 35,
          "name": "salida-segundo",
          "type": "salida-segundo",
          "x": 6320,
          "y": 776,
          "width": 100,
          "height": 120,
          "rotation": 0,
          "visible": true,
          "properties": [
            {
              "name": "runtimeId",
              "type": "string",
              "value": "salida-segundo"
            },
            {
              "name": "interactionId",
              "type": "string",
              "value": "salida-segundo"
            },
            {
              "name": "connectorId",
              "type": "string",
              "value": "salida-segundo"
            },
            {
              "name": "targetNodeId",
              "type": "string",
              "value": "lvl03-cin01-llamado-lorena-rescate"
            },
            {
              "name": "targetConnectorId",
              "type": "string",
              "value": "default"
            },
            {
              "name": "enabledByObjectiveId",
              "type": "string",
              "value": "level_3_segundo_piso-objective"
            },
            {
              "name": "sensor",
              "type": "bool",
              "value": true
            },
            {
              "name": "prompt",
              "type": "string",
              "value": "Usar salida"
            }
          ]
        }
      ]
    },
    {
      "id": 38,
      "name": "CameraBounds",
      "type": "objectgroup",
      "draworder": "topdown",
      "opacity": 1,
      "visible": true,
      "objects": [
        {
          "id": 37,
          "name": "camera-bounds",
          "type": "camera-bounds",
          "x": 0,
          "y": 0,
          "width": 6500,
          "height": 960,
          "rotation": 0,
          "visible": true,
          "properties": [
            {
              "name": "runtimeId",
              "type": "string",
              "value": "level_3_segundo_piso-camera"
            },
            {
              "name": "editorOnly",
              "type": "bool",
              "value": false
            }
          ]
        }
      ]
    },
    {
      "id": 39,
      "name": "NavigationHints",
      "type": "objectgroup",
      "draworder": "topdown",
      "opacity": 1,
      "visible": true,
      "objects": []
    }
  ],
  "properties": [
    {
      "name": "schemaVersion",
      "type": "int",
      "value": 1
    },
    {
      "name": "nodeId",
      "type": "string",
      "value": "lvl03-esc01-segundo-piso"
    },
    {
      "name": "canonicalNodeIds",
      "type": "string",
      "value": "lvl03-esc01-segundo-piso"
    },
    {
      "name": "runtimeLevelId",
      "type": "string",
      "value": "level_3_segundo_piso"
    },
    {
      "name": "locationId",
      "type": "string",
      "value": "level3_quinto_piso_pasillos"
    },
    {
      "name": "locationLabel",
      "type": "string",
      "value": "Recorre el segundo piso y establece contacto con Lorena."
    },
    {
      "name": "floorId",
      "type": "string",
      "value": "floor-6"
    },
    {
      "name": "floorLabel",
      "type": "string",
      "value": "Piso canónico 6"
    },
    {
      "name": "canonicalIndex",
      "type": "int",
      "value": 6
    },
    {
      "name": "entryConnectorId",
      "type": "string",
      "value": "default"
    },
    {
      "name": "exitConnectorId",
      "type": "string",
      "value": "salida-segundo"
    },
    {
      "name": "targetNodeId",
      "type": "string",
      "value": "lvl03-cin01-llamado-lorena-rescate"
    },
    {
      "name": "defaultCameraZoom",
      "type": "float",
      "value": 1.34
    },
    {
      "name": "gravityScale",
      "type": "float",
      "value": 1
    },
    {
      "name": "referencePhotoPath",
      "type": "file",
      "value": "public/entrance.jpg"
    },
    {
      "name": "runtimeBackgroundPath",
      "type": "file",
      "value": ""
    },
    {
      "name": "supportsVerticalCamera",
      "type": "bool",
      "value": true
    },
    {
      "name": "musicProfile",
      "type": "string",
      "value": "campaign-default"
    },
    {
      "name": "environmentProfile",
      "type": "string",
      "value": "level3_quinto_piso_pasillos"
    }
  ],
  "backgroundcolor": "#111827"
}
