{
  "compressionlevel": -1,
  "height": 38,
  "width": 200,
  "infinite": false,
  "nextlayerid": 40,
  "nextobjectid": 81,
  "orientation": "orthogonal",
  "renderorder": "right-down",
  "tiledversion": "1.11.2",
  "tileheight": 32,
  "tilewidth": 32,
  "type": "map",
  "version": "1.10",
  "layers": [
    {
      "id": 2,
      "name": "BackgroundReference",
      "type": "objectgroup",
      "draworder": "topdown",
      "opacity": 1,
      "visible": false,
      "objects": [
        {
          "id": 1,
          "name": "reference-photo",
          "type": "reference-photo",
          "x": 0,
          "y": 0,
          "width": 6400,
          "height": 1200,
          "rotation": 0,
          "visible": true,
          "properties": [
            {
              "name": "editorOnly",
              "type": "bool",
              "value": true
            },
            {
              "name": "runtimeId",
              "type": "string",
              "value": "level_4_oficina_422_comedor_escaleras-reference"
            }
          ],
          "image": "../../../../../public/ground-floor-25may-sector.jpg"
        }
      ],
      "locked": true,
      "properties": [
        {
          "name": "editorOnly",
          "type": "bool",
          "value": true
        }
      ]
    },
    {
      "id": 3,
      "name": "Background",
      "type": "objectgroup",
      "draworder": "topdown",
      "opacity": 1,
      "visible": true,
      "objects": [
        {
          "id": 56,
          "name": "fourth-entry-background-0",
          "type": "visual",
          "x": 2013,
          "y": 916,
          "width": 520,
          "height": 300,
          "rotation": 0,
          "visible": true,
          "properties": [
            {
              "name": "runtimeId",
              "type": "string",
              "value": "level_4_oficina_422_comedor_escaleras-background-0"
            },
            {
              "name": "assetKey",
              "type": "string",
              "value": "executive-office-kit"
            },
            {
              "name": "frame",
              "type": "string",
              "value": "executive-office-kit-frame-4"
            },
            {
              "name": "depth",
              "type": "int",
              "value": -50
            },
            {
              "name": "anchor",
              "type": "string",
              "value": "0.5,1"
            },
            {
              "name": "alpha",
              "type": "int",
              "value": 1
            },
            {
              "name": "tint",
              "type": "string",
              "value": "#ffffff"
            },
            {
              "name": "scrollFactorX",
              "type": "float",
              "value": 0.75
            },
            {
              "name": "scrollFactorY",
              "type": "int",
              "value": 1
            },
            {
              "name": "visualRole",
              "type": "string",
              "value": "background"
            },
            {
              "name": "sector",
              "type": "string",
              "value": "fourth-entry"
            }
          ]
        },
        {
          "id": 57,
          "name": "office-422-antechamber-background-1",
          "type": "visual",
          "x": 3947,
          "y": 916,
          "width": 520,
          "height": 300,
          "rotation": 0,
          "visible": true,
          "properties": [
            {
              "name": "runtimeId",
              "type": "string",
              "value": "level_4_oficina_422_comedor_escaleras-background-1"
            },
            {
              "name": "assetKey",
              "type": "string",
              "value": "upper-cafeteria-kit"
            },
            {
              "name": "frame",
              "type": "string",
              "value": "upper-cafeteria-kit-frame-5"
            },
            {
              "name": "depth",
              "type": "int",
              "value": -50
            },
            {
              "name": "anchor",
              "type": "string",
              "value": "0.5,1"
            },
            {
              "name": "alpha",
              "type": "int",
              "value": 1
            },
            {
              "name": "tint",
              "type": "string",
              "value": "#ffffff"
            },
            {
              "name": "scrollFactorX",
              "type": "float",
              "value": 0.75
            },
            {
              "name": "scrollFactorY",
              "type": "int",
              "value": 1
            },
            {
              "name": "visualRole",
              "type": "string",
              "value": "background"
            },
            {
              "name": "sector",
              "type": "string",
              "value": "office-422-antechamber"
            }
          ]
        }
      ]
    },
    {
      "id": 36,
      "name": "DistantArchitecture",
      "type": "objectgroup",
      "draworder": "topdown",
      "opacity": 1,
      "visible": true,
      "objects": [
        {
          "id": 58,
          "name": "office-422-antechamber-distantarchitecture-0",
          "type": "visual",
          "x": 2013,
          "y": 906,
          "width": 176,
          "height": 150,
          "rotation": 0,
          "visible": true,
          "properties": [
            {
              "name": "runtimeId",
              "type": "string",
              "value": "level_4_oficina_422_comedor_escaleras-distantarchitecture-0"
            },
            {
              "name": "assetKey",
              "type": "string",
              "value": "upper-cafeteria-kit"
            },
            {
              "name": "frame",
              "type": "string",
              "value": "upper-cafeteria-kit-frame-4"
            },
            {
              "name": "depth",
              "type": "int",
              "value": -40
            },
            {
              "name": "anchor",
              "type": "string",
              "value": "0.5,1"
            },
            {
              "name": "alpha",
              "type": "int",
              "value": 1
            },
            {
              "name": "tint",
              "type": "string",
              "value": "#ffffff"
            },
            {
              "name": "scrollFactorX",
              "type": "float",
              "value": 0.75
            },
            {
              "name": "scrollFactorY",
              "type": "int",
              "value": 1
            },
            {
              "name": "visualRole",
              "type": "string",
              "value": "distantArchitecture"
            },
            {
              "name": "sector",
              "type": "string",
              "value": "office-422-antechamber"
            }
          ]
        },
        {
          "id": 59,
          "name": "executive-office-422-distantarchitecture-1",
          "type": "visual",
          "x": 3947,
          "y": 906,
          "width": 224,
          "height": 210,
          "rotation": 0,
          "visible": true,
          "properties": [
            {
              "name": "runtimeId",
              "type": "string",
              "value": "level_4_oficina_422_comedor_escaleras-distantarchitecture-1"
            },
            {
              "name": "assetKey",
              "type": "string",
              "value": "stair-core-kit"
            },
            {
              "name": "frame",
              "type": "string",
              "value": "stair-core-kit-frame-5"
            },
            {
              "name": "depth",
              "type": "int",
              "value": -40
            },
            {
              "name": "anchor",
              "type": "string",
              "value": "0.5,1"
            },
            {
              "name": "alpha",
              "type": "int",
              "value": 1
            },
            {
              "name": "tint",
              "type": "string",
              "value": "#ffffff"
            },
            {
              "name": "scrollFactorX",
              "type": "float",
              "value": 0.75
            },
            {
              "name": "scrollFactorY",
              "type": "int",
              "value": 1
            },
            {
              "name": "visualRole",
              "type": "string",
              "value": "distantArchitecture"
            },
            {
              "name": "sector",
              "type": "string",
              "value": "executive-office-422"
            }
          ]
        }
      ]
    },
    {
      "id": 4,
      "name": "RearArchitecture",
      "type": "objectgroup",
      "draworder": "topdown",
      "opacity": 1,
      "visible": true,
      "objects": [
        {
          "id": 60,
          "name": "executive-office-422-reararchitecture-0",
          "type": "visual",
          "x": 2013,
          "y": 1056,
          "width": 176,
          "height": 150,
          "rotation": 0,
          "visible": true,
          "properties": [
            {
              "name": "runtimeId",
              "type": "string",
              "value": "level_4_oficina_422_comedor_escaleras-reararchitecture-0"
            },
            {
              "name": "assetKey",
              "type": "string",
              "value": "stair-core-kit"
            },
            {
              "name": "frame",
              "type": "string",
              "value": "stair-core-kit-frame-4"
            },
            {
              "name": "depth",
              "type": "int",
              "value": -30
            },
            {
              "name": "anchor",
              "type": "string",
              "value": "0.5,1"
            },
            {
              "name": "alpha",
              "type": "int",
              "value": 1
            },
            {
              "name": "tint",
              "type": "string",
              "value": "#ffffff"
            },
            {
              "name": "scrollFactorX",
              "type": "int",
              "value": 1
            },
            {
              "name": "scrollFactorY",
              "type": "int",
              "value": 1
            },
            {
              "name": "visualRole",
              "type": "string",
              "value": "rearArchitecture"
            },
            {
              "name": "sector",
              "type": "string",
              "value": "executive-office-422"
            }
          ]
        },
        {
          "id": 61,
          "name": "upper-cafeteria-reararchitecture-1",
          "type": "visual",
          "x": 3947,
          "y": 1006,
          "width": 224,
          "height": 210,
          "rotation": 0,
          "visible": true,
          "properties": [
            {
              "name": "runtimeId",
              "type": "string",
              "value": "level_4_oficina_422_comedor_escaleras-reararchitecture-1"
            },
            {
              "name": "assetKey",
              "type": "string",
              "value": "executive-office-kit"
            },
            {
              "name": "frame",
              "type": "string",
              "value": "executive-office-kit-frame-5"
            },
            {
              "name": "depth",
              "type": "int",
              "value": -30
            },
            {
              "name": "anchor",
              "type": "string",
              "value": "0.5,1"
            },
            {
              "name": "alpha",
              "type": "int",
              "value": 1
            },
            {
              "name": "tint",
              "type": "string",
              "value": "#ffffff"
            },
            {
              "name": "scrollFactorX",
              "type": "int",
              "value": 1
            },
            {
              "name": "scrollFactorY",
              "type": "int",
              "value": 1
            },
            {
              "name": "visualRole",
              "type": "string",
              "value": "rearArchitecture"
            },
            {
              "name": "sector",
              "type": "string",
              "value": "upper-cafeteria"
            }
          ]
        }
      ]
    },
    {
      "id": 5,
      "name": "Architecture",
      "type": "objectgroup",
      "draworder": "topdown",
      "opacity": 1,
      "visible": true,
      "objects": [
        {
          "id": 62,
          "name": "upper-cafeteria-architecture-0",
          "type": "visual",
          "x": 909,
          "y": 1056,
          "width": 176,
          "height": 150,
          "rotation": 0,
          "visible": true,
          "properties": [
            {
              "name": "runtimeId",
              "type": "string",
              "value": "level_4_oficina_422_comedor_escaleras-architecture-0"
            },
            {
              "name": "assetKey",
              "type": "string",
              "value": "executive-office-kit"
            },
            {
              "name": "frame",
              "type": "string",
              "value": "executive-office-kit-frame-4"
            },
            {
              "name": "depth",
              "type": "int",
              "value": -20
            },
            {
              "name": "anchor",
              "type": "string",
              "value": "0.5,1"
            },
            {
              "name": "alpha",
              "type": "int",
              "value": 1
            },
            {
              "name": "tint",
              "type": "string",
              "value": "#ffffff"
            },
            {
              "name": "scrollFactorX",
              "type": "int",
              "value": 1
            },
            {
              "name": "scrollFactorY",
              "type": "int",
              "value": 1
            },
            {
              "name": "visualRole",
              "type": "string",
              "value": "architecture"
            },
            {
              "name": "sector",
              "type": "string",
              "value": "upper-cafeteria"
            }
          ]
        },
        {
          "id": 63,
          "name": "narrative-table-architecture-1",
          "type": "visual",
          "x": 1737,
          "y": 1006,
          "width": 224,
          "height": 210,
          "rotation": 0,
          "visible": true,
          "properties": [
            {
              "name": "runtimeId",
              "type": "string",
              "value": "level_4_oficina_422_comedor_escaleras-architecture-1"
            },
            {
              "name": "assetKey",
              "type": "string",
              "value": "upper-cafeteria-kit"
            },
            {
              "name": "frame",
              "type": "string",
              "value": "upper-cafeteria-kit-frame-5"
            },
            {
              "name": "depth",
              "type": "int",
              "value": -20
            },
            {
              "name": "anchor",
              "type": "string",
              "value": "0.5,1"
            },
            {
              "name": "alpha",
              "type": "int",
              "value": 1
            },
            {
              "name": "tint",
              "type": "string",
              "value": "#ffffff"
            },
            {
              "name": "scrollFactorX",
              "type": "int",
              "value": 1
            },
            {
              "name": "scrollFactorY",
              "type": "int",
              "value": 1
            },
            {
              "name": "visualRole",
              "type": "string",
              "value": "architecture"
            },
            {
              "name": "sector",
              "type": "string",
              "value": "narrative-table"
            }
          ]
        },
        {
          "id": 64,
          "name": "down-stair-architecture-2",
          "type": "visual",
          "x": 2566,
          "y": 1056,
          "width": 272,
          "height": 150,
          "rotation": 0,
          "visible": true,
          "properties": [
            {
              "name": "runtimeId",
              "type": "string",
              "value": "level_4_oficina_422_comedor_escaleras-architecture-2"
            },
            {
              "name": "assetKey",
              "type": "string",
              "value": "stair-core-kit"
            },
            {
              "name": "frame",
              "type": "string",
              "value": "stair-core-kit-frame-6"
            },
            {
              "name": "depth",
              "type": "int",
              "value": -20
            },
            {
              "name": "anchor",
              "type": "string",
              "value": "0.5,1"
            },
            {
              "name": "alpha",
              "type": "int",
              "value": 1
            },
            {
              "name": "tint",
              "type": "string",
              "value": "#ffffff"
            },
            {
              "name": "scrollFactorX",
              "type": "int",
              "value": 1
            },
            {
              "name": "scrollFactorY",
              "type": "int",
              "value": 1
            },
            {
              "name": "visualRole",
              "type": "string",
              "value": "architecture"
            },
            {
              "name": "sector",
              "type": "string",
              "value": "down-stair"
            }
          ]
        },
        {
          "id": 65,
          "name": "fourth-entry-architecture-3",
          "type": "visual",
          "x": 3394,
          "y": 1006,
          "width": 176,
          "height": 210,
          "rotation": 0,
          "visible": true,
          "properties": [
            {
              "name": "runtimeId",
              "type": "string",
              "value": "level_4_oficina_422_comedor_escaleras-architecture-3"
            },
            {
              "name": "assetKey",
              "type": "string",
              "value": "executive-office-kit"
            },
            {
              "name": "frame",
              "type": "string",
              "value": "executive-office-kit-frame-7"
            },
            {
              "name": "depth",
              "type": "int",
              "value": -20
            },
            {
              "name": "anchor",
              "type": "string",
              "value": "0.5,1"
            },
            {
              "name": "alpha",
              "type": "int",
              "value": 1
            },
            {
              "name": "tint",
              "type": "string",
              "value": "#ffffff"
            },
            {
              "name": "scrollFactorX",
              "type": "int",
              "value": 1
            },
            {
              "name": "scrollFactorY",
              "type": "int",
              "value": 1
            },
            {
              "name": "visualRole",
              "type": "string",
              "value": "architecture"
            },
            {
              "name": "sector",
              "type": "string",
              "value": "fourth-entry"
            }
          ]
        },
        {
          "id": 66,
          "name": "office-422-antechamber-architecture-4",
          "type": "visual",
          "x": 4223,
          "y": 1056,
          "width": 224,
          "height": 150,
          "rotation": 0,
          "visible": true,
          "properties": [
            {
              "name": "runtimeId",
              "type": "string",
              "value": "level_4_oficina_422_comedor_escaleras-architecture-4"
            },
            {
              "name": "assetKey",
              "type": "string",
              "value": "upper-cafeteria-kit"
            },
            {
              "name": "frame",
              "type": "string",
              "value": "upper-cafeteria-kit-frame-0"
            },
            {
              "name": "depth",
              "type": "int",
              "value": -20
            },
            {
              "name": "anchor",
              "type": "string",
              "value": "0.5,1"
            },
            {
              "name": "alpha",
              "type": "int",
              "value": 1
            },
            {
              "name": "tint",
              "type": "string",
              "value": "#ffffff"
            },
            {
              "name": "scrollFactorX",
              "type": "int",
              "value": 1
            },
            {
              "name": "scrollFactorY",
              "type": "int",
              "value": 1
            },
            {
              "name": "visualRole",
              "type": "string",
              "value": "architecture"
            },
            {
              "name": "sector",
              "type": "string",
              "value": "office-422-antechamber"
            }
          ]
        },
        {
          "id": 67,
          "name": "executive-office-422-architecture-5",
          "type": "visual",
          "x": 5051,
          "y": 1006,
          "width": 272,
          "height": 210,
          "rotation": 0,
          "visible": true,
          "properties": [
            {
              "name": "runtimeId",
              "type": "string",
              "value": "level_4_oficina_422_comedor_escaleras-architecture-5"
            },
            {
              "name": "assetKey",
              "type": "string",
              "value": "stair-core-kit"
            },
            {
              "name": "frame",
              "type": "string",
              "value": "stair-core-kit-frame-1"
            },
            {
              "name": "depth",
              "type": "int",
              "value": -20
            },
            {
              "name": "anchor",
              "type": "string",
              "value": "0.5,1"
            },
            {
              "name": "alpha",
              "type": "int",
              "value": 1
            },
            {
              "name": "tint",
              "type": "string",
              "value": "#ffffff"
            },
            {
              "name": "scrollFactorX",
              "type": "int",
              "value": 1
            },
            {
              "name": "scrollFactorY",
              "type": "int",
              "value": 1
            },
            {
              "name": "visualRole",
              "type": "string",
              "value": "architecture"
            },
            {
              "name": "sector",
              "type": "string",
              "value": "executive-office-422"
            }
          ]
        }
      ]
    },
    {
      "id": 6,
      "name": "RearProps",
      "type": "objectgroup",
      "draworder": "topdown",
      "opacity": 1,
      "visible": true,
      "objects": [
        {
          "id": 68,
          "name": "narrative-table-rearprops-0",
          "type": "visual",
          "x": 2013,
          "y": 1056,
          "width": 176,
          "height": 150,
          "rotation": 0,
          "visible": true,
          "properties": [
            {
              "name": "runtimeId",
              "type": "string",
              "value": "level_4_oficina_422_comedor_escaleras-rearprops-0"
            },
            {
              "name": "assetKey",
              "type": "string",
              "value": "upper-cafeteria-kit"
            },
            {
              "name": "frame",
              "type": "string",
              "value": "upper-cafeteria-kit-frame-4"
            },
            {
              "name": "depth",
              "type": "int",
              "value": -10
            },
            {
              "name": "anchor",
              "type": "string",
              "value": "0.5,1"
            },
            {
              "name": "alpha",
              "type": "int",
              "value": 1
            },
            {
              "name": "tint",
              "type": "string",
              "value": "#ffffff"
            },
            {
              "name": "scrollFactorX",
              "type": "int",
              "value": 1
            },
            {
              "name": "scrollFactorY",
              "type": "int",
              "value": 1
            },
            {
              "name": "visualRole",
              "type": "string",
              "value": "rearProp"
            },
            {
              "name": "sector",
              "type": "string",
              "value": "narrative-table"
            }
          ]
        },
        {
          "id": 69,
          "name": "down-stair-rearprops-1",
          "type": "visual",
          "x": 3947,
          "y": 1006,
          "width": 224,
          "height": 210,
          "rotation": 0,
          "visible": true,
          "properties": [
            {
              "name": "runtimeId",
              "type": "string",
              "value": "level_4_oficina_422_comedor_escaleras-rearprops-1"
            },
            {
              "name": "assetKey",
              "type": "string",
              "value": "stair-core-kit"
            },
            {
              "name": "frame",
              "type": "string",
              "value": "stair-core-kit-frame-5"
            },
            {
              "name": "depth",
              "type": "int",
              "value": -10
            },
            {
              "name": "anchor",
              "type": "string",
              "value": "0.5,1"
            },
            {
              "name": "alpha",
              "type": "int",
              "value": 1
            },
            {
              "name": "tint",
              "type": "string",
              "value": "#ffffff"
            },
            {
              "name": "scrollFactorX",
              "type": "int",
              "value": 1
            },
            {
              "name": "scrollFactorY",
              "type": "int",
              "value": 1
            },
            {
              "name": "visualRole",
              "type": "string",
              "value": "rearProp"
            },
            {
              "name": "sector",
              "type": "string",
              "value": "down-stair"
            }
          ]
        }
      ]
    },
    {
      "id": 7,
      "name": "GameplayDecor",
      "type": "objectgroup",
      "draworder": "topdown",
      "opacity": 1,
      "visible": true,
      "objects": [
        {
          "id": 70,
          "name": "down-stair-gameplaydecor-0",
          "type": "visual",
          "x": 909,
          "y": 1056,
          "width": 176,
          "height": 150,
          "rotation": 0,
          "visible": true,
          "properties": [
            {
              "name": "runtimeId",
              "type": "string",
              "value": "level_4_oficina_422_comedor_escaleras-gameplaydecor-0"
            },
            {
              "name": "assetKey",
              "type": "string",
              "value": "stair-core-kit"
            },
            {
              "name": "frame",
              "type": "string",
              "value": "stair-core-kit-frame-4"
            },
            {
              "name": "depth",
              "type": "int",
              "value": 0
            },
            {
              "name": "anchor",
              "type": "string",
              "value": "0.5,1"
            },
            {
              "name": "alpha",
              "type": "int",
              "value": 1
            },
            {
              "name": "tint",
              "type": "string",
              "value": "#ffffff"
            },
            {
              "name": "scrollFactorX",
              "type": "int",
              "value": 1
            },
            {
              "name": "scrollFactorY",
              "type": "int",
              "value": 1
            },
            {
              "name": "visualRole",
              "type": "string",
              "value": "gameplayDecor"
            },
            {
              "name": "sector",
              "type": "string",
              "value": "down-stair"
            }
          ]
        },
        {
          "id": 71,
          "name": "fourth-entry-gameplaydecor-1",
          "type": "visual",
          "x": 1737,
          "y": 1006,
          "width": 224,
          "height": 210,
          "rotation": 0,
          "visible": true,
          "properties": [
            {
              "name": "runtimeId",
              "type": "string",
              "value": "level_4_oficina_422_comedor_escaleras-gameplaydecor-1"
            },
            {
              "name": "assetKey",
              "type": "string",
              "value": "executive-office-kit"
            },
            {
              "name": "frame",
              "type": "string",
              "value": "executive-office-kit-frame-5"
            },
            {
              "name": "depth",
              "type": "int",
              "value": 0
            },
            {
              "name": "anchor",
              "type": "string",
              "value": "0.5,1"
            },
            {
              "name": "alpha",
              "type": "int",
              "value": 1
            },
            {
              "name": "tint",
              "type": "string",
              "value": "#ffffff"
            },
            {
              "name": "scrollFactorX",
              "type": "int",
              "value": 1
            },
            {
              "name": "scrollFactorY",
              "type": "int",
              "value": 1
            },
            {
              "name": "visualRole",
              "type": "string",
              "value": "gameplayDecor"
            },
            {
              "name": "sector",
              "type": "string",
              "value": "fourth-entry"
            }
          ]
        },
        {
          "id": 72,
          "name": "office-422-antechamber-gameplaydecor-2",
          "type": "visual",
          "x": 2566,
          "y": 1056,
          "width": 272,
          "height": 150,
          "rotation": 0,
          "visible": true,
          "properties": [
            {
              "name": "runtimeId",
              "type": "string",
              "value": "level_4_oficina_422_comedor_escaleras-gameplaydecor-2"
            },
            {
              "name": "assetKey",
              "type": "string",
              "value": "upper-cafeteria-kit"
            },
            {
              "name": "frame",
              "type": "string",
              "value": "upper-cafeteria-kit-frame-6"
            },
            {
              "name": "depth",
              "type": "int",
              "value": 0
            },
            {
              "name": "anchor",
              "type": "string",
              "value": "0.5,1"
            },
            {
              "name": "alpha",
              "type": "int",
              "value": 1
            },
            {
              "name": "tint",
              "type": "string",
              "value": "#ffffff"
            },
            {
              "name": "scrollFactorX",
              "type": "int",
              "value": 1
            },
            {
              "name": "scrollFactorY",
              "type": "int",
              "value": 1
            },
            {
              "name": "visualRole",
              "type": "string",
              "value": "gameplayDecor"
            },
            {
              "name": "sector",
              "type": "string",
              "value": "office-422-antechamber"
            }
          ]
        },
        {
          "id": 73,
          "name": "executive-office-422-gameplaydecor-3",
          "type": "visual",
          "x": 3394,
          "y": 1006,
          "width": 176,
          "height": 210,
          "rotation": 0,
          "visible": true,
          "properties": [
            {
              "name": "runtimeId",
              "type": "string",
              "value": "level_4_oficina_422_comedor_escaleras-gameplaydecor-3"
            },
            {
              "name": "assetKey",
              "type": "string",
              "value": "stair-core-kit"
            },
            {
              "name": "frame",
              "type": "string",
              "value": "stair-core-kit-frame-7"
            },
            {
              "name": "depth",
              "type": "int",
              "value": 0
            },
            {
              "name": "anchor",
              "type": "string",
              "value": "0.5,1"
            },
            {
              "name": "alpha",
              "type": "int",
              "value": 1
            },
            {
              "name": "tint",
              "type": "string",
              "value": "#ffffff"
            },
            {
              "name": "scrollFactorX",
              "type": "int",
              "value": 1
            },
            {
              "name": "scrollFactorY",
              "type": "int",
              "value": 1
            },
            {
              "name": "visualRole",
              "type": "string",
              "value": "gameplayDecor"
            },
            {
              "name": "sector",
              "type": "string",
              "value": "executive-office-422"
            }
          ]
        },
        {
          "id": 74,
          "name": "upper-cafeteria-gameplaydecor-4",
          "type": "visual",
          "x": 4223,
          "y": 1056,
          "width": 224,
          "height": 150,
          "rotation": 0,
          "visible": true,
          "properties": [
            {
              "name": "runtimeId",
              "type": "string",
              "value": "level_4_oficina_422_comedor_escaleras-gameplaydecor-4"
            },
            {
              "name": "assetKey",
              "type": "string",
              "value": "executive-office-kit"
            },
            {
              "name": "frame",
              "type": "string",
              "value": "executive-office-kit-frame-0"
            },
            {
              "name": "depth",
              "type": "int",
              "value": 0
            },
            {
              "name": "anchor",
              "type": "string",
              "value": "0.5,1"
            },
            {
              "name": "alpha",
              "type": "int",
              "value": 1
            },
            {
              "name": "tint",
              "type": "string",
              "value": "#ffffff"
            },
            {
              "name": "scrollFactorX",
              "type": "int",
              "value": 1
            },
            {
              "name": "scrollFactorY",
              "type": "int",
              "value": 1
            },
            {
              "name": "visualRole",
              "type": "string",
              "value": "gameplayDecor"
            },
            {
              "name": "sector",
              "type": "string",
              "value": "upper-cafeteria"
            }
          ]
        },
        {
          "id": 75,
          "name": "narrative-table-gameplaydecor-5",
          "type": "visual",
          "x": 5051,
          "y": 1006,
          "width": 272,
          "height": 210,
          "rotation": 0,
          "visible": true,
          "properties": [
            {
              "name": "runtimeId",
              "type": "string",
              "value": "level_4_oficina_422_comedor_escaleras-gameplaydecor-5"
            },
            {
              "name": "assetKey",
              "type": "string",
              "value": "upper-cafeteria-kit"
            },
            {
              "name": "frame",
              "type": "string",
              "value": "upper-cafeteria-kit-frame-1"
            },
            {
              "name": "depth",
              "type": "int",
              "value": 0
            },
            {
              "name": "anchor",
              "type": "string",
              "value": "0.5,1"
            },
            {
              "name": "alpha",
              "type": "int",
              "value": 1
            },
            {
              "name": "tint",
              "type": "string",
              "value": "#ffffff"
            },
            {
              "name": "scrollFactorX",
              "type": "int",
              "value": 1
            },
            {
              "name": "scrollFactorY",
              "type": "int",
              "value": 1
            },
            {
              "name": "visualRole",
              "type": "string",
              "value": "gameplayDecor"
            },
            {
              "name": "sector",
              "type": "string",
              "value": "narrative-table"
            }
          ]
        }
      ]
    },
    {
      "id": 8,
      "name": "FrontProps",
      "type": "objectgroup",
      "draworder": "topdown",
      "opacity": 1,
      "visible": true,
      "objects": [
        {
          "id": 76,
          "name": "fourth-entry-frontprops-0",
          "type": "visual",
          "x": 2013,
          "y": 1056,
          "width": 176,
          "height": 150,
          "rotation": 0,
          "visible": true,
          "properties": [
            {
              "name": "runtimeId",
              "type": "string",
              "value": "level_4_oficina_422_comedor_escaleras-frontprops-0"
            },
            {
              "name": "assetKey",
              "type": "string",
              "value": "executive-office-kit"
            },
            {
              "name": "frame",
              "type": "string",
              "value": "executive-office-kit-frame-4"
            },
            {
              "name": "depth",
              "type": "int",
              "value": 10
            },
            {
              "name": "anchor",
              "type": "string",
              "value": "0.5,1"
            },
            {
              "name": "alpha",
              "type": "int",
              "value": 1
            },
            {
              "name": "tint",
              "type": "string",
              "value": "#ffffff"
            },
            {
              "name": "scrollFactorX",
              "type": "int",
              "value": 1
            },
            {
              "name": "scrollFactorY",
              "type": "int",
              "value": 1
            },
            {
              "name": "visualRole",
              "type": "string",
              "value": "frontProp"
            },
            {
              "name": "sector",
              "type": "string",
              "value": "fourth-entry"
            }
          ]
        },
        {
          "id": 77,
          "name": "office-422-antechamber-frontprops-1",
          "type": "visual",
          "x": 3947,
          "y": 1006,
          "width": 224,
          "height": 210,
          "rotation": 0,
          "visible": true,
          "properties": [
            {
              "name": "runtimeId",
              "type": "string",
              "value": "level_4_oficina_422_comedor_escaleras-frontprops-1"
            },
            {
              "name": "assetKey",
              "type": "string",
              "value": "upper-cafeteria-kit"
            },
            {
              "name": "frame",
              "type": "string",
              "value": "upper-cafeteria-kit-frame-5"
            },
            {
              "name": "depth",
              "type": "int",
              "value": 10
            },
            {
              "name": "anchor",
              "type": "string",
              "value": "0.5,1"
            },
            {
              "name": "alpha",
              "type": "int",
              "value": 1
            },
            {
              "name": "tint",
              "type": "string",
              "value": "#ffffff"
            },
            {
              "name": "scrollFactorX",
              "type": "int",
              "value": 1
            },
            {
              "name": "scrollFactorY",
              "type": "int",
              "value": 1
            },
            {
              "name": "visualRole",
              "type": "string",
              "value": "frontProp"
            },
            {
              "name": "sector",
              "type": "string",
              "value": "office-422-antechamber"
            }
          ]
        }
      ]
    },
    {
      "id": 9,
      "name": "Foreground",
      "type": "objectgroup",
      "draworder": "topdown",
      "opacity": 1,
      "visible": true,
      "objects": [
        {
          "id": 78,
          "name": "office-422-antechamber-foreground-0",
          "type": "visual",
          "x": 2013,
          "y": 1056,
          "width": 176,
          "height": 150,
          "rotation": 0,
          "visible": true,
          "properties": [
            {
              "name": "runtimeId",
              "type": "string",
              "value": "level_4_oficina_422_comedor_escaleras-foreground-0"
            },
            {
              "name": "assetKey",
              "type": "string",
              "value": "upper-cafeteria-kit"
            },
            {
              "name": "frame",
              "type": "string",
              "value": "upper-cafeteria-kit-frame-4"
            },
            {
              "name": "depth",
              "type": "int",
              "value": 20
            },
            {
              "name": "anchor",
              "type": "string",
              "value": "0.5,1"
            },
            {
              "name": "alpha",
              "type": "float",
              "value": 0.88
            },
            {
              "name": "tint",
              "type": "string",
              "value": "#ffffff"
            },
            {
              "name": "scrollFactorX",
              "type": "int",
              "value": 1
            },
            {
              "name": "scrollFactorY",
              "type": "int",
              "value": 1
            },
            {
              "name": "visualRole",
              "type": "string",
              "value": "foreground"
            },
            {
              "name": "sector",
              "type": "string",
              "value": "office-422-antechamber"
            }
          ]
        },
        {
          "id": 79,
          "name": "executive-office-422-foreground-1",
          "type": "visual",
          "x": 3947,
          "y": 1006,
          "width": 224,
          "height": 210,
          "rotation": 0,
          "visible": true,
          "properties": [
            {
              "name": "runtimeId",
              "type": "string",
              "value": "level_4_oficina_422_comedor_escaleras-foreground-1"
            },
            {
              "name": "assetKey",
              "type": "string",
              "value": "stair-core-kit"
            },
            {
              "name": "frame",
              "type": "string",
              "value": "stair-core-kit-frame-5"
            },
            {
              "name": "depth",
              "type": "int",
              "value": 20
            },
            {
              "name": "anchor",
              "type": "string",
              "value": "0.5,1"
            },
            {
              "name": "alpha",
              "type": "float",
              "value": 0.88
            },
            {
              "name": "tint",
              "type": "string",
              "value": "#ffffff"
            },
            {
              "name": "scrollFactorX",
              "type": "int",
              "value": 1
            },
            {
              "name": "scrollFactorY",
              "type": "int",
              "value": 1
            },
            {
              "name": "visualRole",
              "type": "string",
              "value": "foreground"
            },
            {
              "name": "sector",
              "type": "string",
              "value": "executive-office-422"
            }
          ]
        }
      ]
    },
    {
      "id": 10,
      "name": "LightingAnchors",
      "type": "objectgroup",
      "draworder": "topdown",
      "opacity": 1,
      "visible": true,
      "objects": [
        {
          "id": 53,
          "name": "practical-light-1",
          "type": "light-anchor",
          "x": 1408,
          "y": 826,
          "width": 1,
          "height": 1,
          "rotation": 0,
          "visible": true,
          "properties": [
            {
              "name": "lightAnchorId",
              "type": "string",
              "value": "level_4_oficina_422_comedor_escaleras-light-1"
            },
            {
              "name": "tint",
              "type": "string",
              "value": "0xffd27a"
            },
            {
              "name": "qualityTier",
              "type": "string",
              "value": "balanced"
            },
            {
              "name": "runtimeId",
              "type": "string",
              "value": "level_4_oficina_422_comedor_escaleras-visual-53"
            }
          ]
        },
        {
          "id": 54,
          "name": "practical-light-2",
          "type": "light-anchor",
          "x": 3328,
          "y": 826,
          "width": 1,
          "height": 1,
          "rotation": 0,
          "visible": true,
          "properties": [
            {
              "name": "lightAnchorId",
              "type": "string",
              "value": "level_4_oficina_422_comedor_escaleras-light-2"
            },
            {
              "name": "tint",
              "type": "string",
              "value": "0xb9d8ff"
            },
            {
              "name": "qualityTier",
              "type": "string",
              "value": "balanced"
            },
            {
              "name": "runtimeId",
              "type": "string",
              "value": "level_4_oficina_422_comedor_escaleras-visual-54"
            }
          ]
        },
        {
          "id": 55,
          "name": "practical-light-3",
          "type": "light-anchor",
          "x": 5120,
          "y": 826,
          "width": 1,
          "height": 1,
          "rotation": 0,
          "visible": true,
          "properties": [
            {
              "name": "lightAnchorId",
              "type": "string",
              "value": "level_4_oficina_422_comedor_escaleras-light-3"
            },
            {
              "name": "tint",
              "type": "string",
              "value": "0xffd27a"
            },
            {
              "name": "qualityTier",
              "type": "string",
              "value": "balanced"
            },
            {
              "name": "runtimeId",
              "type": "string",
              "value": "level_4_oficina_422_comedor_escaleras-visual-55"
            }
          ]
        }
      ]
    },
    {
      "id": 39,
      "name": "OcclusionZones",
      "type": "objectgroup",
      "draworder": "topdown",
      "opacity": 1,
      "visible": true,
      "objects": [
        {
          "id": 52,
          "name": "localized-darkness",
          "type": "occlusion-zone",
          "x": 4352,
          "y": 816,
          "width": 1024,
          "height": 300,
          "rotation": 0,
          "visible": true,
          "properties": [
            {
              "name": "alpha",
              "type": "float",
              "value": 0.18
            },
            {
              "name": "runtimeId",
              "type": "string",
              "value": "level_4_oficina_422_comedor_escaleras-visual-52"
            }
          ]
        }
      ]
    },
    {
      "id": 38,
      "name": "ReflectionZones",
      "type": "objectgroup",
      "draworder": "topdown",
      "opacity": 1,
      "visible": true,
      "objects": [
        {
          "id": 51,
          "name": "wet-floor",
          "type": "reflection-zone",
          "x": 2240,
          "y": 1086,
          "width": 1920,
          "height": 70,
          "rotation": 0,
          "visible": true,
          "properties": [
            {
              "name": "reflectionStrength",
              "type": "float",
              "value": 0.28
            },
            {
              "name": "runtimeId",
              "type": "string",
              "value": "level_4_oficina_422_comedor_escaleras-visual-51"
            }
          ]
        }
      ]
    },
    {
      "id": 37,
      "name": "AmbientZones",
      "type": "objectgroup",
      "draworder": "topdown",
      "opacity": 1,
      "visible": true,
      "objects": [
        {
          "id": 50,
          "name": "ambient-main",
          "type": "ambient-zone",
          "x": 0,
          "y": 0,
          "width": 6400,
          "height": 1216,
          "rotation": 0,
          "visible": true,
          "properties": [
            {
              "name": "tint",
              "type": "string",
              "value": "0x18212a"
            },
            {
              "name": "alpha",
              "type": "float",
              "value": 0.22
            },
            {
              "name": "qualityTier",
              "type": "string",
              "value": "balanced"
            },
            {
              "name": "runtimeId",
              "type": "string",
              "value": "level_4_oficina_422_comedor_escaleras-visual-50"
            }
          ]
        }
      ]
    },
    {
      "id": 12,
      "name": "Collision",
      "type": "objectgroup",
      "draworder": "topdown",
      "opacity": 1,
      "visible": true,
      "objects": [
        {
          "id": 11,
          "name": "floor",
          "type": "floor",
          "x": 0,
          "y": 1128,
          "width": 6400,
          "height": 72,
          "rotation": 0,
          "visible": true,
          "properties": [
            {
              "name": "runtimeId",
              "type": "string",
              "value": "level_4_oficina_422_comedor_escaleras-floor"
            },
            {
              "name": "collisionCategory",
              "type": "string",
              "value": "World"
            },
            {
              "name": "collisionMask",
              "type": "string",
              "value": "Player|Ally|Enemy|Projectile"
            },
            {
              "name": "sensor",
              "type": "bool",
              "value": false
            },
            {
              "name": "floorId",
              "type": "string",
              "value": "floor-11"
            }
          ]
        }
      ]
    },
    {
      "id": 13,
      "name": "OneWayPlatforms",
      "type": "objectgroup",
      "draworder": "topdown",
      "opacity": 1,
      "visible": true,
      "objects": []
    },
    {
      "id": 15,
      "name": "Stairs",
      "type": "objectgroup",
      "draworder": "topdown",
      "opacity": 1,
      "visible": true,
      "objects": [
        {
          "id": 14,
          "name": "internal-stair",
          "type": "internal-stair",
          "x": 3072,
          "y": 828,
          "width": 520,
          "height": 300,
          "rotation": 0,
          "visible": true,
          "properties": [
            {
              "name": "runtimeId",
              "type": "string",
              "value": "level_4_oficina_422_comedor_escaleras-stair"
            },
            {
              "name": "stairId",
              "type": "string",
              "value": "level_4_oficina_422_comedor_escaleras-stair"
            },
            {
              "name": "stairKind",
              "type": "string",
              "value": "internal"
            },
            {
              "name": "direction",
              "type": "string",
              "value": "down-right"
            },
            {
              "name": "fromElevation",
              "type": "float",
              "value": 300
            },
            {
              "name": "toElevation",
              "type": "float",
              "value": 0
            },
            {
              "name": "entrySide",
              "type": "string",
              "value": "left"
            },
            {
              "name": "exitSide",
              "type": "string",
              "value": "right"
            },
            {
              "name": "allowsPlayer",
              "type": "bool",
              "value": true
            },
            {
              "name": "allowsAllies",
              "type": "bool",
              "value": true
            },
            {
              "name": "allowsEnemies",
              "type": "bool",
              "value": true
            },
            {
              "name": "sensor",
              "type": "bool",
              "value": true
            },
            {
              "name": "interactionId",
              "type": "string",
              "value": "level_4_oficina_422_comedor_escaleras-stair-assist"
            }
          ]
        }
      ]
    },
    {
      "id": 17,
      "name": "PlayerSpawns",
      "type": "objectgroup",
      "draworder": "topdown",
      "opacity": 1,
      "visible": true,
      "objects": [
        {
          "id": 16,
          "name": "default-spawn",
          "type": "default-spawn",
          "x": 260,
          "y": 1060,
          "width": 40,
          "height": 72,
          "rotation": 0,
          "visible": true,
          "properties": [
            {
              "name": "runtimeId",
              "type": "string",
              "value": "level_4_oficina_422_comedor_escaleras-spawn-default"
            },
            {
              "name": "spawnId",
              "type": "string",
              "value": "default"
            },
            {
              "name": "floorId",
              "type": "string",
              "value": "floor-11"
            },
            {
              "name": "elevation",
              "type": "float",
              "value": 0
            }
          ]
        }
      ]
    },
    {
      "id": 18,
      "name": "AllySpawns",
      "type": "objectgroup",
      "draworder": "topdown",
      "opacity": 1,
      "visible": true,
      "objects": []
    },
    {
      "id": 19,
      "name": "EnemySpawns",
      "type": "objectgroup",
      "draworder": "topdown",
      "opacity": 1,
      "visible": true,
      "objects": []
    },
    {
      "id": 20,
      "name": "SpawnAreas",
      "type": "objectgroup",
      "draworder": "topdown",
      "opacity": 1,
      "visible": true,
      "objects": []
    },
    {
      "id": 23,
      "name": "Interactables",
      "type": "objectgroup",
      "draworder": "topdown",
      "opacity": 1,
      "visible": true,
      "objects": [
        {
          "id": 21,
          "name": "lvl05-esc01-cuarto-piso-comedor-checkpoint",
          "type": "lvl05-esc01-cuarto-piso-comedor-checkpoint",
          "x": 3200,
          "y": 1060,
          "width": 64,
          "height": 96,
          "rotation": 0,
          "visible": true,
          "properties": [
            {
              "name": "runtimeId",
              "type": "string",
              "value": "lvl05-esc01-cuarto-piso-comedor-checkpoint"
            },
            {
              "name": "interactionId",
              "type": "string",
              "value": "lvl05-esc01-cuarto-piso-comedor-checkpoint"
            },
            {
              "name": "prompt",
              "type": "string",
              "value": "E \u00b7 Asegurar checkpoint"
            },
            {
              "name": "sensor",
              "type": "bool",
              "value": true
            }
          ]
        },
        {
          "id": 22,
          "name": "lvl05-esc01-cuarto-piso-comedor-exit",
          "type": "lvl05-esc01-cuarto-piso-comedor-exit",
          "x": 6100,
          "y": 1060,
          "width": 64,
          "height": 96,
          "rotation": 0,
          "visible": true,
          "properties": [
            {
              "name": "runtimeId",
              "type": "string",
              "value": "lvl05-esc01-cuarto-piso-comedor-exit"
            },
            {
              "name": "interactionId",
              "type": "string",
              "value": "lvl05-esc01-cuarto-piso-comedor-exit"
            },
            {
              "name": "prompt",
              "type": "string",
              "value": "E \u00b7 Continuar"
            },
            {
              "name": "sensor",
              "type": "bool",
              "value": true
            }
          ]
        }
      ]
    },
    {
      "id": 25,
      "name": "Triggers",
      "type": "objectgroup",
      "draworder": "topdown",
      "opacity": 1,
      "visible": true,
      "objects": [
        {
          "id": 24,
          "name": "lvl05-esc01-cuarto-piso-comedor-narrative",
          "type": "lvl05-esc01-cuarto-piso-comedor-narrative",
          "width": 64,
          "height": 96,
          "rotation": 0,
          "visible": true,
          "properties": [
            {
              "name": "runtimeId",
              "type": "string",
              "value": "lvl05-esc01-cuarto-piso-comedor-narrative"
            },
            {
              "name": "targetId",
              "type": "string",
              "value": ""
            },
            {
              "name": "sensor",
              "type": "bool",
              "value": true
            }
          ]
        }
      ]
    },
    {
      "id": 27,
      "name": "Objectives",
      "type": "objectgroup",
      "draworder": "topdown",
      "opacity": 1,
      "visible": true,
      "objects": [
        {
          "id": 26,
          "name": "lvl05-esc01-cuarto-piso-comedor-objective",
          "type": "lvl05-esc01-cuarto-piso-comedor-objective",
          "x": 420,
          "y": 964,
          "width": 48,
          "height": 48,
          "rotation": 0,
          "visible": true,
          "properties": [
            {
              "name": "runtimeId",
              "type": "string",
              "value": "lvl05-esc01-cuarto-piso-comedor-objective"
            },
            {
              "name": "objectiveId",
              "type": "string",
              "value": "lvl05-esc01-cuarto-piso-comedor-objective"
            },
            {
              "name": "targetId",
              "type": "string",
              "value": "salida-cuarto"
            }
          ]
        }
      ]
    },
    {
      "id": 29,
      "name": "Checkpoints",
      "type": "objectgroup",
      "draworder": "topdown",
      "opacity": 1,
      "visible": true,
      "objects": [
        {
          "id": 28,
          "name": "lvl05-esc01-cuarto-piso-comedor-checkpoint",
          "type": "lvl05-esc01-cuarto-piso-comedor-checkpoint",
          "x": 3200,
          "y": 1060,
          "width": 64,
          "height": 96,
          "rotation": 0,
          "visible": true,
          "properties": [
            {
              "name": "runtimeId",
              "type": "string",
              "value": "lvl05-esc01-cuarto-piso-comedor-checkpoint-checkpoints"
            },
            {
              "name": "checkpointId",
              "type": "string",
              "value": "lvl05-esc01-cuarto-piso-comedor-checkpoint"
            },
            {
              "name": "spawnId",
              "type": "string",
              "value": "default"
            },
            {
              "name": "sensor",
              "type": "bool",
              "value": true
            }
          ]
        }
      ]
    },
    {
      "id": 30,
      "name": "Pickups",
      "type": "objectgroup",
      "draworder": "topdown",
      "opacity": 1,
      "visible": true,
      "objects": []
    },
    {
      "id": 32,
      "name": "Exits",
      "type": "objectgroup",
      "draworder": "topdown",
      "opacity": 1,
      "visible": true,
      "objects": [
        {
          "id": 31,
          "name": "salida-cuarto",
          "type": "salida-cuarto",
          "x": 6220,
          "y": 1008,
          "width": 100,
          "height": 120,
          "rotation": 0,
          "visible": true,
          "properties": [
            {
              "name": "runtimeId",
              "type": "string",
              "value": "salida-cuarto"
            },
            {
              "name": "interactionId",
              "type": "string",
              "value": "salida-cuarto"
            },
            {
              "name": "connectorId",
              "type": "string",
              "value": "salida-cuarto"
            },
            {
              "name": "targetNodeId",
              "type": "string",
              "value": "lvl05-cin01-descenso-al-quinto-piso"
            },
            {
              "name": "targetConnectorId",
              "type": "string",
              "value": "default"
            },
            {
              "name": "enabledByObjectiveId",
              "type": "string",
              "value": "lvl05-esc01-cuarto-piso-comedor-objective"
            },
            {
              "name": "sensor",
              "type": "bool",
              "value": true
            },
            {
              "name": "prompt",
              "type": "string",
              "value": "Usar salida"
            }
          ]
        }
      ]
    },
    {
      "id": 34,
      "name": "CameraBounds",
      "type": "objectgroup",
      "draworder": "topdown",
      "opacity": 1,
      "visible": true,
      "objects": [
        {
          "id": 33,
          "name": "camera-bounds",
          "type": "camera-bounds",
          "x": 0,
          "y": 0,
          "width": 6400,
          "height": 1200,
          "rotation": 0,
          "visible": true,
          "properties": [
            {
              "name": "runtimeId",
              "type": "string",
              "value": "level_4_oficina_422_comedor_escaleras-camera"
            },
            {
              "name": "editorOnly",
              "type": "bool",
              "value": false
            }
          ]
        }
      ]
    },
    {
      "id": 35,
      "name": "NavigationHints",
      "type": "objectgroup",
      "draworder": "topdown",
      "opacity": 1,
      "visible": true,
      "objects": [
        {
          "id": 80,
          "name": "visible-exit-route",
          "type": "navigation",
          "x": 5700,
          "y": 1036,
          "width": 420,
          "height": 120,
          "rotation": 0,
          "visible": true,
          "properties": [
            {
              "name": "target",
              "type": "string",
              "value": "salida-cuarto"
            },
            {
              "name": "runtimeId",
              "type": "string",
              "value": "level_4_oficina_422_comedor_escaleras-navigationhints-80"
            }
          ]
        }
      ]
    }
  ],
  "properties": [
    {
      "name": "schemaVersion",
      "type": "int",
      "value": 1
    },
    {
      "name": "nodeId",
      "type": "string",
      "value": "lvl05-esc01-cuarto-piso-comedor"
    },
    {
      "name": "canonicalNodeIds",
      "type": "string",
      "value": "lvl05-esc01-cuarto-piso-comedor"
    },
    {
      "name": "runtimeLevelId",
      "type": "string",
      "value": "level_4_oficina_422_comedor_escaleras"
    },
    {
      "name": "locationId",
      "type": "string",
      "value": "level4_oficina_422_comedor_escaleras"
    },
    {
      "name": "locationLabel",
      "type": "string",
      "value": "Atravesar el comedor del cuarto piso."
    },
    {
      "name": "floorId",
      "type": "string",
      "value": "floor-11"
    },
    {
      "name": "floorLabel",
      "type": "string",
      "value": "Piso can\u00f3nico 11"
    },
    {
      "name": "canonicalIndex",
      "type": "int",
      "value": 11
    },
    {
      "name": "entryConnectorId",
      "type": "string",
      "value": "default"
    },
    {
      "name": "exitConnectorId",
      "type": "string",
      "value": "salida-cuarto"
    },
    {
      "name": "targetNodeId",
      "type": "string",
      "value": "lvl05-cin01-descenso-al-quinto-piso"
    },
    {
      "name": "defaultCameraZoom",
      "type": "float",
      "value": 1.34
    },
    {
      "name": "gravityScale",
      "type": "float",
      "value": 1
    },
    {
      "name": "referencePhotoPath",
      "type": "file",
      "value": "public/ground-floor-25may-sector.jpg"
    },
    {
      "name": "runtimeBackgroundPath",
      "type": "file",
      "value": ""
    },
    {
      "name": "supportsVerticalCamera",
      "type": "bool",
      "value": true
    },
    {
      "name": "musicProfile",
      "type": "string",
      "value": "campaign-default"
    },
    {
      "name": "environmentProfile",
      "type": "string",
      "value": "level4_oficina_422_comedor_escaleras"
    },
    {
      "name": "floor",
      "type": "int",
      "value": 4
    },
    {
      "name": "environmentKitIds",
      "type": "string",
      "value": "executive-office-kit,upper-cafeteria-kit,stair-core-kit"
    },
    {
      "name": "compositionSignature",
      "type": "string",
      "value": "fourth-entry|office-422-antechamber|executive-office-422|upper-cafeteria|narrative-table|down-stair"
    }
  ],
  "backgroundcolor": "#111827"
}
