{
  "compressionlevel": -1,
  "height": 27,
  "width": 194,
  "infinite": false,
  "nextlayerid": 41,
  "nextobjectid": 41,
  "orientation": "orthogonal",
  "renderorder": "right-down",
  "tiledversion": "1.11.2",
  "tileheight": 32,
  "tilewidth": 32,
  "type": "map",
  "version": "1.10",
  "layers": [
    {
      "id": 2,
      "name": "BackgroundReference",
      "type": "objectgroup",
      "draworder": "topdown",
      "opacity": 1,
      "visible": false,
      "objects": [
        {
          "id": 1,
          "name": "reference-photo",
          "type": "reference-photo",
          "x": 0,
          "y": 0,
          "width": 6200,
          "height": 864,
          "rotation": 0,
          "visible": true,
          "properties": [
            {
              "name": "editorOnly",
              "type": "bool",
              "value": true
            },
            {
              "name": "runtimeId",
              "type": "string",
              "value": "level_2_hall_planta_baja-reference"
            }
          ],
          "image": "../../../../../public/ground-floor-reconquista-sector.jpg"
        }
      ],
      "locked": true,
      "properties": [
        {
          "name": "editorOnly",
          "type": "bool",
          "value": true
        }
      ]
    },
    {
      "id": 3,
      "name": "Background",
      "type": "objectgroup",
      "draworder": "topdown",
      "opacity": 1,
      "visible": true,
      "objects": []
    },
    {
      "id": 4,
      "name": "RearArchitecture",
      "type": "objectgroup",
      "draworder": "topdown",
      "opacity": 1,
      "visible": true,
      "objects": []
    },
    {
      "id": 5,
      "name": "Architecture",
      "type": "objectgroup",
      "draworder": "topdown",
      "opacity": 1,
      "visible": true,
      "objects": []
    },
    {
      "id": 6,
      "name": "RearProps",
      "type": "objectgroup",
      "draworder": "topdown",
      "opacity": 1,
      "visible": true,
      "objects": []
    },
    {
      "id": 7,
      "name": "GameplayDecor",
      "type": "objectgroup",
      "draworder": "topdown",
      "opacity": 1,
      "visible": true,
      "objects": []
    },
    {
      "id": 8,
      "name": "FrontProps",
      "type": "objectgroup",
      "draworder": "topdown",
      "opacity": 1,
      "visible": true,
      "objects": []
    },
    {
      "id": 9,
      "name": "Foreground",
      "type": "objectgroup",
      "draworder": "topdown",
      "opacity": 1,
      "visible": true,
      "objects": []
    },
    {
      "id": 10,
      "name": "LightingAnchors",
      "type": "objectgroup",
      "draworder": "topdown",
      "opacity": 1,
      "visible": true,
      "objects": []
    },
    {
      "id": 12,
      "name": "Collision",
      "type": "objectgroup",
      "draworder": "topdown",
      "opacity": 1,
      "visible": true,
      "objects": [
        {
          "id": 11,
          "name": "floor",
          "type": "floor",
          "x": 0,
          "y": 800,
          "width": 6200,
          "height": 64,
          "rotation": 0,
          "visible": true,
          "properties": [
            {
              "name": "runtimeId",
              "type": "string",
              "value": "level_2_hall_planta_baja-floor"
            },
            {
              "name": "collisionCategory",
              "type": "string",
              "value": "World"
            },
            {
              "name": "collisionMask",
              "type": "string",
              "value": "Player|Ally|Enemy|Projectile"
            },
            {
              "name": "sensor",
              "type": "bool",
              "value": false
            },
            {
              "name": "floorId",
              "type": "string",
              "value": "floor-4"
            }
          ]
        }
      ]
    },
    {
      "id": 13,
      "name": "OneWayPlatforms",
      "type": "objectgroup",
      "draworder": "topdown",
      "opacity": 1,
      "visible": true,
      "objects": []
    },
    {
      "id": 14,
      "name": "Stairs",
      "type": "objectgroup",
      "draworder": "topdown",
      "opacity": 1,
      "visible": true,
      "objects": []
    },
    {
      "id": 16,
      "name": "PlayerSpawns",
      "type": "objectgroup",
      "draworder": "topdown",
      "opacity": 1,
      "visible": true,
      "objects": [
        {
          "id": 15,
          "name": "default-spawn",
          "type": "default-spawn",
          "x": 240,
          "y": 724,
          "width": 40,
          "height": 72,
          "rotation": 0,
          "visible": true,
          "properties": [
            {
              "name": "runtimeId",
              "type": "string",
              "value": "level_2_hall_planta_baja-spawn-default"
            },
            {
              "name": "spawnId",
              "type": "string",
              "value": "default"
            },
            {
              "name": "floorId",
              "type": "string",
              "value": "floor-4"
            },
            {
              "name": "elevation",
              "type": "float",
              "value": 0
            }
          ]
        }
      ]
    },
    {
      "id": 17,
      "name": "AllySpawns",
      "type": "objectgroup",
      "draworder": "topdown",
      "opacity": 1,
      "visible": true,
      "objects": []
    },
    {
      "id": 20,
      "name": "EnemySpawns",
      "type": "objectgroup",
      "draworder": "topdown",
      "opacity": 1,
      "visible": true,
      "objects": [
        {
          "id": 18,
          "name": "hall-oeste-spawn",
          "type": "hall-oeste-spawn",
          "x": 2180,
          "y": 724,
          "width": 40,
          "height": 72,
          "rotation": 0,
          "visible": true,
          "properties": [
            {
              "name": "runtimeId",
              "type": "string",
              "value": "hall-oeste-spawn"
            },
            {
              "name": "spawnId",
              "type": "string",
              "value": "hall-oeste-spawn"
            },
            {
              "name": "floorId",
              "type": "string",
              "value": "floor-4"
            }
          ]
        },
        {
          "id": 19,
          "name": "hall-este-spawn",
          "type": "hall-este-spawn",
          "x": 4380,
          "y": 724,
          "width": 40,
          "height": 72,
          "rotation": 0,
          "visible": true,
          "properties": [
            {
              "name": "runtimeId",
              "type": "string",
              "value": "hall-este-spawn"
            },
            {
              "name": "spawnId",
              "type": "string",
              "value": "hall-este-spawn"
            },
            {
              "name": "floorId",
              "type": "string",
              "value": "floor-4"
            }
          ]
        }
      ]
    },
    {
      "id": 23,
      "name": "SpawnAreas",
      "type": "objectgroup",
      "draworder": "topdown",
      "opacity": 1,
      "visible": true,
      "objects": [
        {
          "id": 21,
          "name": "hall-oeste",
          "type": "hall-oeste",
          "x": 1400,
          "y": 494,
          "width": 1000,
          "height": 300,
          "rotation": 0,
          "visible": true,
          "properties": [
            {
              "name": "runtimeId",
              "type": "string",
              "value": "hall-oeste"
            },
            {
              "name": "sensor",
              "type": "bool",
              "value": true
            }
          ]
        },
        {
          "id": 22,
          "name": "hall-este",
          "type": "hall-este",
          "x": 3600,
          "y": 494,
          "width": 1000,
          "height": 300,
          "rotation": 0,
          "visible": true,
          "properties": [
            {
              "name": "runtimeId",
              "type": "string",
              "value": "hall-este"
            },
            {
              "name": "sensor",
              "type": "bool",
              "value": true
            }
          ]
        }
      ]
    },
    {
      "id": 26,
      "name": "Interactables",
      "type": "objectgroup",
      "draworder": "topdown",
      "opacity": 1,
      "visible": true,
      "objects": [
        {
          "id": 24,
          "name": "level_2_hall_planta_baja-checkpoint",
          "type": "level_2_hall_planta_baja-checkpoint",
          "x": 3100,
          "y": 724,
          "width": 64,
          "height": 96,
          "rotation": 0,
          "visible": true,
          "properties": [
            {
              "name": "runtimeId",
              "type": "string",
              "value": "level_2_hall_planta_baja-checkpoint"
            },
            {
              "name": "interactionId",
              "type": "string",
              "value": "level_2_hall_planta_baja-checkpoint"
            },
            {
              "name": "prompt",
              "type": "string",
              "value": "E · Asegurar checkpoint"
            },
            {
              "name": "sensor",
              "type": "bool",
              "value": true
            }
          ]
        },
        {
          "id": 25,
          "name": "level_2_hall_planta_baja-exit",
          "type": "level_2_hall_planta_baja-exit",
          "x": 5900,
          "y": 724,
          "width": 64,
          "height": 96,
          "rotation": 0,
          "visible": true,
          "properties": [
            {
              "name": "runtimeId",
              "type": "string",
              "value": "level_2_hall_planta_baja-exit"
            },
            {
              "name": "interactionId",
              "type": "string",
              "value": "level_2_hall_planta_baja-exit"
            },
            {
              "name": "prompt",
              "type": "string",
              "value": "E · Ascender al segundo piso"
            },
            {
              "name": "sensor",
              "type": "bool",
              "value": true
            }
          ]
        }
      ]
    },
    {
      "id": 28,
      "name": "Triggers",
      "type": "objectgroup",
      "draworder": "topdown",
      "opacity": 1,
      "visible": true,
      "objects": [
        {
          "id": 27,
          "name": "level_2_hall_planta_baja-narrative",
          "type": "level_2_hall_planta_baja-narrative",
          "width": 64,
          "height": 96,
          "rotation": 0,
          "visible": true,
          "properties": [
            {
              "name": "runtimeId",
              "type": "string",
              "value": "level_2_hall_planta_baja-narrative"
            },
            {
              "name": "targetId",
              "type": "string",
              "value": ""
            },
            {
              "name": "sensor",
              "type": "bool",
              "value": true
            }
          ]
        }
      ]
    },
    {
      "id": 30,
      "name": "Objectives",
      "type": "objectgroup",
      "draworder": "topdown",
      "opacity": 1,
      "visible": true,
      "objects": [
        {
          "id": 29,
          "name": "level_2_hall_planta_baja-objective",
          "type": "level_2_hall_planta_baja-objective",
          "x": 400,
          "y": 628,
          "width": 48,
          "height": 48,
          "rotation": 0,
          "visible": true,
          "properties": [
            {
              "name": "runtimeId",
              "type": "string",
              "value": "level_2_hall_planta_baja-objective"
            },
            {
              "name": "objectiveId",
              "type": "string",
              "value": "level_2_hall_planta_baja-objective"
            },
            {
              "name": "targetId",
              "type": "string",
              "value": "salida-hall"
            }
          ]
        }
      ]
    },
    {
      "id": 32,
      "name": "Checkpoints",
      "type": "objectgroup",
      "draworder": "topdown",
      "opacity": 1,
      "visible": true,
      "objects": [
        {
          "id": 31,
          "name": "level_2_hall_planta_baja-checkpoint",
          "type": "level_2_hall_planta_baja-checkpoint",
          "x": 3100,
          "y": 724,
          "width": 64,
          "height": 96,
          "rotation": 0,
          "visible": true,
          "properties": [
            {
              "name": "runtimeId",
              "type": "string",
              "value": "level_2_hall_planta_baja-checkpoint-checkpoints"
            },
            {
              "name": "checkpointId",
              "type": "string",
              "value": "level_2_hall_planta_baja-checkpoint"
            },
            {
              "name": "spawnId",
              "type": "string",
              "value": "default"
            },
            {
              "name": "sensor",
              "type": "bool",
              "value": true
            }
          ]
        }
      ]
    },
    {
      "id": 34,
      "name": "Pickups",
      "type": "objectgroup",
      "draworder": "topdown",
      "opacity": 1,
      "visible": true,
      "objects": [
        {
          "id": 33,
          "name": "level_2_hall_planta_baja-medkit",
          "type": "level_2_hall_planta_baja-medkit",
          "x": 2800,
          "y": 724,
          "width": 32,
          "height": 32,
          "rotation": 0,
          "visible": true,
          "properties": [
            {
              "name": "runtimeId",
              "type": "string",
              "value": "level_2_hall_planta_baja-medkit"
            },
            {
              "name": "targetId",
              "type": "string",
              "value": "level_2_hall_planta_baja-medkit"
            },
            {
              "name": "sensor",
              "type": "bool",
              "value": true
            }
          ]
        }
      ]
    },
    {
      "id": 36,
      "name": "Exits",
      "type": "objectgroup",
      "draworder": "topdown",
      "opacity": 1,
      "visible": true,
      "objects": [
        {
          "id": 35,
          "name": "salida-hall",
          "type": "salida-hall",
          "x": 6020,
          "y": 680,
          "width": 100,
          "height": 120,
          "rotation": 0,
          "visible": true,
          "properties": [
            {
              "name": "runtimeId",
              "type": "string",
              "value": "salida-hall"
            },
            {
              "name": "interactionId",
              "type": "string",
              "value": "salida-hall"
            },
            {
              "name": "connectorId",
              "type": "string",
              "value": "salida-hall"
            },
            {
              "name": "targetNodeId",
              "type": "string",
              "value": "lvl02-cin01-ascenso-al-segundo-piso"
            },
            {
              "name": "targetConnectorId",
              "type": "string",
              "value": "default"
            },
            {
              "name": "enabledByObjectiveId",
              "type": "string",
              "value": "level_2_hall_planta_baja-objective"
            },
            {
              "name": "sensor",
              "type": "bool",
              "value": true
            },
            {
              "name": "prompt",
              "type": "string",
              "value": "Usar salida"
            }
          ]
        }
      ]
    },
    {
      "id": 38,
      "name": "CameraBounds",
      "type": "objectgroup",
      "draworder": "topdown",
      "opacity": 1,
      "visible": true,
      "objects": [
        {
          "id": 37,
          "name": "camera-bounds",
          "type": "camera-bounds",
          "x": 0,
          "y": 0,
          "width": 6200,
          "height": 864,
          "rotation": 0,
          "visible": true,
          "properties": [
            {
              "name": "runtimeId",
              "type": "string",
              "value": "level_2_hall_planta_baja-camera"
            },
            {
              "name": "editorOnly",
              "type": "bool",
              "value": false
            }
          ]
        }
      ]
    },
    {
      "id": 39,
      "name": "NavigationHints",
      "type": "objectgroup",
      "draworder": "topdown",
      "opacity": 1,
      "visible": true,
      "objects": []
    }
  ],
  "properties": [
    {
      "name": "schemaVersion",
      "type": "int",
      "value": 1
    },
    {
      "name": "nodeId",
      "type": "string",
      "value": "lvl02-esc01-hall-planta-baja"
    },
    {
      "name": "canonicalNodeIds",
      "type": "string",
      "value": "lvl02-esc01-hall-planta-baja"
    },
    {
      "name": "runtimeLevelId",
      "type": "string",
      "value": "level_2_hall_planta_baja"
    },
    {
      "name": "locationId",
      "type": "string",
      "value": "level2_escaleras_espiral"
    },
    {
      "name": "locationLabel",
      "type": "string",
      "value": "Asegura el hall de Planta Baja y alcanza la escalera."
    },
    {
      "name": "floorId",
      "type": "string",
      "value": "floor-4"
    },
    {
      "name": "floorLabel",
      "type": "string",
      "value": "Piso canónico 4"
    },
    {
      "name": "canonicalIndex",
      "type": "int",
      "value": 4
    },
    {
      "name": "entryConnectorId",
      "type": "string",
      "value": "default"
    },
    {
      "name": "exitConnectorId",
      "type": "string",
      "value": "salida-hall"
    },
    {
      "name": "targetNodeId",
      "type": "string",
      "value": "lvl02-cin01-ascenso-al-segundo-piso"
    },
    {
      "name": "defaultCameraZoom",
      "type": "float",
      "value": 1.34
    },
    {
      "name": "gravityScale",
      "type": "float",
      "value": 1
    },
    {
      "name": "referencePhotoPath",
      "type": "file",
      "value": "public/ground-floor-reconquista-sector.jpg"
    },
    {
      "name": "runtimeBackgroundPath",
      "type": "file",
      "value": ""
    },
    {
      "name": "supportsVerticalCamera",
      "type": "bool",
      "value": false
    },
    {
      "name": "musicProfile",
      "type": "string",
      "value": "campaign-default"
    },
    {
      "name": "environmentProfile",
      "type": "string",
      "value": "level2_escaleras_espiral"
    }
  ],
  "backgroundcolor": "#111827"
}
