{
  "compressionlevel": -1,
  "height": 32,
  "width": 213,
  "infinite": false,
  "nextlayerid": 44,
  "nextobjectid": 86,
  "orientation": "orthogonal",
  "renderorder": "right-down",
  "tiledversion": "1.11.2",
  "tileheight": 32,
  "tilewidth": 32,
  "type": "map",
  "version": "1.10",
  "layers": [
    {
      "id": 2,
      "name": "BackgroundReference",
      "type": "objectgroup",
      "draworder": "topdown",
      "opacity": 1,
      "visible": false,
      "objects": [
        {
          "id": 1,
          "name": "reference-photo",
          "type": "reference-photo",
          "x": 0,
          "y": 0,
          "width": 6800,
          "height": 1000,
          "rotation": 0,
          "visible": true,
          "properties": [
            {
              "name": "editorOnly",
              "type": "bool",
              "value": true
            },
            {
              "name": "runtimeId",
              "type": "string",
              "value": "level_4_tercer_piso-reference"
            }
          ],
          "image": "../../../../../public/outside-scene.jpg"
        }
      ],
      "locked": true,
      "properties": [
        {
          "name": "editorOnly",
          "type": "bool",
          "value": true
        }
      ]
    },
    {
      "id": 3,
      "name": "Background",
      "type": "objectgroup",
      "draworder": "topdown",
      "opacity": 1,
      "visible": true,
      "objects": [
        {
          "id": 60,
          "name": "access-background-0",
          "type": "visual",
          "x": 2152,
          "y": 724,
          "width": 520,
          "height": 300,
          "rotation": 0,
          "visible": true,
          "properties": [
            {
              "name": "runtimeId",
              "type": "string",
              "value": "level_4_tercer_piso-background-0"
            },
            {
              "name": "assetKey",
              "type": "string",
              "value": "damage-and-barricades-kit"
            },
            {
              "name": "frame",
              "type": "string",
              "value": "damage-and-barricades-kit-frame-3"
            },
            {
              "name": "depth",
              "type": "int",
              "value": -50
            },
            {
              "name": "anchor",
              "type": "string",
              "value": "0.5,1"
            },
            {
              "name": "alpha",
              "type": "int",
              "value": 1
            },
            {
              "name": "tint",
              "type": "string",
              "value": "#ffffff"
            },
            {
              "name": "scrollFactorX",
              "type": "float",
              "value": 0.75
            },
            {
              "name": "scrollFactorY",
              "type": "int",
              "value": 1
            },
            {
              "name": "visualRole",
              "type": "string",
              "value": "background"
            },
            {
              "name": "sector",
              "type": "string",
              "value": "access"
            }
          ]
        },
        {
          "id": 61,
          "name": "central-corridor-background-1",
          "type": "visual",
          "x": 4224,
          "y": 724,
          "width": 520,
          "height": 300,
          "rotation": 0,
          "visible": true,
          "properties": [
            {
              "name": "runtimeId",
              "type": "string",
              "value": "level_4_tercer_piso-background-1"
            },
            {
              "name": "assetKey",
              "type": "string",
              "value": "upper-office-kit"
            },
            {
              "name": "frame",
              "type": "string",
              "value": "upper-office-kit-frame-4"
            },
            {
              "name": "depth",
              "type": "int",
              "value": -50
            },
            {
              "name": "anchor",
              "type": "string",
              "value": "0.5,1"
            },
            {
              "name": "alpha",
              "type": "int",
              "value": 1
            },
            {
              "name": "tint",
              "type": "string",
              "value": "#ffffff"
            },
            {
              "name": "scrollFactorX",
              "type": "float",
              "value": 0.75
            },
            {
              "name": "scrollFactorY",
              "type": "int",
              "value": 1
            },
            {
              "name": "visualRole",
              "type": "string",
              "value": "background"
            },
            {
              "name": "sector",
              "type": "string",
              "value": "central-corridor"
            }
          ]
        }
      ]
    },
    {
      "id": 40,
      "name": "DistantArchitecture",
      "type": "objectgroup",
      "draworder": "topdown",
      "opacity": 1,
      "visible": true,
      "objects": [
        {
          "id": 62,
          "name": "central-corridor-distantarchitecture-0",
          "type": "visual",
          "x": 2152,
          "y": 714,
          "width": 176,
          "height": 150,
          "rotation": 0,
          "visible": true,
          "properties": [
            {
              "name": "runtimeId",
              "type": "string",
              "value": "level_4_tercer_piso-distantarchitecture-0"
            },
            {
              "name": "assetKey",
              "type": "string",
              "value": "upper-office-kit"
            },
            {
              "name": "frame",
              "type": "string",
              "value": "upper-office-kit-frame-3"
            },
            {
              "name": "depth",
              "type": "int",
              "value": -40
            },
            {
              "name": "anchor",
              "type": "string",
              "value": "0.5,1"
            },
            {
              "name": "alpha",
              "type": "int",
              "value": 1
            },
            {
              "name": "tint",
              "type": "string",
              "value": "#ffffff"
            },
            {
              "name": "scrollFactorX",
              "type": "float",
              "value": 0.75
            },
            {
              "name": "scrollFactorY",
              "type": "int",
              "value": 1
            },
            {
              "name": "visualRole",
              "type": "string",
              "value": "distantArchitecture"
            },
            {
              "name": "sector",
              "type": "string",
              "value": "central-corridor"
            }
          ]
        },
        {
          "id": 63,
          "name": "damaged-offices-distantarchitecture-1",
          "type": "visual",
          "x": 4224,
          "y": 714,
          "width": 224,
          "height": 210,
          "rotation": 0,
          "visible": true,
          "properties": [
            {
              "name": "runtimeId",
              "type": "string",
              "value": "level_4_tercer_piso-distantarchitecture-1"
            },
            {
              "name": "assetKey",
              "type": "string",
              "value": "stair-core-kit"
            },
            {
              "name": "frame",
              "type": "string",
              "value": "stair-core-kit-frame-4"
            },
            {
              "name": "depth",
              "type": "int",
              "value": -40
            },
            {
              "name": "anchor",
              "type": "string",
              "value": "0.5,1"
            },
            {
              "name": "alpha",
              "type": "int",
              "value": 1
            },
            {
              "name": "tint",
              "type": "string",
              "value": "#ffffff"
            },
            {
              "name": "scrollFactorX",
              "type": "float",
              "value": 0.75
            },
            {
              "name": "scrollFactorY",
              "type": "int",
              "value": 1
            },
            {
              "name": "visualRole",
              "type": "string",
              "value": "distantArchitecture"
            },
            {
              "name": "sector",
              "type": "string",
              "value": "damaged-offices"
            }
          ]
        }
      ]
    },
    {
      "id": 4,
      "name": "RearArchitecture",
      "type": "objectgroup",
      "draworder": "topdown",
      "opacity": 1,
      "visible": true,
      "objects": [
        {
          "id": 64,
          "name": "damaged-offices-reararchitecture-0",
          "type": "visual",
          "x": 2152,
          "y": 864,
          "width": 176,
          "height": 150,
          "rotation": 0,
          "visible": true,
          "properties": [
            {
              "name": "runtimeId",
              "type": "string",
              "value": "level_4_tercer_piso-reararchitecture-0"
            },
            {
              "name": "assetKey",
              "type": "string",
              "value": "stair-core-kit"
            },
            {
              "name": "frame",
              "type": "string",
              "value": "stair-core-kit-frame-3"
            },
            {
              "name": "depth",
              "type": "int",
              "value": -30
            },
            {
              "name": "anchor",
              "type": "string",
              "value": "0.5,1"
            },
            {
              "name": "alpha",
              "type": "int",
              "value": 1
            },
            {
              "name": "tint",
              "type": "string",
              "value": "#ffffff"
            },
            {
              "name": "scrollFactorX",
              "type": "int",
              "value": 1
            },
            {
              "name": "scrollFactorY",
              "type": "int",
              "value": 1
            },
            {
              "name": "visualRole",
              "type": "string",
              "value": "rearArchitecture"
            },
            {
              "name": "sector",
              "type": "string",
              "value": "damaged-offices"
            }
          ]
        },
        {
          "id": 65,
          "name": "dark-section-reararchitecture-1",
          "type": "visual",
          "x": 4224,
          "y": 814,
          "width": 224,
          "height": 210,
          "rotation": 0,
          "visible": true,
          "properties": [
            {
              "name": "runtimeId",
              "type": "string",
              "value": "level_4_tercer_piso-reararchitecture-1"
            },
            {
              "name": "assetKey",
              "type": "string",
              "value": "damage-and-barricades-kit"
            },
            {
              "name": "frame",
              "type": "string",
              "value": "damage-and-barricades-kit-frame-4"
            },
            {
              "name": "depth",
              "type": "int",
              "value": -30
            },
            {
              "name": "anchor",
              "type": "string",
              "value": "0.5,1"
            },
            {
              "name": "alpha",
              "type": "int",
              "value": 1
            },
            {
              "name": "tint",
              "type": "string",
              "value": "#ffffff"
            },
            {
              "name": "scrollFactorX",
              "type": "int",
              "value": 1
            },
            {
              "name": "scrollFactorY",
              "type": "int",
              "value": 1
            },
            {
              "name": "visualRole",
              "type": "string",
              "value": "rearArchitecture"
            },
            {
              "name": "sector",
              "type": "string",
              "value": "dark-section"
            }
          ]
        }
      ]
    },
    {
      "id": 5,
      "name": "Architecture",
      "type": "objectgroup",
      "draworder": "topdown",
      "opacity": 1,
      "visible": true,
      "objects": [
        {
          "id": 66,
          "name": "dark-section-architecture-0",
          "type": "visual",
          "x": 968,
          "y": 864,
          "width": 176,
          "height": 150,
          "rotation": 0,
          "visible": true,
          "properties": [
            {
              "name": "runtimeId",
              "type": "string",
              "value": "level_4_tercer_piso-architecture-0"
            },
            {
              "name": "assetKey",
              "type": "string",
              "value": "damage-and-barricades-kit"
            },
            {
              "name": "frame",
              "type": "string",
              "value": "damage-and-barricades-kit-frame-3"
            },
            {
              "name": "depth",
              "type": "int",
              "value": -20
            },
            {
              "name": "anchor",
              "type": "string",
              "value": "0.5,1"
            },
            {
              "name": "alpha",
              "type": "int",
              "value": 1
            },
            {
              "name": "tint",
              "type": "string",
              "value": "#ffffff"
            },
            {
              "name": "scrollFactorX",
              "type": "int",
              "value": 1
            },
            {
              "name": "scrollFactorY",
              "type": "int",
              "value": 1
            },
            {
              "name": "visualRole",
              "type": "string",
              "value": "architecture"
            },
            {
              "name": "sector",
              "type": "string",
              "value": "dark-section"
            }
          ]
        },
        {
          "id": 67,
          "name": "ambush-architecture-1",
          "type": "visual",
          "x": 1856,
          "y": 814,
          "width": 224,
          "height": 210,
          "rotation": 0,
          "visible": true,
          "properties": [
            {
              "name": "runtimeId",
              "type": "string",
              "value": "level_4_tercer_piso-architecture-1"
            },
            {
              "name": "assetKey",
              "type": "string",
              "value": "upper-office-kit"
            },
            {
              "name": "frame",
              "type": "string",
              "value": "upper-office-kit-frame-4"
            },
            {
              "name": "depth",
              "type": "int",
              "value": -20
            },
            {
              "name": "anchor",
              "type": "string",
              "value": "0.5,1"
            },
            {
              "name": "alpha",
              "type": "int",
              "value": 1
            },
            {
              "name": "tint",
              "type": "string",
              "value": "#ffffff"
            },
            {
              "name": "scrollFactorX",
              "type": "int",
              "value": 1
            },
            {
              "name": "scrollFactorY",
              "type": "int",
              "value": 1
            },
            {
              "name": "visualRole",
              "type": "string",
              "value": "architecture"
            },
            {
              "name": "sector",
              "type": "string",
              "value": "ambush"
            }
          ]
        },
        {
          "id": 68,
          "name": "vertical-core-architecture-2",
          "type": "visual",
          "x": 2744,
          "y": 864,
          "width": 272,
          "height": 150,
          "rotation": 0,
          "visible": true,
          "properties": [
            {
              "name": "runtimeId",
              "type": "string",
              "value": "level_4_tercer_piso-architecture-2"
            },
            {
              "name": "assetKey",
              "type": "string",
              "value": "stair-core-kit"
            },
            {
              "name": "frame",
              "type": "string",
              "value": "stair-core-kit-frame-5"
            },
            {
              "name": "depth",
              "type": "int",
              "value": -20
            },
            {
              "name": "anchor",
              "type": "string",
              "value": "0.5,1"
            },
            {
              "name": "alpha",
              "type": "int",
              "value": 1
            },
            {
              "name": "tint",
              "type": "string",
              "value": "#ffffff"
            },
            {
              "name": "scrollFactorX",
              "type": "int",
              "value": 1
            },
            {
              "name": "scrollFactorY",
              "type": "int",
              "value": 1
            },
            {
              "name": "visualRole",
              "type": "string",
              "value": "architecture"
            },
            {
              "name": "sector",
              "type": "string",
              "value": "vertical-core"
            }
          ]
        },
        {
          "id": 69,
          "name": "access-architecture-3",
          "type": "visual",
          "x": 3632,
          "y": 814,
          "width": 176,
          "height": 210,
          "rotation": 0,
          "visible": true,
          "properties": [
            {
              "name": "runtimeId",
              "type": "string",
              "value": "level_4_tercer_piso-architecture-3"
            },
            {
              "name": "assetKey",
              "type": "string",
              "value": "damage-and-barricades-kit"
            },
            {
              "name": "frame",
              "type": "string",
              "value": "damage-and-barricades-kit-frame-6"
            },
            {
              "name": "depth",
              "type": "int",
              "value": -20
            },
            {
              "name": "anchor",
              "type": "string",
              "value": "0.5,1"
            },
            {
              "name": "alpha",
              "type": "int",
              "value": 1
            },
            {
              "name": "tint",
              "type": "string",
              "value": "#ffffff"
            },
            {
              "name": "scrollFactorX",
              "type": "int",
              "value": 1
            },
            {
              "name": "scrollFactorY",
              "type": "int",
              "value": 1
            },
            {
              "name": "visualRole",
              "type": "string",
              "value": "architecture"
            },
            {
              "name": "sector",
              "type": "string",
              "value": "access"
            }
          ]
        },
        {
          "id": 70,
          "name": "central-corridor-architecture-4",
          "type": "visual",
          "x": 4520,
          "y": 864,
          "width": 224,
          "height": 150,
          "rotation": 0,
          "visible": true,
          "properties": [
            {
              "name": "runtimeId",
              "type": "string",
              "value": "level_4_tercer_piso-architecture-4"
            },
            {
              "name": "assetKey",
              "type": "string",
              "value": "upper-office-kit"
            },
            {
              "name": "frame",
              "type": "string",
              "value": "upper-office-kit-frame-7"
            },
            {
              "name": "depth",
              "type": "int",
              "value": -20
            },
            {
              "name": "anchor",
              "type": "string",
              "value": "0.5,1"
            },
            {
              "name": "alpha",
              "type": "int",
              "value": 1
            },
            {
              "name": "tint",
              "type": "string",
              "value": "#ffffff"
            },
            {
              "name": "scrollFactorX",
              "type": "int",
              "value": 1
            },
            {
              "name": "scrollFactorY",
              "type": "int",
              "value": 1
            },
            {
              "name": "visualRole",
              "type": "string",
              "value": "architecture"
            },
            {
              "name": "sector",
              "type": "string",
              "value": "central-corridor"
            }
          ]
        },
        {
          "id": 71,
          "name": "damaged-offices-architecture-5",
          "type": "visual",
          "x": 5408,
          "y": 814,
          "width": 272,
          "height": 210,
          "rotation": 0,
          "visible": true,
          "properties": [
            {
              "name": "runtimeId",
              "type": "string",
              "value": "level_4_tercer_piso-architecture-5"
            },
            {
              "name": "assetKey",
              "type": "string",
              "value": "stair-core-kit"
            },
            {
              "name": "frame",
              "type": "string",
              "value": "stair-core-kit-frame-0"
            },
            {
              "name": "depth",
              "type": "int",
              "value": -20
            },
            {
              "name": "anchor",
              "type": "string",
              "value": "0.5,1"
            },
            {
              "name": "alpha",
              "type": "int",
              "value": 1
            },
            {
              "name": "tint",
              "type": "string",
              "value": "#ffffff"
            },
            {
              "name": "scrollFactorX",
              "type": "int",
              "value": 1
            },
            {
              "name": "scrollFactorY",
              "type": "int",
              "value": 1
            },
            {
              "name": "visualRole",
              "type": "string",
              "value": "architecture"
            },
            {
              "name": "sector",
              "type": "string",
              "value": "damaged-offices"
            }
          ]
        }
      ]
    },
    {
      "id": 6,
      "name": "RearProps",
      "type": "objectgroup",
      "draworder": "topdown",
      "opacity": 1,
      "visible": true,
      "objects": [
        {
          "id": 72,
          "name": "ambush-rearprops-0",
          "type": "visual",
          "x": 2152,
          "y": 864,
          "width": 176,
          "height": 150,
          "rotation": 0,
          "visible": true,
          "properties": [
            {
              "name": "runtimeId",
              "type": "string",
              "value": "level_4_tercer_piso-rearprops-0"
            },
            {
              "name": "assetKey",
              "type": "string",
              "value": "upper-office-kit"
            },
            {
              "name": "frame",
              "type": "string",
              "value": "upper-office-kit-frame-3"
            },
            {
              "name": "depth",
              "type": "int",
              "value": -10
            },
            {
              "name": "anchor",
              "type": "string",
              "value": "0.5,1"
            },
            {
              "name": "alpha",
              "type": "int",
              "value": 1
            },
            {
              "name": "tint",
              "type": "string",
              "value": "#ffffff"
            },
            {
              "name": "scrollFactorX",
              "type": "int",
              "value": 1
            },
            {
              "name": "scrollFactorY",
              "type": "int",
              "value": 1
            },
            {
              "name": "visualRole",
              "type": "string",
              "value": "rearProp"
            },
            {
              "name": "sector",
              "type": "string",
              "value": "ambush"
            }
          ]
        },
        {
          "id": 73,
          "name": "vertical-core-rearprops-1",
          "type": "visual",
          "x": 4224,
          "y": 814,
          "width": 224,
          "height": 210,
          "rotation": 0,
          "visible": true,
          "properties": [
            {
              "name": "runtimeId",
              "type": "string",
              "value": "level_4_tercer_piso-rearprops-1"
            },
            {
              "name": "assetKey",
              "type": "string",
              "value": "stair-core-kit"
            },
            {
              "name": "frame",
              "type": "string",
              "value": "stair-core-kit-frame-4"
            },
            {
              "name": "depth",
              "type": "int",
              "value": -10
            },
            {
              "name": "anchor",
              "type": "string",
              "value": "0.5,1"
            },
            {
              "name": "alpha",
              "type": "int",
              "value": 1
            },
            {
              "name": "tint",
              "type": "string",
              "value": "#ffffff"
            },
            {
              "name": "scrollFactorX",
              "type": "int",
              "value": 1
            },
            {
              "name": "scrollFactorY",
              "type": "int",
              "value": 1
            },
            {
              "name": "visualRole",
              "type": "string",
              "value": "rearProp"
            },
            {
              "name": "sector",
              "type": "string",
              "value": "vertical-core"
            }
          ]
        }
      ]
    },
    {
      "id": 7,
      "name": "GameplayDecor",
      "type": "objectgroup",
      "draworder": "topdown",
      "opacity": 1,
      "visible": true,
      "objects": [
        {
          "id": 74,
          "name": "vertical-core-gameplaydecor-0",
          "type": "visual",
          "x": 968,
          "y": 864,
          "width": 176,
          "height": 150,
          "rotation": 0,
          "visible": true,
          "properties": [
            {
              "name": "runtimeId",
              "type": "string",
              "value": "level_4_tercer_piso-gameplaydecor-0"
            },
            {
              "name": "assetKey",
              "type": "string",
              "value": "stair-core-kit"
            },
            {
              "name": "frame",
              "type": "string",
              "value": "stair-core-kit-frame-3"
            },
            {
              "name": "depth",
              "type": "int",
              "value": 0
            },
            {
              "name": "anchor",
              "type": "string",
              "value": "0.5,1"
            },
            {
              "name": "alpha",
              "type": "int",
              "value": 1
            },
            {
              "name": "tint",
              "type": "string",
              "value": "#ffffff"
            },
            {
              "name": "scrollFactorX",
              "type": "int",
              "value": 1
            },
            {
              "name": "scrollFactorY",
              "type": "int",
              "value": 1
            },
            {
              "name": "visualRole",
              "type": "string",
              "value": "gameplayDecor"
            },
            {
              "name": "sector",
              "type": "string",
              "value": "vertical-core"
            }
          ]
        },
        {
          "id": 75,
          "name": "access-gameplaydecor-1",
          "type": "visual",
          "x": 1856,
          "y": 814,
          "width": 224,
          "height": 210,
          "rotation": 0,
          "visible": true,
          "properties": [
            {
              "name": "runtimeId",
              "type": "string",
              "value": "level_4_tercer_piso-gameplaydecor-1"
            },
            {
              "name": "assetKey",
              "type": "string",
              "value": "damage-and-barricades-kit"
            },
            {
              "name": "frame",
              "type": "string",
              "value": "damage-and-barricades-kit-frame-4"
            },
            {
              "name": "depth",
              "type": "int",
              "value": 0
            },
            {
              "name": "anchor",
              "type": "string",
              "value": "0.5,1"
            },
            {
              "name": "alpha",
              "type": "int",
              "value": 1
            },
            {
              "name": "tint",
              "type": "string",
              "value": "#ffffff"
            },
            {
              "name": "scrollFactorX",
              "type": "int",
              "value": 1
            },
            {
              "name": "scrollFactorY",
              "type": "int",
              "value": 1
            },
            {
              "name": "visualRole",
              "type": "string",
              "value": "gameplayDecor"
            },
            {
              "name": "sector",
              "type": "string",
              "value": "access"
            }
          ]
        },
        {
          "id": 76,
          "name": "central-corridor-gameplaydecor-2",
          "type": "visual",
          "x": 2744,
          "y": 864,
          "width": 272,
          "height": 150,
          "rotation": 0,
          "visible": true,
          "properties": [
            {
              "name": "runtimeId",
              "type": "string",
              "value": "level_4_tercer_piso-gameplaydecor-2"
            },
            {
              "name": "assetKey",
              "type": "string",
              "value": "upper-office-kit"
            },
            {
              "name": "frame",
              "type": "string",
              "value": "upper-office-kit-frame-5"
            },
            {
              "name": "depth",
              "type": "int",
              "value": 0
            },
            {
              "name": "anchor",
              "type": "string",
              "value": "0.5,1"
            },
            {
              "name": "alpha",
              "type": "int",
              "value": 1
            },
            {
              "name": "tint",
              "type": "string",
              "value": "#ffffff"
            },
            {
              "name": "scrollFactorX",
              "type": "int",
              "value": 1
            },
            {
              "name": "scrollFactorY",
              "type": "int",
              "value": 1
            },
            {
              "name": "visualRole",
              "type": "string",
              "value": "gameplayDecor"
            },
            {
              "name": "sector",
              "type": "string",
              "value": "central-corridor"
            }
          ]
        },
        {
          "id": 77,
          "name": "damaged-offices-gameplaydecor-3",
          "type": "visual",
          "x": 3632,
          "y": 814,
          "width": 176,
          "height": 210,
          "rotation": 0,
          "visible": true,
          "properties": [
            {
              "name": "runtimeId",
              "type": "string",
              "value": "level_4_tercer_piso-gameplaydecor-3"
            },
            {
              "name": "assetKey",
              "type": "string",
              "value": "stair-core-kit"
            },
            {
              "name": "frame",
              "type": "string",
              "value": "stair-core-kit-frame-6"
            },
            {
              "name": "depth",
              "type": "int",
              "value": 0
            },
            {
              "name": "anchor",
              "type": "string",
              "value": "0.5,1"
            },
            {
              "name": "alpha",
              "type": "int",
              "value": 1
            },
            {
              "name": "tint",
              "type": "string",
              "value": "#ffffff"
            },
            {
              "name": "scrollFactorX",
              "type": "int",
              "value": 1
            },
            {
              "name": "scrollFactorY",
              "type": "int",
              "value": 1
            },
            {
              "name": "visualRole",
              "type": "string",
              "value": "gameplayDecor"
            },
            {
              "name": "sector",
              "type": "string",
              "value": "damaged-offices"
            }
          ]
        },
        {
          "id": 78,
          "name": "dark-section-gameplaydecor-4",
          "type": "visual",
          "x": 4520,
          "y": 864,
          "width": 224,
          "height": 150,
          "rotation": 0,
          "visible": true,
          "properties": [
            {
              "name": "runtimeId",
              "type": "string",
              "value": "level_4_tercer_piso-gameplaydecor-4"
            },
            {
              "name": "assetKey",
              "type": "string",
              "value": "damage-and-barricades-kit"
            },
            {
              "name": "frame",
              "type": "string",
              "value": "damage-and-barricades-kit-frame-7"
            },
            {
              "name": "depth",
              "type": "int",
              "value": 0
            },
            {
              "name": "anchor",
              "type": "string",
              "value": "0.5,1"
            },
            {
              "name": "alpha",
              "type": "int",
              "value": 1
            },
            {
              "name": "tint",
              "type": "string",
              "value": "#ffffff"
            },
            {
              "name": "scrollFactorX",
              "type": "int",
              "value": 1
            },
            {
              "name": "scrollFactorY",
              "type": "int",
              "value": 1
            },
            {
              "name": "visualRole",
              "type": "string",
              "value": "gameplayDecor"
            },
            {
              "name": "sector",
              "type": "string",
              "value": "dark-section"
            }
          ]
        },
        {
          "id": 79,
          "name": "ambush-gameplaydecor-5",
          "type": "visual",
          "x": 5408,
          "y": 814,
          "width": 272,
          "height": 210,
          "rotation": 0,
          "visible": true,
          "properties": [
            {
              "name": "runtimeId",
              "type": "string",
              "value": "level_4_tercer_piso-gameplaydecor-5"
            },
            {
              "name": "assetKey",
              "type": "string",
              "value": "upper-office-kit"
            },
            {
              "name": "frame",
              "type": "string",
              "value": "upper-office-kit-frame-0"
            },
            {
              "name": "depth",
              "type": "int",
              "value": 0
            },
            {
              "name": "anchor",
              "type": "string",
              "value": "0.5,1"
            },
            {
              "name": "alpha",
              "type": "int",
              "value": 1
            },
            {
              "name": "tint",
              "type": "string",
              "value": "#ffffff"
            },
            {
              "name": "scrollFactorX",
              "type": "int",
              "value": 1
            },
            {
              "name": "scrollFactorY",
              "type": "int",
              "value": 1
            },
            {
              "name": "visualRole",
              "type": "string",
              "value": "gameplayDecor"
            },
            {
              "name": "sector",
              "type": "string",
              "value": "ambush"
            }
          ]
        }
      ]
    },
    {
      "id": 8,
      "name": "FrontProps",
      "type": "objectgroup",
      "draworder": "topdown",
      "opacity": 1,
      "visible": true,
      "objects": [
        {
          "id": 80,
          "name": "access-frontprops-0",
          "type": "visual",
          "x": 2152,
          "y": 864,
          "width": 176,
          "height": 150,
          "rotation": 0,
          "visible": true,
          "properties": [
            {
              "name": "runtimeId",
              "type": "string",
              "value": "level_4_tercer_piso-frontprops-0"
            },
            {
              "name": "assetKey",
              "type": "string",
              "value": "damage-and-barricades-kit"
            },
            {
              "name": "frame",
              "type": "string",
              "value": "damage-and-barricades-kit-frame-3"
            },
            {
              "name": "depth",
              "type": "int",
              "value": 10
            },
            {
              "name": "anchor",
              "type": "string",
              "value": "0.5,1"
            },
            {
              "name": "alpha",
              "type": "int",
              "value": 1
            },
            {
              "name": "tint",
              "type": "string",
              "value": "#ffffff"
            },
            {
              "name": "scrollFactorX",
              "type": "int",
              "value": 1
            },
            {
              "name": "scrollFactorY",
              "type": "int",
              "value": 1
            },
            {
              "name": "visualRole",
              "type": "string",
              "value": "frontProp"
            },
            {
              "name": "sector",
              "type": "string",
              "value": "access"
            }
          ]
        },
        {
          "id": 81,
          "name": "central-corridor-frontprops-1",
          "type": "visual",
          "x": 4224,
          "y": 814,
          "width": 224,
          "height": 210,
          "rotation": 0,
          "visible": true,
          "properties": [
            {
              "name": "runtimeId",
              "type": "string",
              "value": "level_4_tercer_piso-frontprops-1"
            },
            {
              "name": "assetKey",
              "type": "string",
              "value": "upper-office-kit"
            },
            {
              "name": "frame",
              "type": "string",
              "value": "upper-office-kit-frame-4"
            },
            {
              "name": "depth",
              "type": "int",
              "value": 10
            },
            {
              "name": "anchor",
              "type": "string",
              "value": "0.5,1"
            },
            {
              "name": "alpha",
              "type": "int",
              "value": 1
            },
            {
              "name": "tint",
              "type": "string",
              "value": "#ffffff"
            },
            {
              "name": "scrollFactorX",
              "type": "int",
              "value": 1
            },
            {
              "name": "scrollFactorY",
              "type": "int",
              "value": 1
            },
            {
              "name": "visualRole",
              "type": "string",
              "value": "frontProp"
            },
            {
              "name": "sector",
              "type": "string",
              "value": "central-corridor"
            }
          ]
        }
      ]
    },
    {
      "id": 9,
      "name": "Foreground",
      "type": "objectgroup",
      "draworder": "topdown",
      "opacity": 1,
      "visible": true,
      "objects": [
        {
          "id": 82,
          "name": "central-corridor-foreground-0",
          "type": "visual",
          "x": 2152,
          "y": 864,
          "width": 176,
          "height": 150,
          "rotation": 0,
          "visible": true,
          "properties": [
            {
              "name": "runtimeId",
              "type": "string",
              "value": "level_4_tercer_piso-foreground-0"
            },
            {
              "name": "assetKey",
              "type": "string",
              "value": "upper-office-kit"
            },
            {
              "name": "frame",
              "type": "string",
              "value": "upper-office-kit-frame-3"
            },
            {
              "name": "depth",
              "type": "int",
              "value": 20
            },
            {
              "name": "anchor",
              "type": "string",
              "value": "0.5,1"
            },
            {
              "name": "alpha",
              "type": "float",
              "value": 0.88
            },
            {
              "name": "tint",
              "type": "string",
              "value": "#ffffff"
            },
            {
              "name": "scrollFactorX",
              "type": "int",
              "value": 1
            },
            {
              "name": "scrollFactorY",
              "type": "int",
              "value": 1
            },
            {
              "name": "visualRole",
              "type": "string",
              "value": "foreground"
            },
            {
              "name": "sector",
              "type": "string",
              "value": "central-corridor"
            }
          ]
        },
        {
          "id": 83,
          "name": "damaged-offices-foreground-1",
          "type": "visual",
          "x": 4224,
          "y": 814,
          "width": 224,
          "height": 210,
          "rotation": 0,
          "visible": true,
          "properties": [
            {
              "name": "runtimeId",
              "type": "string",
              "value": "level_4_tercer_piso-foreground-1"
            },
            {
              "name": "assetKey",
              "type": "string",
              "value": "stair-core-kit"
            },
            {
              "name": "frame",
              "type": "string",
              "value": "stair-core-kit-frame-4"
            },
            {
              "name": "depth",
              "type": "int",
              "value": 20
            },
            {
              "name": "anchor",
              "type": "string",
              "value": "0.5,1"
            },
            {
              "name": "alpha",
              "type": "float",
              "value": 0.88
            },
            {
              "name": "tint",
              "type": "string",
              "value": "#ffffff"
            },
            {
              "name": "scrollFactorX",
              "type": "int",
              "value": 1
            },
            {
              "name": "scrollFactorY",
              "type": "int",
              "value": 1
            },
            {
              "name": "visualRole",
              "type": "string",
              "value": "foreground"
            },
            {
              "name": "sector",
              "type": "string",
              "value": "damaged-offices"
            }
          ]
        }
      ]
    },
    {
      "id": 10,
      "name": "LightingAnchors",
      "type": "objectgroup",
      "draworder": "topdown",
      "opacity": 1,
      "visible": true,
      "objects": [
        {
          "id": 57,
          "name": "practical-light-1",
          "type": "light-anchor",
          "x": 1500,
          "y": 634,
          "width": 1,
          "height": 1,
          "rotation": 0,
          "visible": true,
          "properties": [
            {
              "name": "lightAnchorId",
              "type": "string",
              "value": "level_4_tercer_piso-light-1"
            },
            {
              "name": "tint",
              "type": "string",
              "value": "0xffd27a"
            },
            {
              "name": "qualityTier",
              "type": "string",
              "value": "balanced"
            },
            {
              "name": "runtimeId",
              "type": "string",
              "value": "level_4_tercer_piso-visual-57"
            }
          ]
        },
        {
          "id": 58,
          "name": "practical-light-2",
          "type": "light-anchor",
          "x": 3544,
          "y": 634,
          "width": 1,
          "height": 1,
          "rotation": 0,
          "visible": true,
          "properties": [
            {
              "name": "lightAnchorId",
              "type": "string",
              "value": "level_4_tercer_piso-light-2"
            },
            {
              "name": "tint",
              "type": "string",
              "value": "0xb9d8ff"
            },
            {
              "name": "qualityTier",
              "type": "string",
              "value": "balanced"
            },
            {
              "name": "runtimeId",
              "type": "string",
              "value": "level_4_tercer_piso-visual-58"
            }
          ]
        },
        {
          "id": 59,
          "name": "practical-light-3",
          "type": "light-anchor",
          "x": 5453,
          "y": 634,
          "width": 1,
          "height": 1,
          "rotation": 0,
          "visible": true,
          "properties": [
            {
              "name": "lightAnchorId",
              "type": "string",
              "value": "level_4_tercer_piso-light-3"
            },
            {
              "name": "tint",
              "type": "string",
              "value": "0xffd27a"
            },
            {
              "name": "qualityTier",
              "type": "string",
              "value": "balanced"
            },
            {
              "name": "runtimeId",
              "type": "string",
              "value": "level_4_tercer_piso-visual-59"
            }
          ]
        }
      ]
    },
    {
      "id": 43,
      "name": "OcclusionZones",
      "type": "objectgroup",
      "draworder": "topdown",
      "opacity": 1,
      "visible": true,
      "objects": [
        {
          "id": 56,
          "name": "localized-darkness",
          "type": "occlusion-zone",
          "x": 4635,
          "y": 624,
          "width": 1091,
          "height": 300,
          "rotation": 0,
          "visible": true,
          "properties": [
            {
              "name": "alpha",
              "type": "float",
              "value": 0.18
            },
            {
              "name": "runtimeId",
              "type": "string",
              "value": "level_4_tercer_piso-visual-56"
            }
          ]
        }
      ]
    },
    {
      "id": 42,
      "name": "ReflectionZones",
      "type": "objectgroup",
      "draworder": "topdown",
      "opacity": 1,
      "visible": true,
      "objects": [
        {
          "id": 55,
          "name": "wet-floor",
          "type": "reflection-zone",
          "x": 2386,
          "y": 894,
          "width": 2045,
          "height": 70,
          "rotation": 0,
          "visible": true,
          "properties": [
            {
              "name": "reflectionStrength",
              "type": "float",
              "value": 0.28
            },
            {
              "name": "runtimeId",
              "type": "string",
              "value": "level_4_tercer_piso-visual-55"
            }
          ]
        }
      ]
    },
    {
      "id": 41,
      "name": "AmbientZones",
      "type": "objectgroup",
      "draworder": "topdown",
      "opacity": 1,
      "visible": true,
      "objects": [
        {
          "id": 54,
          "name": "ambient-main",
          "type": "ambient-zone",
          "x": 0,
          "y": 0,
          "width": 6816,
          "height": 1024,
          "rotation": 0,
          "visible": true,
          "properties": [
            {
              "name": "tint",
              "type": "string",
              "value": "0x18212a"
            },
            {
              "name": "alpha",
              "type": "float",
              "value": 0.22
            },
            {
              "name": "qualityTier",
              "type": "string",
              "value": "balanced"
            },
            {
              "name": "runtimeId",
              "type": "string",
              "value": "level_4_tercer_piso-visual-54"
            }
          ]
        }
      ]
    },
    {
      "id": 12,
      "name": "Collision",
      "type": "objectgroup",
      "draworder": "topdown",
      "opacity": 1,
      "visible": true,
      "objects": [
        {
          "id": 11,
          "name": "floor",
          "type": "floor",
          "x": 0,
          "y": 936,
          "width": 6800,
          "height": 64,
          "rotation": 0,
          "visible": true,
          "properties": [
            {
              "name": "runtimeId",
              "type": "string",
              "value": "level_4_tercer_piso-floor"
            },
            {
              "name": "collisionCategory",
              "type": "string",
              "value": "World"
            },
            {
              "name": "collisionMask",
              "type": "string",
              "value": "Player|Ally|Enemy|Projectile"
            },
            {
              "name": "sensor",
              "type": "bool",
              "value": false
            },
            {
              "name": "floorId",
              "type": "string",
              "value": "floor-8"
            }
          ]
        }
      ]
    },
    {
      "id": 13,
      "name": "OneWayPlatforms",
      "type": "objectgroup",
      "draworder": "topdown",
      "opacity": 1,
      "visible": true,
      "objects": []
    },
    {
      "id": 14,
      "name": "Stairs",
      "type": "objectgroup",
      "draworder": "topdown",
      "opacity": 1,
      "visible": true,
      "objects": [
        {
          "id": 84,
          "name": "level_4_tercer_piso-canonical-stair",
          "type": "stair",
          "x": 6296,
          "y": 784,
          "width": 300,
          "height": 176,
          "rotation": 0,
          "visible": true,
          "properties": [
            {
              "name": "stairId",
              "type": "string",
              "value": "level_4_tercer_piso-stair"
            },
            {
              "name": "direction",
              "type": "string",
              "value": "up"
            },
            {
              "name": "runtimeId",
              "type": "string",
              "value": "level_4_tercer_piso-stairs-84"
            }
          ]
        }
      ]
    },
    {
      "id": 16,
      "name": "PlayerSpawns",
      "type": "objectgroup",
      "draworder": "topdown",
      "opacity": 1,
      "visible": true,
      "objects": [
        {
          "id": 15,
          "name": "default-spawn",
          "type": "default-spawn",
          "x": 240,
          "y": 860,
          "width": 40,
          "height": 72,
          "rotation": 0,
          "visible": true,
          "properties": [
            {
              "name": "runtimeId",
              "type": "string",
              "value": "level_4_tercer_piso-spawn-default"
            },
            {
              "name": "spawnId",
              "type": "string",
              "value": "default"
            },
            {
              "name": "floorId",
              "type": "string",
              "value": "floor-8"
            },
            {
              "name": "elevation",
              "type": "float",
              "value": 0
            }
          ]
        }
      ]
    },
    {
      "id": 17,
      "name": "AllySpawns",
      "type": "objectgroup",
      "draworder": "topdown",
      "opacity": 1,
      "visible": true,
      "objects": []
    },
    {
      "id": 20,
      "name": "EnemySpawns",
      "type": "objectgroup",
      "draworder": "topdown",
      "opacity": 1,
      "visible": true,
      "objects": [
        {
          "id": 18,
          "name": "tercer-oeste-spawn",
          "type": "tercer-oeste-spawn",
          "x": 2480,
          "y": 860,
          "width": 40,
          "height": 72,
          "rotation": 0,
          "visible": true,
          "properties": [
            {
              "name": "runtimeId",
              "type": "string",
              "value": "tercer-oeste-spawn"
            },
            {
              "name": "spawnId",
              "type": "string",
              "value": "tercer-oeste-spawn"
            },
            {
              "name": "floorId",
              "type": "string",
              "value": "floor-8"
            }
          ]
        },
        {
          "id": 19,
          "name": "tercer-este-spawn",
          "type": "tercer-este-spawn",
          "x": 4830,
          "y": 860,
          "width": 40,
          "height": 72,
          "rotation": 0,
          "visible": true,
          "properties": [
            {
              "name": "runtimeId",
              "type": "string",
              "value": "tercer-este-spawn"
            },
            {
              "name": "spawnId",
              "type": "string",
              "value": "tercer-este-spawn"
            },
            {
              "name": "floorId",
              "type": "string",
              "value": "floor-8"
            }
          ]
        }
      ]
    },
    {
      "id": 23,
      "name": "SpawnAreas",
      "type": "objectgroup",
      "draworder": "topdown",
      "opacity": 1,
      "visible": true,
      "objects": [
        {
          "id": 21,
          "name": "tercer-oeste",
          "type": "tercer-oeste",
          "x": 1700,
          "y": 630,
          "width": 1000,
          "height": 300,
          "rotation": 0,
          "visible": true,
          "properties": [
            {
              "name": "runtimeId",
              "type": "string",
              "value": "tercer-oeste"
            },
            {
              "name": "sensor",
              "type": "bool",
              "value": true
            }
          ]
        },
        {
          "id": 22,
          "name": "tercer-este",
          "type": "tercer-este",
          "x": 4050,
          "y": 630,
          "width": 1000,
          "height": 300,
          "rotation": 0,
          "visible": true,
          "properties": [
            {
              "name": "runtimeId",
              "type": "string",
              "value": "tercer-este"
            },
            {
              "name": "sensor",
              "type": "bool",
              "value": true
            }
          ]
        }
      ]
    },
    {
      "id": 26,
      "name": "Interactables",
      "type": "objectgroup",
      "draworder": "topdown",
      "opacity": 1,
      "visible": true,
      "objects": [
        {
          "id": 24,
          "name": "level_4_tercer_piso-checkpoint",
          "type": "level_4_tercer_piso-checkpoint",
          "x": 3400,
          "y": 860,
          "width": 64,
          "height": 96,
          "rotation": 0,
          "visible": true,
          "properties": [
            {
              "name": "runtimeId",
              "type": "string",
              "value": "level_4_tercer_piso-checkpoint"
            },
            {
              "name": "interactionId",
              "type": "string",
              "value": "level_4_tercer_piso-checkpoint"
            },
            {
              "name": "prompt",
              "type": "string",
              "value": "E \u00b7 Asegurar checkpoint"
            },
            {
              "name": "sensor",
              "type": "bool",
              "value": true
            }
          ]
        },
        {
          "id": 25,
          "name": "level_4_tercer_piso-exit",
          "type": "level_4_tercer_piso-exit",
          "x": 6500,
          "y": 860,
          "width": 64,
          "height": 96,
          "rotation": 0,
          "visible": true,
          "properties": [
            {
              "name": "runtimeId",
              "type": "string",
              "value": "level_4_tercer_piso-exit"
            },
            {
              "name": "interactionId",
              "type": "string",
              "value": "level_4_tercer_piso-exit"
            },
            {
              "name": "prompt",
              "type": "string",
              "value": "E \u00b7 Continuar hacia la oficina 422"
            },
            {
              "name": "sensor",
              "type": "bool",
              "value": true
            }
          ]
        }
      ]
    },
    {
      "id": 28,
      "name": "Triggers",
      "type": "objectgroup",
      "draworder": "topdown",
      "opacity": 1,
      "visible": true,
      "objects": [
        {
          "id": 27,
          "name": "level_4_tercer_piso-narrative",
          "type": "level_4_tercer_piso-narrative",
          "width": 64,
          "height": 96,
          "rotation": 0,
          "visible": true,
          "properties": [
            {
              "name": "runtimeId",
              "type": "string",
              "value": "level_4_tercer_piso-narrative"
            },
            {
              "name": "targetId",
              "type": "string",
              "value": ""
            },
            {
              "name": "sensor",
              "type": "bool",
              "value": true
            }
          ]
        }
      ]
    },
    {
      "id": 30,
      "name": "Objectives",
      "type": "objectgroup",
      "draworder": "topdown",
      "opacity": 1,
      "visible": true,
      "objects": [
        {
          "id": 29,
          "name": "level_4_tercer_piso-objective",
          "type": "level_4_tercer_piso-objective",
          "x": 400,
          "y": 764,
          "width": 48,
          "height": 48,
          "rotation": 0,
          "visible": true,
          "properties": [
            {
              "name": "runtimeId",
              "type": "string",
              "value": "level_4_tercer_piso-objective"
            },
            {
              "name": "objectiveId",
              "type": "string",
              "value": "level_4_tercer_piso-objective"
            },
            {
              "name": "targetId",
              "type": "string",
              "value": "salida-tercero"
            }
          ]
        }
      ]
    },
    {
      "id": 32,
      "name": "Checkpoints",
      "type": "objectgroup",
      "draworder": "topdown",
      "opacity": 1,
      "visible": true,
      "objects": [
        {
          "id": 31,
          "name": "level_4_tercer_piso-checkpoint",
          "type": "level_4_tercer_piso-checkpoint",
          "x": 3400,
          "y": 860,
          "width": 64,
          "height": 96,
          "rotation": 0,
          "visible": true,
          "properties": [
            {
              "name": "runtimeId",
              "type": "string",
              "value": "level_4_tercer_piso-checkpoint-checkpoints"
            },
            {
              "name": "checkpointId",
              "type": "string",
              "value": "level_4_tercer_piso-checkpoint"
            },
            {
              "name": "spawnId",
              "type": "string",
              "value": "default"
            },
            {
              "name": "sensor",
              "type": "bool",
              "value": true
            }
          ]
        }
      ]
    },
    {
      "id": 34,
      "name": "Pickups",
      "type": "objectgroup",
      "draworder": "topdown",
      "opacity": 1,
      "visible": true,
      "objects": [
        {
          "id": 33,
          "name": "level_4_tercer_piso-medkit",
          "type": "level_4_tercer_piso-medkit",
          "x": 3100,
          "y": 860,
          "width": 32,
          "height": 32,
          "rotation": 0,
          "visible": true,
          "properties": [
            {
              "name": "runtimeId",
              "type": "string",
              "value": "level_4_tercer_piso-medkit"
            },
            {
              "name": "targetId",
              "type": "string",
              "value": "level_4_tercer_piso-medkit"
            },
            {
              "name": "sensor",
              "type": "bool",
              "value": true
            }
          ]
        }
      ]
    },
    {
      "id": 36,
      "name": "Exits",
      "type": "objectgroup",
      "draworder": "topdown",
      "opacity": 1,
      "visible": true,
      "objects": [
        {
          "id": 35,
          "name": "salida-tercero",
          "type": "salida-tercero",
          "x": 6620,
          "y": 816,
          "width": 100,
          "height": 120,
          "rotation": 0,
          "visible": true,
          "properties": [
            {
              "name": "runtimeId",
              "type": "string",
              "value": "salida-tercero"
            },
            {
              "name": "interactionId",
              "type": "string",
              "value": "salida-tercero"
            },
            {
              "name": "connectorId",
              "type": "string",
              "value": "salida-tercero"
            },
            {
              "name": "targetNodeId",
              "type": "string",
              "value": "lvl04-cin01-rescate-lorena-en-oficina-422"
            },
            {
              "name": "targetConnectorId",
              "type": "string",
              "value": "default"
            },
            {
              "name": "enabledByObjectiveId",
              "type": "string",
              "value": "level_4_tercer_piso-objective"
            },
            {
              "name": "sensor",
              "type": "bool",
              "value": true
            },
            {
              "name": "prompt",
              "type": "string",
              "value": "Usar salida"
            }
          ]
        }
      ]
    },
    {
      "id": 38,
      "name": "CameraBounds",
      "type": "objectgroup",
      "draworder": "topdown",
      "opacity": 1,
      "visible": true,
      "objects": [
        {
          "id": 37,
          "name": "camera-bounds",
          "type": "camera-bounds",
          "x": 0,
          "y": 0,
          "width": 6800,
          "height": 1000,
          "rotation": 0,
          "visible": true,
          "properties": [
            {
              "name": "runtimeId",
              "type": "string",
              "value": "level_4_tercer_piso-camera"
            },
            {
              "name": "editorOnly",
              "type": "bool",
              "value": false
            }
          ]
        }
      ]
    },
    {
      "id": 39,
      "name": "NavigationHints",
      "type": "objectgroup",
      "draworder": "topdown",
      "opacity": 1,
      "visible": true,
      "objects": [
        {
          "id": 85,
          "name": "visible-exit-route",
          "type": "navigation",
          "x": 6116,
          "y": 844,
          "width": 420,
          "height": 120,
          "rotation": 0,
          "visible": true,
          "properties": [
            {
              "name": "target",
              "type": "string",
              "value": "salida-tercero"
            },
            {
              "name": "runtimeId",
              "type": "string",
              "value": "level_4_tercer_piso-navigationhints-85"
            }
          ]
        }
      ]
    }
  ],
  "properties": [
    {
      "name": "schemaVersion",
      "type": "int",
      "value": 1
    },
    {
      "name": "nodeId",
      "type": "string",
      "value": "lvl04-esc01-tercer-piso"
    },
    {
      "name": "canonicalNodeIds",
      "type": "string",
      "value": "lvl04-esc01-tercer-piso"
    },
    {
      "name": "runtimeLevelId",
      "type": "string",
      "value": "level_4_tercer_piso"
    },
    {
      "name": "locationId",
      "type": "string",
      "value": "level4_oficina_422_comedor_escaleras"
    },
    {
      "name": "locationLabel",
      "type": "string",
      "value": "Atraviesa el tercer piso rumbo a la oficina 422."
    },
    {
      "name": "floorId",
      "type": "string",
      "value": "floor-8"
    },
    {
      "name": "floorLabel",
      "type": "string",
      "value": "Piso can\u00f3nico 8"
    },
    {
      "name": "canonicalIndex",
      "type": "int",
      "value": 8
    },
    {
      "name": "entryConnectorId",
      "type": "string",
      "value": "default"
    },
    {
      "name": "exitConnectorId",
      "type": "string",
      "value": "salida-tercero"
    },
    {
      "name": "targetNodeId",
      "type": "string",
      "value": "lvl04-cin01-rescate-lorena-en-oficina-422"
    },
    {
      "name": "defaultCameraZoom",
      "type": "float",
      "value": 1.34
    },
    {
      "name": "gravityScale",
      "type": "float",
      "value": 1
    },
    {
      "name": "referencePhotoPath",
      "type": "file",
      "value": "public/outside-scene.jpg"
    },
    {
      "name": "runtimeBackgroundPath",
      "type": "file",
      "value": ""
    },
    {
      "name": "supportsVerticalCamera",
      "type": "bool",
      "value": true
    },
    {
      "name": "musicProfile",
      "type": "string",
      "value": "campaign-default"
    },
    {
      "name": "environmentProfile",
      "type": "string",
      "value": "level4_oficina_422_comedor_escaleras"
    },
    {
      "name": "floor",
      "type": "int",
      "value": 3
    },
    {
      "name": "environmentKitIds",
      "type": "string",
      "value": "damage-and-barricades-kit,upper-office-kit,stair-core-kit"
    },
    {
      "name": "compositionSignature",
      "type": "string",
      "value": "access|central-corridor|damaged-offices|dark-section|ambush|vertical-core"
    }
  ],
  "backgroundcolor": "#111827"
}
