{
  "compressionlevel": -1,
  "height": 38,
  "width": 238,
  "infinite": false,
  "nextlayerid": 36,
  "nextobjectid": 36,
  "orientation": "orthogonal",
  "renderorder": "right-down",
  "tiledversion": "1.11.2",
  "tileheight": 32,
  "tilewidth": 32,
  "type": "map",
  "version": "1.10",
  "layers": [
    {
      "id": 2,
      "name": "BackgroundReference",
      "type": "objectgroup",
      "draworder": "topdown",
      "opacity": 1,
      "visible": false,
      "objects": [
        {
          "id": 1,
          "name": "reference-photo",
          "type": "reference-photo",
          "x": 0,
          "y": 0,
          "width": 7600,
          "height": 1200,
          "rotation": 0,
          "visible": true,
          "properties": [
            {
              "name": "editorOnly",
              "type": "bool",
              "value": true
            },
            {
              "name": "runtimeId",
              "type": "string",
              "value": "level_6_pasillos_planta_baja_salidas-reference"
            }
          ],
          "image": "../../../../../public/outside.jpg"
        }
      ],
      "locked": true,
      "properties": [
        {
          "name": "editorOnly",
          "type": "bool",
          "value": true
        }
      ]
    },
    {
      "id": 3,
      "name": "Background",
      "type": "objectgroup",
      "draworder": "topdown",
      "opacity": 1,
      "visible": true,
      "objects": []
    },
    {
      "id": 4,
      "name": "RearArchitecture",
      "type": "objectgroup",
      "draworder": "topdown",
      "opacity": 1,
      "visible": true,
      "objects": []
    },
    {
      "id": 5,
      "name": "Architecture",
      "type": "objectgroup",
      "draworder": "topdown",
      "opacity": 1,
      "visible": true,
      "objects": []
    },
    {
      "id": 6,
      "name": "RearProps",
      "type": "objectgroup",
      "draworder": "topdown",
      "opacity": 1,
      "visible": true,
      "objects": []
    },
    {
      "id": 7,
      "name": "GameplayDecor",
      "type": "objectgroup",
      "draworder": "topdown",
      "opacity": 1,
      "visible": true,
      "objects": []
    },
    {
      "id": 8,
      "name": "FrontProps",
      "type": "objectgroup",
      "draworder": "topdown",
      "opacity": 1,
      "visible": true,
      "objects": []
    },
    {
      "id": 9,
      "name": "Foreground",
      "type": "objectgroup",
      "draworder": "topdown",
      "opacity": 1,
      "visible": true,
      "objects": []
    },
    {
      "id": 10,
      "name": "LightingAnchors",
      "type": "objectgroup",
      "draworder": "topdown",
      "opacity": 1,
      "visible": true,
      "objects": []
    },
    {
      "id": 12,
      "name": "Collision",
      "type": "objectgroup",
      "draworder": "topdown",
      "opacity": 1,
      "visible": true,
      "objects": [
        {
          "id": 11,
          "name": "floor",
          "type": "floor",
          "x": 0,
          "y": 1128,
          "width": 7600,
          "height": 72,
          "rotation": 0,
          "visible": true,
          "properties": [
            {
              "name": "runtimeId",
              "type": "string",
              "value": "level_6_pasillos_planta_baja_salidas-floor"
            },
            {
              "name": "collisionCategory",
              "type": "string",
              "value": "World"
            },
            {
              "name": "collisionMask",
              "type": "string",
              "value": "Player|Ally|Enemy|Projectile"
            },
            {
              "name": "sensor",
              "type": "bool",
              "value": false
            },
            {
              "name": "floorId",
              "type": "string",
              "value": "floor-16"
            }
          ]
        }
      ]
    },
    {
      "id": 13,
      "name": "OneWayPlatforms",
      "type": "objectgroup",
      "draworder": "topdown",
      "opacity": 1,
      "visible": true,
      "objects": []
    },
    {
      "id": 14,
      "name": "Stairs",
      "type": "objectgroup",
      "draworder": "topdown",
      "opacity": 1,
      "visible": true,
      "objects": []
    },
    {
      "id": 16,
      "name": "PlayerSpawns",
      "type": "objectgroup",
      "draworder": "topdown",
      "opacity": 1,
      "visible": true,
      "objects": [
        {
          "id": 15,
          "name": "default-spawn",
          "type": "default-spawn",
          "x": 220,
          "y": 1060,
          "width": 40,
          "height": 72,
          "rotation": 0,
          "visible": true,
          "properties": [
            {
              "name": "runtimeId",
              "type": "string",
              "value": "level_6_pasillos_planta_baja_salidas-spawn-default"
            },
            {
              "name": "spawnId",
              "type": "string",
              "value": "default"
            },
            {
              "name": "floorId",
              "type": "string",
              "value": "floor-16"
            },
            {
              "name": "elevation",
              "type": "float",
              "value": 0
            }
          ]
        }
      ]
    },
    {
      "id": 17,
      "name": "AllySpawns",
      "type": "objectgroup",
      "draworder": "topdown",
      "opacity": 1,
      "visible": true,
      "objects": []
    },
    {
      "id": 18,
      "name": "EnemySpawns",
      "type": "objectgroup",
      "draworder": "topdown",
      "opacity": 1,
      "visible": true,
      "objects": []
    },
    {
      "id": 19,
      "name": "SpawnAreas",
      "type": "objectgroup",
      "draworder": "topdown",
      "opacity": 1,
      "visible": true,
      "objects": []
    },
    {
      "id": 22,
      "name": "Interactables",
      "type": "objectgroup",
      "draworder": "topdown",
      "opacity": 1,
      "visible": true,
      "objects": [
        {
          "id": 20,
          "name": "lvl07-esc01-oficina-422-rescate-checkpoint",
          "type": "lvl07-esc01-oficina-422-rescate-checkpoint",
          "x": 3800,
          "y": 1060,
          "width": 64,
          "height": 96,
          "rotation": 0,
          "visible": true,
          "properties": [
            {
              "name": "runtimeId",
              "type": "string",
              "value": "lvl07-esc01-oficina-422-rescate-checkpoint"
            },
            {
              "name": "interactionId",
              "type": "string",
              "value": "lvl07-esc01-oficina-422-rescate-checkpoint"
            },
            {
              "name": "prompt",
              "type": "string",
              "value": "E · Asegurar checkpoint"
            },
            {
              "name": "sensor",
              "type": "bool",
              "value": true
            }
          ]
        },
        {
          "id": 21,
          "name": "lvl07-esc01-oficina-422-rescate-exit",
          "type": "lvl07-esc01-oficina-422-rescate-exit",
          "x": 7300,
          "y": 1060,
          "width": 64,
          "height": 96,
          "rotation": 0,
          "visible": true,
          "properties": [
            {
              "name": "runtimeId",
              "type": "string",
              "value": "lvl07-esc01-oficina-422-rescate-exit"
            },
            {
              "name": "interactionId",
              "type": "string",
              "value": "lvl07-esc01-oficina-422-rescate-exit"
            },
            {
              "name": "prompt",
              "type": "string",
              "value": "E · Continuar"
            },
            {
              "name": "sensor",
              "type": "bool",
              "value": true
            }
          ]
        }
      ]
    },
    {
      "id": 24,
      "name": "Triggers",
      "type": "objectgroup",
      "draworder": "topdown",
      "opacity": 1,
      "visible": true,
      "objects": [
        {
          "id": 23,
          "name": "lvl07-esc01-oficina-422-rescate-narrative",
          "type": "lvl07-esc01-oficina-422-rescate-narrative",
          "width": 64,
          "height": 96,
          "rotation": 0,
          "visible": true,
          "properties": [
            {
              "name": "runtimeId",
              "type": "string",
              "value": "lvl07-esc01-oficina-422-rescate-narrative"
            },
            {
              "name": "targetId",
              "type": "string",
              "value": ""
            },
            {
              "name": "sensor",
              "type": "bool",
              "value": true
            }
          ]
        }
      ]
    },
    {
      "id": 26,
      "name": "Objectives",
      "type": "objectgroup",
      "draworder": "topdown",
      "opacity": 1,
      "visible": true,
      "objects": [
        {
          "id": 25,
          "name": "lvl07-esc01-oficina-422-rescate-objective",
          "type": "lvl07-esc01-oficina-422-rescate-objective",
          "x": 380,
          "y": 964,
          "width": 48,
          "height": 48,
          "rotation": 0,
          "visible": true,
          "properties": [
            {
              "name": "runtimeId",
              "type": "string",
              "value": "lvl07-esc01-oficina-422-rescate-objective"
            },
            {
              "name": "objectiveId",
              "type": "string",
              "value": "lvl07-esc01-oficina-422-rescate-objective"
            },
            {
              "name": "targetId",
              "type": "string",
              "value": "salida-oficina-422"
            }
          ]
        }
      ]
    },
    {
      "id": 28,
      "name": "Checkpoints",
      "type": "objectgroup",
      "draworder": "topdown",
      "opacity": 1,
      "visible": true,
      "objects": [
        {
          "id": 27,
          "name": "lvl07-esc01-oficina-422-rescate-checkpoint",
          "type": "lvl07-esc01-oficina-422-rescate-checkpoint",
          "x": 3800,
          "y": 1060,
          "width": 64,
          "height": 96,
          "rotation": 0,
          "visible": true,
          "properties": [
            {
              "name": "runtimeId",
              "type": "string",
              "value": "lvl07-esc01-oficina-422-rescate-checkpoint-checkpoints"
            },
            {
              "name": "checkpointId",
              "type": "string",
              "value": "lvl07-esc01-oficina-422-rescate-checkpoint"
            },
            {
              "name": "spawnId",
              "type": "string",
              "value": "default"
            },
            {
              "name": "sensor",
              "type": "bool",
              "value": true
            }
          ]
        }
      ]
    },
    {
      "id": 29,
      "name": "Pickups",
      "type": "objectgroup",
      "draworder": "topdown",
      "opacity": 1,
      "visible": true,
      "objects": []
    },
    {
      "id": 31,
      "name": "Exits",
      "type": "objectgroup",
      "draworder": "topdown",
      "opacity": 1,
      "visible": true,
      "objects": [
        {
          "id": 30,
          "name": "salida-oficina-422",
          "type": "salida-oficina-422",
          "x": 7420,
          "y": 1008,
          "width": 100,
          "height": 120,
          "rotation": 0,
          "visible": true,
          "properties": [
            {
              "name": "runtimeId",
              "type": "string",
              "value": "salida-oficina-422"
            },
            {
              "name": "interactionId",
              "type": "string",
              "value": "salida-oficina-422"
            },
            {
              "name": "connectorId",
              "type": "string",
              "value": "salida-oficina-422"
            },
            {
              "name": "targetNodeId",
              "type": "string",
              "value": "lvl07-cin01-inicio-del-descenso"
            },
            {
              "name": "targetConnectorId",
              "type": "string",
              "value": "default"
            },
            {
              "name": "enabledByObjectiveId",
              "type": "string",
              "value": "lvl07-esc01-oficina-422-rescate-objective"
            },
            {
              "name": "sensor",
              "type": "bool",
              "value": true
            },
            {
              "name": "prompt",
              "type": "string",
              "value": "Usar salida"
            }
          ]
        }
      ]
    },
    {
      "id": 33,
      "name": "CameraBounds",
      "type": "objectgroup",
      "draworder": "topdown",
      "opacity": 1,
      "visible": true,
      "objects": [
        {
          "id": 32,
          "name": "camera-bounds",
          "type": "camera-bounds",
          "x": 0,
          "y": 0,
          "width": 7600,
          "height": 1200,
          "rotation": 0,
          "visible": true,
          "properties": [
            {
              "name": "runtimeId",
              "type": "string",
              "value": "level_6_pasillos_planta_baja_salidas-camera"
            },
            {
              "name": "editorOnly",
              "type": "bool",
              "value": false
            }
          ]
        }
      ]
    },
    {
      "id": 34,
      "name": "NavigationHints",
      "type": "objectgroup",
      "draworder": "topdown",
      "opacity": 1,
      "visible": true,
      "objects": []
    }
  ],
  "properties": [
    {
      "name": "schemaVersion",
      "type": "int",
      "value": 1
    },
    {
      "name": "nodeId",
      "type": "string",
      "value": "lvl07-esc01-oficina-422-rescate"
    },
    {
      "name": "canonicalNodeIds",
      "type": "string",
      "value": "lvl07-esc01-oficina-422-rescate"
    },
    {
      "name": "runtimeLevelId",
      "type": "string",
      "value": "level_6_pasillos_planta_baja_salidas"
    },
    {
      "name": "locationId",
      "type": "string",
      "value": "level6_pasillos_planta_baja_salidas"
    },
    {
      "name": "locationLabel",
      "type": "string",
      "value": "Completar el rescate canónico de la oficina 422."
    },
    {
      "name": "floorId",
      "type": "string",
      "value": "floor-16"
    },
    {
      "name": "floorLabel",
      "type": "string",
      "value": "Piso canónico 16"
    },
    {
      "name": "canonicalIndex",
      "type": "int",
      "value": 16
    },
    {
      "name": "entryConnectorId",
      "type": "string",
      "value": "default"
    },
    {
      "name": "exitConnectorId",
      "type": "string",
      "value": "salida-oficina-422"
    },
    {
      "name": "targetNodeId",
      "type": "string",
      "value": "lvl07-cin01-inicio-del-descenso"
    },
    {
      "name": "defaultCameraZoom",
      "type": "float",
      "value": 1.34
    },
    {
      "name": "gravityScale",
      "type": "float",
      "value": 1
    },
    {
      "name": "referencePhotoPath",
      "type": "file",
      "value": "public/outside.jpg"
    },
    {
      "name": "runtimeBackgroundPath",
      "type": "file",
      "value": ""
    },
    {
      "name": "supportsVerticalCamera",
      "type": "bool",
      "value": true
    },
    {
      "name": "musicProfile",
      "type": "string",
      "value": "campaign-default"
    },
    {
      "name": "environmentProfile",
      "type": "string",
      "value": "level6_pasillos_planta_baja_salidas"
    }
  ],
  "backgroundcolor": "#111827"
}
