{
  "compressionlevel": -1,
  "height": 37,
  "width": 263,
  "infinite": false,
  "nextlayerid": 39,
  "nextobjectid": 115,
  "orientation": "orthogonal",
  "renderorder": "right-down",
  "tiledversion": "1.11.2",
  "tileheight": 32,
  "tilewidth": 32,
  "type": "map",
  "version": "1.10",
  "layers": [
    {
      "id": 2,
      "name": "BackgroundReference",
      "type": "objectgroup",
      "draworder": "topdown",
      "opacity": 1,
      "visible": false,
      "objects": [
        {
          "id": 1,
          "name": "reference-photo",
          "type": "reference-photo",
          "x": 0,
          "y": 0,
          "width": 8400,
          "height": 1180,
          "rotation": 0,
          "visible": true,
          "properties": [
            {
              "name": "editorOnly",
              "type": "bool",
              "value": true
            },
            {
              "name": "runtimeId",
              "type": "string",
              "value": "level_8_pasillo_subsuelo2_escaleras_subsuelo3-reference"
            }
          ],
          "image": "../../../../../public/subsoil.jpg"
        }
      ],
      "locked": true,
      "properties": [
        {
          "name": "editorOnly",
          "type": "bool",
          "value": true
        }
      ]
    },
    {
      "id": 3,
      "name": "Background",
      "type": "objectgroup",
      "draworder": "topdown",
      "opacity": 1,
      "visible": true,
      "objects": [
        {
          "id": 55,
          "name": "desc-bg",
          "type": "environment",
          "x": 0,
          "y": 0,
          "width": 8400,
          "height": 1180,
          "visible": true,
          "rotation": 0,
          "properties": [
            {
              "name": "runtimeId",
              "type": "string",
              "value": "desc-bg"
            },
            {
              "name": "assetKey",
              "type": "string",
              "value": "lower-basement-kit"
            },
            {
              "name": "frame",
              "type": "string",
              "value": "damaged-cladding"
            },
            {
              "name": "depth",
              "type": "int",
              "value": -30
            },
            {
              "name": "anchor",
              "type": "string",
              "value": "0.5,1"
            },
            {
              "name": "alpha",
              "type": "float",
              "value": 1.0
            },
            {
              "name": "tint",
              "type": "string",
              "value": "#ffffff"
            },
            {
              "name": "scrollFactorX",
              "type": "float",
              "value": 1.0
            },
            {
              "name": "scrollFactorY",
              "type": "float",
              "value": 1.0
            },
            {
              "name": "visualRole",
              "type": "string",
              "value": "background"
            }
          ]
        }
      ]
    },
    {
      "id": 35,
      "name": "DistantArchitecture",
      "type": "objectgroup",
      "draworder": "topdown",
      "opacity": 1,
      "visible": true,
      "objects": [
        {
          "id": 56,
          "name": "deep-shaft",
          "type": "environment",
          "x": 0,
          "y": 0,
          "width": 8000,
          "height": 900,
          "visible": true,
          "rotation": 0,
          "properties": [
            {
              "name": "runtimeId",
              "type": "string",
              "value": "deep-shaft"
            },
            {
              "name": "assetKey",
              "type": "string",
              "value": "subsoil-three-kit"
            },
            {
              "name": "frame",
              "type": "string",
              "value": "dark-void"
            },
            {
              "name": "depth",
              "type": "int",
              "value": -20
            },
            {
              "name": "anchor",
              "type": "string",
              "value": "0.5,1"
            },
            {
              "name": "alpha",
              "type": "float",
              "value": 1.0
            },
            {
              "name": "tint",
              "type": "string",
              "value": "#ffffff"
            },
            {
              "name": "scrollFactorX",
              "type": "float",
              "value": 1.0
            },
            {
              "name": "scrollFactorY",
              "type": "float",
              "value": 1.0
            },
            {
              "name": "visualRole",
              "type": "string",
              "value": "distantArchitecture"
            }
          ]
        }
      ]
    },
    {
      "id": 4,
      "name": "RearArchitecture",
      "type": "objectgroup",
      "draworder": "topdown",
      "opacity": 1,
      "visible": true,
      "objects": [
        {
          "id": 57,
          "name": "sector-wall-0",
          "type": "environment",
          "x": 220,
          "y": 350,
          "width": 760,
          "height": 240,
          "visible": true,
          "rotation": 0,
          "properties": [
            {
              "name": "runtimeId",
              "type": "string",
              "value": "sector-wall-0"
            },
            {
              "name": "assetKey",
              "type": "string",
              "value": "lower-basement-kit"
            },
            {
              "name": "frame",
              "type": "string",
              "value": "concrete-wall"
            },
            {
              "name": "depth",
              "type": "int",
              "value": 5
            },
            {
              "name": "anchor",
              "type": "string",
              "value": "0.5,1"
            },
            {
              "name": "alpha",
              "type": "float",
              "value": 1.0
            },
            {
              "name": "tint",
              "type": "string",
              "value": "#ffffff"
            },
            {
              "name": "scrollFactorX",
              "type": "float",
              "value": 1.0
            },
            {
              "name": "scrollFactorY",
              "type": "float",
              "value": 1.0
            },
            {
              "name": "visualRole",
              "type": "string",
              "value": "architecture"
            },
            {
              "name": "sectorId",
              "type": "string",
              "value": "1"
            }
          ]
        },
        {
          "id": 58,
          "name": "sector-wall-1",
          "type": "environment",
          "x": 1100,
          "y": 430,
          "width": 760,
          "height": 240,
          "visible": true,
          "rotation": 0,
          "properties": [
            {
              "name": "runtimeId",
              "type": "string",
              "value": "sector-wall-1"
            },
            {
              "name": "assetKey",
              "type": "string",
              "value": "lower-basement-kit"
            },
            {
              "name": "frame",
              "type": "string",
              "value": "concrete-wall"
            },
            {
              "name": "depth",
              "type": "int",
              "value": 5
            },
            {
              "name": "anchor",
              "type": "string",
              "value": "0.5,1"
            },
            {
              "name": "alpha",
              "type": "float",
              "value": 1.0
            },
            {
              "name": "tint",
              "type": "string",
              "value": "#ffffff"
            },
            {
              "name": "scrollFactorX",
              "type": "float",
              "value": 1.0
            },
            {
              "name": "scrollFactorY",
              "type": "float",
              "value": 1.0
            },
            {
              "name": "visualRole",
              "type": "string",
              "value": "architecture"
            },
            {
              "name": "sectorId",
              "type": "string",
              "value": "2"
            }
          ]
        },
        {
          "id": 59,
          "name": "sector-wall-2",
          "type": "environment",
          "x": 2000,
          "y": 520,
          "width": 760,
          "height": 240,
          "visible": true,
          "rotation": 0,
          "properties": [
            {
              "name": "runtimeId",
              "type": "string",
              "value": "sector-wall-2"
            },
            {
              "name": "assetKey",
              "type": "string",
              "value": "lower-basement-kit"
            },
            {
              "name": "frame",
              "type": "string",
              "value": "concrete-wall"
            },
            {
              "name": "depth",
              "type": "int",
              "value": 5
            },
            {
              "name": "anchor",
              "type": "string",
              "value": "0.5,1"
            },
            {
              "name": "alpha",
              "type": "float",
              "value": 1.0
            },
            {
              "name": "tint",
              "type": "string",
              "value": "#ffffff"
            },
            {
              "name": "scrollFactorX",
              "type": "float",
              "value": 1.0
            },
            {
              "name": "scrollFactorY",
              "type": "float",
              "value": 1.0
            },
            {
              "name": "visualRole",
              "type": "string",
              "value": "architecture"
            },
            {
              "name": "sectorId",
              "type": "string",
              "value": "3"
            }
          ]
        },
        {
          "id": 60,
          "name": "sector-wall-3",
          "type": "environment",
          "x": 2920,
          "y": 610,
          "width": 760,
          "height": 240,
          "visible": true,
          "rotation": 0,
          "properties": [
            {
              "name": "runtimeId",
              "type": "string",
              "value": "sector-wall-3"
            },
            {
              "name": "assetKey",
              "type": "string",
              "value": "lower-basement-kit"
            },
            {
              "name": "frame",
              "type": "string",
              "value": "concrete-wall"
            },
            {
              "name": "depth",
              "type": "int",
              "value": 5
            },
            {
              "name": "anchor",
              "type": "string",
              "value": "0.5,1"
            },
            {
              "name": "alpha",
              "type": "float",
              "value": 1.0
            },
            {
              "name": "tint",
              "type": "string",
              "value": "#ffffff"
            },
            {
              "name": "scrollFactorX",
              "type": "float",
              "value": 1.0
            },
            {
              "name": "scrollFactorY",
              "type": "float",
              "value": 1.0
            },
            {
              "name": "visualRole",
              "type": "string",
              "value": "architecture"
            },
            {
              "name": "sectorId",
              "type": "string",
              "value": "4"
            }
          ]
        },
        {
          "id": 61,
          "name": "sector-wall-4",
          "type": "environment",
          "x": 3820,
          "y": 700,
          "width": 760,
          "height": 240,
          "visible": true,
          "rotation": 0,
          "properties": [
            {
              "name": "runtimeId",
              "type": "string",
              "value": "sector-wall-4"
            },
            {
              "name": "assetKey",
              "type": "string",
              "value": "lower-basement-kit"
            },
            {
              "name": "frame",
              "type": "string",
              "value": "concrete-wall"
            },
            {
              "name": "depth",
              "type": "int",
              "value": 5
            },
            {
              "name": "anchor",
              "type": "string",
              "value": "0.5,1"
            },
            {
              "name": "alpha",
              "type": "float",
              "value": 1.0
            },
            {
              "name": "tint",
              "type": "string",
              "value": "#ffffff"
            },
            {
              "name": "scrollFactorX",
              "type": "float",
              "value": 1.0
            },
            {
              "name": "scrollFactorY",
              "type": "float",
              "value": 1.0
            },
            {
              "name": "visualRole",
              "type": "string",
              "value": "architecture"
            },
            {
              "name": "sectorId",
              "type": "string",
              "value": "5"
            }
          ]
        },
        {
          "id": 62,
          "name": "sector-wall-5",
          "type": "environment",
          "x": 4740,
          "y": 790,
          "width": 760,
          "height": 240,
          "visible": true,
          "rotation": 0,
          "properties": [
            {
              "name": "runtimeId",
              "type": "string",
              "value": "sector-wall-5"
            },
            {
              "name": "assetKey",
              "type": "string",
              "value": "lower-basement-kit"
            },
            {
              "name": "frame",
              "type": "string",
              "value": "concrete-wall"
            },
            {
              "name": "depth",
              "type": "int",
              "value": 5
            },
            {
              "name": "anchor",
              "type": "string",
              "value": "0.5,1"
            },
            {
              "name": "alpha",
              "type": "float",
              "value": 1.0
            },
            {
              "name": "tint",
              "type": "string",
              "value": "#ffffff"
            },
            {
              "name": "scrollFactorX",
              "type": "float",
              "value": 1.0
            },
            {
              "name": "scrollFactorY",
              "type": "float",
              "value": 1.0
            },
            {
              "name": "visualRole",
              "type": "string",
              "value": "architecture"
            },
            {
              "name": "sectorId",
              "type": "string",
              "value": "6"
            }
          ]
        },
        {
          "id": 63,
          "name": "sector-wall-6",
          "type": "environment",
          "x": 5680,
          "y": 880,
          "width": 760,
          "height": 240,
          "visible": true,
          "rotation": 0,
          "properties": [
            {
              "name": "runtimeId",
              "type": "string",
              "value": "sector-wall-6"
            },
            {
              "name": "assetKey",
              "type": "string",
              "value": "subsoil-three-kit"
            },
            {
              "name": "frame",
              "type": "string",
              "value": "fractured-wall"
            },
            {
              "name": "depth",
              "type": "int",
              "value": 5
            },
            {
              "name": "anchor",
              "type": "string",
              "value": "0.5,1"
            },
            {
              "name": "alpha",
              "type": "float",
              "value": 1.0
            },
            {
              "name": "tint",
              "type": "string",
              "value": "#ffffff"
            },
            {
              "name": "scrollFactorX",
              "type": "float",
              "value": 1.0
            },
            {
              "name": "scrollFactorY",
              "type": "float",
              "value": 1.0
            },
            {
              "name": "visualRole",
              "type": "string",
              "value": "architecture"
            },
            {
              "name": "sectorId",
              "type": "string",
              "value": "7"
            }
          ]
        },
        {
          "id": 64,
          "name": "sector-wall-7",
          "type": "environment",
          "x": 6660,
          "y": 944,
          "width": 760,
          "height": 240,
          "visible": true,
          "rotation": 0,
          "properties": [
            {
              "name": "runtimeId",
              "type": "string",
              "value": "sector-wall-7"
            },
            {
              "name": "assetKey",
              "type": "string",
              "value": "subsoil-three-kit"
            },
            {
              "name": "frame",
              "type": "string",
              "value": "fractured-wall"
            },
            {
              "name": "depth",
              "type": "int",
              "value": 5
            },
            {
              "name": "anchor",
              "type": "string",
              "value": "0.5,1"
            },
            {
              "name": "alpha",
              "type": "float",
              "value": 1.0
            },
            {
              "name": "tint",
              "type": "string",
              "value": "#ffffff"
            },
            {
              "name": "scrollFactorX",
              "type": "float",
              "value": 1.0
            },
            {
              "name": "scrollFactorY",
              "type": "float",
              "value": 1.0
            },
            {
              "name": "visualRole",
              "type": "string",
              "value": "architecture"
            },
            {
              "name": "sectorId",
              "type": "string",
              "value": "8"
            }
          ]
        },
        {
          "id": 65,
          "name": "sector-wall-8",
          "type": "environment",
          "x": 7656,
          "y": 944,
          "width": 760,
          "height": 240,
          "visible": true,
          "rotation": 0,
          "properties": [
            {
              "name": "runtimeId",
              "type": "string",
              "value": "sector-wall-8"
            },
            {
              "name": "assetKey",
              "type": "string",
              "value": "subsoil-three-kit"
            },
            {
              "name": "frame",
              "type": "string",
              "value": "fractured-wall"
            },
            {
              "name": "depth",
              "type": "int",
              "value": 5
            },
            {
              "name": "anchor",
              "type": "string",
              "value": "0.5,1"
            },
            {
              "name": "alpha",
              "type": "float",
              "value": 1.0
            },
            {
              "name": "tint",
              "type": "string",
              "value": "#ffffff"
            },
            {
              "name": "scrollFactorX",
              "type": "float",
              "value": 1.0
            },
            {
              "name": "scrollFactorY",
              "type": "float",
              "value": 1.0
            },
            {
              "name": "visualRole",
              "type": "string",
              "value": "architecture"
            },
            {
              "name": "sectorId",
              "type": "string",
              "value": "9"
            }
          ]
        }
      ]
    },
    {
      "id": 5,
      "name": "Architecture",
      "type": "objectgroup",
      "draworder": "topdown",
      "opacity": 1,
      "visible": true,
      "objects": [
        {
          "id": 66,
          "name": "landing-0",
          "type": "environment",
          "x": 220,
          "y": 350,
          "width": 640,
          "height": 48,
          "visible": true,
          "rotation": 0,
          "properties": [
            {
              "name": "runtimeId",
              "type": "string",
              "value": "landing-0"
            },
            {
              "name": "assetKey",
              "type": "string",
              "value": "lower-basement-kit"
            },
            {
              "name": "frame",
              "type": "string",
              "value": "drain"
            },
            {
              "name": "depth",
              "type": "int",
              "value": 10
            },
            {
              "name": "anchor",
              "type": "string",
              "value": "0.5,1"
            },
            {
              "name": "alpha",
              "type": "float",
              "value": 1.0
            },
            {
              "name": "tint",
              "type": "string",
              "value": "#ffffff"
            },
            {
              "name": "scrollFactorX",
              "type": "float",
              "value": 1.0
            },
            {
              "name": "scrollFactorY",
              "type": "float",
              "value": 1.0
            },
            {
              "name": "visualRole",
              "type": "string",
              "value": "architecture"
            },
            {
              "name": "sectorId",
              "type": "string",
              "value": "1"
            },
            {
              "name": "floorContactY",
              "type": "int",
              "value": 350
            }
          ]
        },
        {
          "id": 67,
          "name": "landing-1",
          "type": "environment",
          "x": 1100,
          "y": 430,
          "width": 640,
          "height": 48,
          "visible": true,
          "rotation": 0,
          "properties": [
            {
              "name": "runtimeId",
              "type": "string",
              "value": "landing-1"
            },
            {
              "name": "assetKey",
              "type": "string",
              "value": "lower-basement-kit"
            },
            {
              "name": "frame",
              "type": "string",
              "value": "drain"
            },
            {
              "name": "depth",
              "type": "int",
              "value": 10
            },
            {
              "name": "anchor",
              "type": "string",
              "value": "0.5,1"
            },
            {
              "name": "alpha",
              "type": "float",
              "value": 1.0
            },
            {
              "name": "tint",
              "type": "string",
              "value": "#ffffff"
            },
            {
              "name": "scrollFactorX",
              "type": "float",
              "value": 1.0
            },
            {
              "name": "scrollFactorY",
              "type": "float",
              "value": 1.0
            },
            {
              "name": "visualRole",
              "type": "string",
              "value": "architecture"
            },
            {
              "name": "sectorId",
              "type": "string",
              "value": "2"
            },
            {
              "name": "floorContactY",
              "type": "int",
              "value": 430
            }
          ]
        },
        {
          "id": 68,
          "name": "landing-2",
          "type": "environment",
          "x": 2000,
          "y": 520,
          "width": 640,
          "height": 48,
          "visible": true,
          "rotation": 0,
          "properties": [
            {
              "name": "runtimeId",
              "type": "string",
              "value": "landing-2"
            },
            {
              "name": "assetKey",
              "type": "string",
              "value": "lower-basement-kit"
            },
            {
              "name": "frame",
              "type": "string",
              "value": "drain"
            },
            {
              "name": "depth",
              "type": "int",
              "value": 10
            },
            {
              "name": "anchor",
              "type": "string",
              "value": "0.5,1"
            },
            {
              "name": "alpha",
              "type": "float",
              "value": 1.0
            },
            {
              "name": "tint",
              "type": "string",
              "value": "#ffffff"
            },
            {
              "name": "scrollFactorX",
              "type": "float",
              "value": 1.0
            },
            {
              "name": "scrollFactorY",
              "type": "float",
              "value": 1.0
            },
            {
              "name": "visualRole",
              "type": "string",
              "value": "architecture"
            },
            {
              "name": "sectorId",
              "type": "string",
              "value": "3"
            },
            {
              "name": "floorContactY",
              "type": "int",
              "value": 520
            }
          ]
        },
        {
          "id": 69,
          "name": "landing-3",
          "type": "environment",
          "x": 2920,
          "y": 610,
          "width": 640,
          "height": 48,
          "visible": true,
          "rotation": 0,
          "properties": [
            {
              "name": "runtimeId",
              "type": "string",
              "value": "landing-3"
            },
            {
              "name": "assetKey",
              "type": "string",
              "value": "lower-basement-kit"
            },
            {
              "name": "frame",
              "type": "string",
              "value": "drain"
            },
            {
              "name": "depth",
              "type": "int",
              "value": 10
            },
            {
              "name": "anchor",
              "type": "string",
              "value": "0.5,1"
            },
            {
              "name": "alpha",
              "type": "float",
              "value": 1.0
            },
            {
              "name": "tint",
              "type": "string",
              "value": "#ffffff"
            },
            {
              "name": "scrollFactorX",
              "type": "float",
              "value": 1.0
            },
            {
              "name": "scrollFactorY",
              "type": "float",
              "value": 1.0
            },
            {
              "name": "visualRole",
              "type": "string",
              "value": "architecture"
            },
            {
              "name": "sectorId",
              "type": "string",
              "value": "4"
            },
            {
              "name": "floorContactY",
              "type": "int",
              "value": 610
            }
          ]
        },
        {
          "id": 70,
          "name": "landing-4",
          "type": "environment",
          "x": 3820,
          "y": 700,
          "width": 640,
          "height": 48,
          "visible": true,
          "rotation": 0,
          "properties": [
            {
              "name": "runtimeId",
              "type": "string",
              "value": "landing-4"
            },
            {
              "name": "assetKey",
              "type": "string",
              "value": "lower-basement-kit"
            },
            {
              "name": "frame",
              "type": "string",
              "value": "drain"
            },
            {
              "name": "depth",
              "type": "int",
              "value": 10
            },
            {
              "name": "anchor",
              "type": "string",
              "value": "0.5,1"
            },
            {
              "name": "alpha",
              "type": "float",
              "value": 1.0
            },
            {
              "name": "tint",
              "type": "string",
              "value": "#ffffff"
            },
            {
              "name": "scrollFactorX",
              "type": "float",
              "value": 1.0
            },
            {
              "name": "scrollFactorY",
              "type": "float",
              "value": 1.0
            },
            {
              "name": "visualRole",
              "type": "string",
              "value": "architecture"
            },
            {
              "name": "sectorId",
              "type": "string",
              "value": "5"
            },
            {
              "name": "floorContactY",
              "type": "int",
              "value": 700
            }
          ]
        },
        {
          "id": 71,
          "name": "landing-5",
          "type": "environment",
          "x": 4740,
          "y": 790,
          "width": 640,
          "height": 48,
          "visible": true,
          "rotation": 0,
          "properties": [
            {
              "name": "runtimeId",
              "type": "string",
              "value": "landing-5"
            },
            {
              "name": "assetKey",
              "type": "string",
              "value": "lower-basement-kit"
            },
            {
              "name": "frame",
              "type": "string",
              "value": "drain"
            },
            {
              "name": "depth",
              "type": "int",
              "value": 10
            },
            {
              "name": "anchor",
              "type": "string",
              "value": "0.5,1"
            },
            {
              "name": "alpha",
              "type": "float",
              "value": 1.0
            },
            {
              "name": "tint",
              "type": "string",
              "value": "#ffffff"
            },
            {
              "name": "scrollFactorX",
              "type": "float",
              "value": 1.0
            },
            {
              "name": "scrollFactorY",
              "type": "float",
              "value": 1.0
            },
            {
              "name": "visualRole",
              "type": "string",
              "value": "architecture"
            },
            {
              "name": "sectorId",
              "type": "string",
              "value": "6"
            },
            {
              "name": "floorContactY",
              "type": "int",
              "value": 790
            }
          ]
        },
        {
          "id": 72,
          "name": "landing-6",
          "type": "environment",
          "x": 5680,
          "y": 880,
          "width": 640,
          "height": 48,
          "visible": true,
          "rotation": 0,
          "properties": [
            {
              "name": "runtimeId",
              "type": "string",
              "value": "landing-6"
            },
            {
              "name": "assetKey",
              "type": "string",
              "value": "subsoil-three-kit"
            },
            {
              "name": "frame",
              "type": "string",
              "value": "floor-grate"
            },
            {
              "name": "depth",
              "type": "int",
              "value": 10
            },
            {
              "name": "anchor",
              "type": "string",
              "value": "0.5,1"
            },
            {
              "name": "alpha",
              "type": "float",
              "value": 1.0
            },
            {
              "name": "tint",
              "type": "string",
              "value": "#ffffff"
            },
            {
              "name": "scrollFactorX",
              "type": "float",
              "value": 1.0
            },
            {
              "name": "scrollFactorY",
              "type": "float",
              "value": 1.0
            },
            {
              "name": "visualRole",
              "type": "string",
              "value": "architecture"
            },
            {
              "name": "sectorId",
              "type": "string",
              "value": "7"
            },
            {
              "name": "floorContactY",
              "type": "int",
              "value": 880
            }
          ]
        },
        {
          "id": 73,
          "name": "landing-7",
          "type": "environment",
          "x": 6660,
          "y": 970,
          "width": 640,
          "height": 48,
          "visible": true,
          "rotation": 0,
          "properties": [
            {
              "name": "runtimeId",
              "type": "string",
              "value": "landing-7"
            },
            {
              "name": "assetKey",
              "type": "string",
              "value": "subsoil-three-kit"
            },
            {
              "name": "frame",
              "type": "string",
              "value": "floor-grate"
            },
            {
              "name": "depth",
              "type": "int",
              "value": 10
            },
            {
              "name": "anchor",
              "type": "string",
              "value": "0.5,1"
            },
            {
              "name": "alpha",
              "type": "float",
              "value": 1.0
            },
            {
              "name": "tint",
              "type": "string",
              "value": "#ffffff"
            },
            {
              "name": "scrollFactorX",
              "type": "float",
              "value": 1.0
            },
            {
              "name": "scrollFactorY",
              "type": "float",
              "value": 1.0
            },
            {
              "name": "visualRole",
              "type": "string",
              "value": "architecture"
            },
            {
              "name": "sectorId",
              "type": "string",
              "value": "8"
            },
            {
              "name": "floorContactY",
              "type": "int",
              "value": 970
            }
          ]
        },
        {
          "id": 74,
          "name": "landing-8",
          "type": "environment",
          "x": 7776,
          "y": 1080,
          "width": 640,
          "height": 48,
          "visible": true,
          "rotation": 0,
          "properties": [
            {
              "name": "runtimeId",
              "type": "string",
              "value": "landing-8"
            },
            {
              "name": "assetKey",
              "type": "string",
              "value": "subsoil-three-kit"
            },
            {
              "name": "frame",
              "type": "string",
              "value": "floor-grate"
            },
            {
              "name": "depth",
              "type": "int",
              "value": 10
            },
            {
              "name": "anchor",
              "type": "string",
              "value": "0.5,1"
            },
            {
              "name": "alpha",
              "type": "float",
              "value": 1.0
            },
            {
              "name": "tint",
              "type": "string",
              "value": "#ffffff"
            },
            {
              "name": "scrollFactorX",
              "type": "float",
              "value": 1.0
            },
            {
              "name": "scrollFactorY",
              "type": "float",
              "value": 1.0
            },
            {
              "name": "visualRole",
              "type": "string",
              "value": "architecture"
            },
            {
              "name": "sectorId",
              "type": "string",
              "value": "9"
            },
            {
              "name": "floorContactY",
              "type": "int",
              "value": 1080
            }
          ]
        }
      ]
    },
    {
      "id": 6,
      "name": "RearProps",
      "type": "objectgroup",
      "draworder": "topdown",
      "opacity": 1,
      "visible": true,
      "objects": [
        {
          "id": 75,
          "name": "pipe-0",
          "type": "environment",
          "x": 330,
          "y": 260,
          "width": 64,
          "height": 64,
          "visible": true,
          "rotation": 0,
          "properties": [
            {
              "name": "runtimeId",
              "type": "string",
              "value": "pipe-0"
            },
            {
              "name": "assetKey",
              "type": "string",
              "value": "lower-basement-kit"
            },
            {
              "name": "frame",
              "type": "string",
              "value": "pipe"
            },
            {
              "name": "depth",
              "type": "int",
              "value": 12
            },
            {
              "name": "anchor",
              "type": "string",
              "value": "0.5,1"
            },
            {
              "name": "alpha",
              "type": "float",
              "value": 1.0
            },
            {
              "name": "tint",
              "type": "string",
              "value": "#ffffff"
            },
            {
              "name": "scrollFactorX",
              "type": "float",
              "value": 1.0
            },
            {
              "name": "scrollFactorY",
              "type": "float",
              "value": 1.0
            },
            {
              "name": "visualRole",
              "type": "string",
              "value": "gameplayDecor"
            }
          ]
        },
        {
          "id": 76,
          "name": "pipe-1",
          "type": "environment",
          "x": 1210,
          "y": 340,
          "width": 64,
          "height": 64,
          "visible": true,
          "rotation": 0,
          "properties": [
            {
              "name": "runtimeId",
              "type": "string",
              "value": "pipe-1"
            },
            {
              "name": "assetKey",
              "type": "string",
              "value": "lower-basement-kit"
            },
            {
              "name": "frame",
              "type": "string",
              "value": "pipe"
            },
            {
              "name": "depth",
              "type": "int",
              "value": 12
            },
            {
              "name": "anchor",
              "type": "string",
              "value": "0.5,1"
            },
            {
              "name": "alpha",
              "type": "float",
              "value": 1.0
            },
            {
              "name": "tint",
              "type": "string",
              "value": "#ffffff"
            },
            {
              "name": "scrollFactorX",
              "type": "float",
              "value": 1.0
            },
            {
              "name": "scrollFactorY",
              "type": "float",
              "value": 1.0
            },
            {
              "name": "visualRole",
              "type": "string",
              "value": "gameplayDecor"
            }
          ]
        },
        {
          "id": 77,
          "name": "pipe-2",
          "type": "environment",
          "x": 2110,
          "y": 430,
          "width": 64,
          "height": 64,
          "visible": true,
          "rotation": 0,
          "properties": [
            {
              "name": "runtimeId",
              "type": "string",
              "value": "pipe-2"
            },
            {
              "name": "assetKey",
              "type": "string",
              "value": "lower-basement-kit"
            },
            {
              "name": "frame",
              "type": "string",
              "value": "pipe"
            },
            {
              "name": "depth",
              "type": "int",
              "value": 12
            },
            {
              "name": "anchor",
              "type": "string",
              "value": "0.5,1"
            },
            {
              "name": "alpha",
              "type": "float",
              "value": 1.0
            },
            {
              "name": "tint",
              "type": "string",
              "value": "#ffffff"
            },
            {
              "name": "scrollFactorX",
              "type": "float",
              "value": 1.0
            },
            {
              "name": "scrollFactorY",
              "type": "float",
              "value": 1.0
            },
            {
              "name": "visualRole",
              "type": "string",
              "value": "gameplayDecor"
            }
          ]
        },
        {
          "id": 78,
          "name": "pipe-3",
          "type": "environment",
          "x": 3030,
          "y": 520,
          "width": 64,
          "height": 64,
          "visible": true,
          "rotation": 0,
          "properties": [
            {
              "name": "runtimeId",
              "type": "string",
              "value": "pipe-3"
            },
            {
              "name": "assetKey",
              "type": "string",
              "value": "lower-basement-kit"
            },
            {
              "name": "frame",
              "type": "string",
              "value": "pipe"
            },
            {
              "name": "depth",
              "type": "int",
              "value": 12
            },
            {
              "name": "anchor",
              "type": "string",
              "value": "0.5,1"
            },
            {
              "name": "alpha",
              "type": "float",
              "value": 1.0
            },
            {
              "name": "tint",
              "type": "string",
              "value": "#ffffff"
            },
            {
              "name": "scrollFactorX",
              "type": "float",
              "value": 1.0
            },
            {
              "name": "scrollFactorY",
              "type": "float",
              "value": 1.0
            },
            {
              "name": "visualRole",
              "type": "string",
              "value": "gameplayDecor"
            }
          ]
        },
        {
          "id": 79,
          "name": "pipe-4",
          "type": "environment",
          "x": 3930,
          "y": 610,
          "width": 64,
          "height": 64,
          "visible": true,
          "rotation": 0,
          "properties": [
            {
              "name": "runtimeId",
              "type": "string",
              "value": "pipe-4"
            },
            {
              "name": "assetKey",
              "type": "string",
              "value": "lower-basement-kit"
            },
            {
              "name": "frame",
              "type": "string",
              "value": "pipe"
            },
            {
              "name": "depth",
              "type": "int",
              "value": 12
            },
            {
              "name": "anchor",
              "type": "string",
              "value": "0.5,1"
            },
            {
              "name": "alpha",
              "type": "float",
              "value": 1.0
            },
            {
              "name": "tint",
              "type": "string",
              "value": "#ffffff"
            },
            {
              "name": "scrollFactorX",
              "type": "float",
              "value": 1.0
            },
            {
              "name": "scrollFactorY",
              "type": "float",
              "value": 1.0
            },
            {
              "name": "visualRole",
              "type": "string",
              "value": "gameplayDecor"
            }
          ]
        },
        {
          "id": 80,
          "name": "pipe-5",
          "type": "environment",
          "x": 4850,
          "y": 700,
          "width": 64,
          "height": 64,
          "visible": true,
          "rotation": 0,
          "properties": [
            {
              "name": "runtimeId",
              "type": "string",
              "value": "pipe-5"
            },
            {
              "name": "assetKey",
              "type": "string",
              "value": "lower-basement-kit"
            },
            {
              "name": "frame",
              "type": "string",
              "value": "pipe"
            },
            {
              "name": "depth",
              "type": "int",
              "value": 12
            },
            {
              "name": "anchor",
              "type": "string",
              "value": "0.5,1"
            },
            {
              "name": "alpha",
              "type": "float",
              "value": 1.0
            },
            {
              "name": "tint",
              "type": "string",
              "value": "#ffffff"
            },
            {
              "name": "scrollFactorX",
              "type": "float",
              "value": 1.0
            },
            {
              "name": "scrollFactorY",
              "type": "float",
              "value": 1.0
            },
            {
              "name": "visualRole",
              "type": "string",
              "value": "gameplayDecor"
            }
          ]
        },
        {
          "id": 81,
          "name": "pipe-6",
          "type": "environment",
          "x": 5790,
          "y": 790,
          "width": 64,
          "height": 64,
          "visible": true,
          "rotation": 0,
          "properties": [
            {
              "name": "runtimeId",
              "type": "string",
              "value": "pipe-6"
            },
            {
              "name": "assetKey",
              "type": "string",
              "value": "subsoil-three-kit"
            },
            {
              "name": "frame",
              "type": "string",
              "value": "large-pipe"
            },
            {
              "name": "depth",
              "type": "int",
              "value": 12
            },
            {
              "name": "anchor",
              "type": "string",
              "value": "0.5,1"
            },
            {
              "name": "alpha",
              "type": "float",
              "value": 1.0
            },
            {
              "name": "tint",
              "type": "string",
              "value": "#ffffff"
            },
            {
              "name": "scrollFactorX",
              "type": "float",
              "value": 1.0
            },
            {
              "name": "scrollFactorY",
              "type": "float",
              "value": 1.0
            },
            {
              "name": "visualRole",
              "type": "string",
              "value": "gameplayDecor"
            }
          ]
        },
        {
          "id": 82,
          "name": "pipe-7",
          "type": "environment",
          "x": 6770,
          "y": 880,
          "width": 64,
          "height": 64,
          "visible": true,
          "rotation": 0,
          "properties": [
            {
              "name": "runtimeId",
              "type": "string",
              "value": "pipe-7"
            },
            {
              "name": "assetKey",
              "type": "string",
              "value": "subsoil-three-kit"
            },
            {
              "name": "frame",
              "type": "string",
              "value": "large-pipe"
            },
            {
              "name": "depth",
              "type": "int",
              "value": 12
            },
            {
              "name": "anchor",
              "type": "string",
              "value": "0.5,1"
            },
            {
              "name": "alpha",
              "type": "float",
              "value": 1.0
            },
            {
              "name": "tint",
              "type": "string",
              "value": "#ffffff"
            },
            {
              "name": "scrollFactorX",
              "type": "float",
              "value": 1.0
            },
            {
              "name": "scrollFactorY",
              "type": "float",
              "value": 1.0
            },
            {
              "name": "visualRole",
              "type": "string",
              "value": "gameplayDecor"
            }
          ]
        },
        {
          "id": 83,
          "name": "pipe-8",
          "type": "environment",
          "x": 7930,
          "y": 990,
          "width": 64,
          "height": 64,
          "visible": true,
          "rotation": 0,
          "properties": [
            {
              "name": "runtimeId",
              "type": "string",
              "value": "pipe-8"
            },
            {
              "name": "assetKey",
              "type": "string",
              "value": "subsoil-three-kit"
            },
            {
              "name": "frame",
              "type": "string",
              "value": "large-pipe"
            },
            {
              "name": "depth",
              "type": "int",
              "value": 12
            },
            {
              "name": "anchor",
              "type": "string",
              "value": "0.5,1"
            },
            {
              "name": "alpha",
              "type": "float",
              "value": 1.0
            },
            {
              "name": "tint",
              "type": "string",
              "value": "#ffffff"
            },
            {
              "name": "scrollFactorX",
              "type": "float",
              "value": 1.0
            },
            {
              "name": "scrollFactorY",
              "type": "float",
              "value": 1.0
            },
            {
              "name": "visualRole",
              "type": "string",
              "value": "gameplayDecor"
            }
          ]
        }
      ]
    },
    {
      "id": 7,
      "name": "GameplayDecor",
      "type": "objectgroup",
      "draworder": "topdown",
      "opacity": 1,
      "visible": true,
      "objects": [
        {
          "id": 84,
          "name": "floor-sign-0",
          "type": "environment",
          "x": 100,
          "y": 314,
          "width": 64,
          "height": 64,
          "visible": true,
          "rotation": 0,
          "properties": [
            {
              "name": "runtimeId",
              "type": "string",
              "value": "floor-sign-0"
            },
            {
              "name": "assetKey",
              "type": "string",
              "value": "lower-basement-kit"
            },
            {
              "name": "frame",
              "type": "string",
              "value": "floor-sign"
            },
            {
              "name": "depth",
              "type": "int",
              "value": 12
            },
            {
              "name": "anchor",
              "type": "string",
              "value": "0.5,1"
            },
            {
              "name": "alpha",
              "type": "float",
              "value": 1.0
            },
            {
              "name": "tint",
              "type": "string",
              "value": "#ffffff"
            },
            {
              "name": "scrollFactorX",
              "type": "float",
              "value": 1.0
            },
            {
              "name": "scrollFactorY",
              "type": "float",
              "value": 1.0
            },
            {
              "name": "visualRole",
              "type": "string",
              "value": "gameplayDecor"
            }
          ]
        },
        {
          "id": 85,
          "name": "floor-sign-1",
          "type": "environment",
          "x": 980,
          "y": 394,
          "width": 64,
          "height": 64,
          "visible": true,
          "rotation": 0,
          "properties": [
            {
              "name": "runtimeId",
              "type": "string",
              "value": "floor-sign-1"
            },
            {
              "name": "assetKey",
              "type": "string",
              "value": "lower-basement-kit"
            },
            {
              "name": "frame",
              "type": "string",
              "value": "floor-sign"
            },
            {
              "name": "depth",
              "type": "int",
              "value": 12
            },
            {
              "name": "anchor",
              "type": "string",
              "value": "0.5,1"
            },
            {
              "name": "alpha",
              "type": "float",
              "value": 1.0
            },
            {
              "name": "tint",
              "type": "string",
              "value": "#ffffff"
            },
            {
              "name": "scrollFactorX",
              "type": "float",
              "value": 1.0
            },
            {
              "name": "scrollFactorY",
              "type": "float",
              "value": 1.0
            },
            {
              "name": "visualRole",
              "type": "string",
              "value": "gameplayDecor"
            }
          ]
        },
        {
          "id": 86,
          "name": "floor-sign-2",
          "type": "environment",
          "x": 1880,
          "y": 484,
          "width": 64,
          "height": 64,
          "visible": true,
          "rotation": 0,
          "properties": [
            {
              "name": "runtimeId",
              "type": "string",
              "value": "floor-sign-2"
            },
            {
              "name": "assetKey",
              "type": "string",
              "value": "lower-basement-kit"
            },
            {
              "name": "frame",
              "type": "string",
              "value": "floor-sign"
            },
            {
              "name": "depth",
              "type": "int",
              "value": 12
            },
            {
              "name": "anchor",
              "type": "string",
              "value": "0.5,1"
            },
            {
              "name": "alpha",
              "type": "float",
              "value": 1.0
            },
            {
              "name": "tint",
              "type": "string",
              "value": "#ffffff"
            },
            {
              "name": "scrollFactorX",
              "type": "float",
              "value": 1.0
            },
            {
              "name": "scrollFactorY",
              "type": "float",
              "value": 1.0
            },
            {
              "name": "visualRole",
              "type": "string",
              "value": "gameplayDecor"
            }
          ]
        },
        {
          "id": 87,
          "name": "floor-sign-3",
          "type": "environment",
          "x": 2800,
          "y": 574,
          "width": 64,
          "height": 64,
          "visible": true,
          "rotation": 0,
          "properties": [
            {
              "name": "runtimeId",
              "type": "string",
              "value": "floor-sign-3"
            },
            {
              "name": "assetKey",
              "type": "string",
              "value": "lower-basement-kit"
            },
            {
              "name": "frame",
              "type": "string",
              "value": "floor-sign"
            },
            {
              "name": "depth",
              "type": "int",
              "value": 12
            },
            {
              "name": "anchor",
              "type": "string",
              "value": "0.5,1"
            },
            {
              "name": "alpha",
              "type": "float",
              "value": 1.0
            },
            {
              "name": "tint",
              "type": "string",
              "value": "#ffffff"
            },
            {
              "name": "scrollFactorX",
              "type": "float",
              "value": 1.0
            },
            {
              "name": "scrollFactorY",
              "type": "float",
              "value": 1.0
            },
            {
              "name": "visualRole",
              "type": "string",
              "value": "gameplayDecor"
            }
          ]
        },
        {
          "id": 88,
          "name": "floor-sign-4",
          "type": "environment",
          "x": 3700,
          "y": 664,
          "width": 64,
          "height": 64,
          "visible": true,
          "rotation": 0,
          "properties": [
            {
              "name": "runtimeId",
              "type": "string",
              "value": "floor-sign-4"
            },
            {
              "name": "assetKey",
              "type": "string",
              "value": "lower-basement-kit"
            },
            {
              "name": "frame",
              "type": "string",
              "value": "floor-sign"
            },
            {
              "name": "depth",
              "type": "int",
              "value": 12
            },
            {
              "name": "anchor",
              "type": "string",
              "value": "0.5,1"
            },
            {
              "name": "alpha",
              "type": "float",
              "value": 1.0
            },
            {
              "name": "tint",
              "type": "string",
              "value": "#ffffff"
            },
            {
              "name": "scrollFactorX",
              "type": "float",
              "value": 1.0
            },
            {
              "name": "scrollFactorY",
              "type": "float",
              "value": 1.0
            },
            {
              "name": "visualRole",
              "type": "string",
              "value": "gameplayDecor"
            }
          ]
        },
        {
          "id": 89,
          "name": "floor-sign-5",
          "type": "environment",
          "x": 4620,
          "y": 754,
          "width": 64,
          "height": 64,
          "visible": true,
          "rotation": 0,
          "properties": [
            {
              "name": "runtimeId",
              "type": "string",
              "value": "floor-sign-5"
            },
            {
              "name": "assetKey",
              "type": "string",
              "value": "lower-basement-kit"
            },
            {
              "name": "frame",
              "type": "string",
              "value": "floor-sign"
            },
            {
              "name": "depth",
              "type": "int",
              "value": 12
            },
            {
              "name": "anchor",
              "type": "string",
              "value": "0.5,1"
            },
            {
              "name": "alpha",
              "type": "float",
              "value": 1.0
            },
            {
              "name": "tint",
              "type": "string",
              "value": "#ffffff"
            },
            {
              "name": "scrollFactorX",
              "type": "float",
              "value": 1.0
            },
            {
              "name": "scrollFactorY",
              "type": "float",
              "value": 1.0
            },
            {
              "name": "visualRole",
              "type": "string",
              "value": "gameplayDecor"
            }
          ]
        },
        {
          "id": 90,
          "name": "floor-sign-6",
          "type": "environment",
          "x": 5560,
          "y": 844,
          "width": 64,
          "height": 64,
          "visible": true,
          "rotation": 0,
          "properties": [
            {
              "name": "runtimeId",
              "type": "string",
              "value": "floor-sign-6"
            },
            {
              "name": "assetKey",
              "type": "string",
              "value": "subsoil-three-kit"
            },
            {
              "name": "frame",
              "type": "string",
              "value": "evacuation-mark"
            },
            {
              "name": "depth",
              "type": "int",
              "value": 12
            },
            {
              "name": "anchor",
              "type": "string",
              "value": "0.5,1"
            },
            {
              "name": "alpha",
              "type": "float",
              "value": 1.0
            },
            {
              "name": "tint",
              "type": "string",
              "value": "#ffffff"
            },
            {
              "name": "scrollFactorX",
              "type": "float",
              "value": 1.0
            },
            {
              "name": "scrollFactorY",
              "type": "float",
              "value": 1.0
            },
            {
              "name": "visualRole",
              "type": "string",
              "value": "gameplayDecor"
            }
          ]
        },
        {
          "id": 91,
          "name": "floor-sign-7",
          "type": "environment",
          "x": 6540,
          "y": 934,
          "width": 64,
          "height": 64,
          "visible": true,
          "rotation": 0,
          "properties": [
            {
              "name": "runtimeId",
              "type": "string",
              "value": "floor-sign-7"
            },
            {
              "name": "assetKey",
              "type": "string",
              "value": "subsoil-three-kit"
            },
            {
              "name": "frame",
              "type": "string",
              "value": "evacuation-mark"
            },
            {
              "name": "depth",
              "type": "int",
              "value": 12
            },
            {
              "name": "anchor",
              "type": "string",
              "value": "0.5,1"
            },
            {
              "name": "alpha",
              "type": "float",
              "value": 1.0
            },
            {
              "name": "tint",
              "type": "string",
              "value": "#ffffff"
            },
            {
              "name": "scrollFactorX",
              "type": "float",
              "value": 1.0
            },
            {
              "name": "scrollFactorY",
              "type": "float",
              "value": 1.0
            },
            {
              "name": "visualRole",
              "type": "string",
              "value": "gameplayDecor"
            }
          ]
        },
        {
          "id": 92,
          "name": "floor-sign-8",
          "type": "environment",
          "x": 7700,
          "y": 1044,
          "width": 64,
          "height": 64,
          "visible": true,
          "rotation": 0,
          "properties": [
            {
              "name": "runtimeId",
              "type": "string",
              "value": "floor-sign-8"
            },
            {
              "name": "assetKey",
              "type": "string",
              "value": "subsoil-three-kit"
            },
            {
              "name": "frame",
              "type": "string",
              "value": "evacuation-mark"
            },
            {
              "name": "depth",
              "type": "int",
              "value": 12
            },
            {
              "name": "anchor",
              "type": "string",
              "value": "0.5,1"
            },
            {
              "name": "alpha",
              "type": "float",
              "value": 1.0
            },
            {
              "name": "tint",
              "type": "string",
              "value": "#ffffff"
            },
            {
              "name": "scrollFactorX",
              "type": "float",
              "value": 1.0
            },
            {
              "name": "scrollFactorY",
              "type": "float",
              "value": 1.0
            },
            {
              "name": "visualRole",
              "type": "string",
              "value": "gameplayDecor"
            }
          ]
        }
      ]
    },
    {
      "id": 8,
      "name": "FrontProps",
      "type": "objectgroup",
      "draworder": "topdown",
      "opacity": 1,
      "visible": true,
      "objects": [
        {
          "id": 93,
          "name": "final-heavy-door",
          "type": "environment",
          "x": 8120,
          "y": 1024,
          "width": 96,
          "height": 160,
          "visible": true,
          "rotation": 0,
          "properties": [
            {
              "name": "runtimeId",
              "type": "string",
              "value": "final-heavy-door"
            },
            {
              "name": "assetKey",
              "type": "string",
              "value": "subsoil-three-kit"
            },
            {
              "name": "frame",
              "type": "string",
              "value": "heavy-door"
            },
            {
              "name": "depth",
              "type": "int",
              "value": 20
            },
            {
              "name": "anchor",
              "type": "string",
              "value": "0.5,1"
            },
            {
              "name": "alpha",
              "type": "float",
              "value": 1.0
            },
            {
              "name": "tint",
              "type": "string",
              "value": "#ffffff"
            },
            {
              "name": "scrollFactorX",
              "type": "float",
              "value": 1.0
            },
            {
              "name": "scrollFactorY",
              "type": "float",
              "value": 1.0
            },
            {
              "name": "visualRole",
              "type": "string",
              "value": "frontProp"
            },
            {
              "name": "connectorId",
              "type": "string",
              "value": "escalera-subsuelo-3"
            },
            {
              "name": "direction",
              "type": "string",
              "value": "down"
            }
          ]
        }
      ]
    },
    {
      "id": 9,
      "name": "Foreground",
      "type": "objectgroup",
      "draworder": "topdown",
      "opacity": 1,
      "visible": true,
      "objects": [
        {
          "id": 94,
          "name": "rail-0",
          "type": "environment",
          "x": 470,
          "y": 350,
          "width": 180,
          "height": 100,
          "visible": true,
          "rotation": 0,
          "properties": [
            {
              "name": "runtimeId",
              "type": "string",
              "value": "rail-0"
            },
            {
              "name": "assetKey",
              "type": "string",
              "value": "lower-basement-kit"
            },
            {
              "name": "frame",
              "type": "string",
              "value": "technical-foreground"
            },
            {
              "name": "depth",
              "type": "int",
              "value": 40
            },
            {
              "name": "anchor",
              "type": "string",
              "value": "0.5,1"
            },
            {
              "name": "alpha",
              "type": "float",
              "value": 1.0
            },
            {
              "name": "tint",
              "type": "string",
              "value": "#ffffff"
            },
            {
              "name": "scrollFactorX",
              "type": "float",
              "value": 1.0
            },
            {
              "name": "scrollFactorY",
              "type": "float",
              "value": 1.0
            },
            {
              "name": "visualRole",
              "type": "string",
              "value": "foreground"
            },
            {
              "name": "collision",
              "type": "bool",
              "value": false
            }
          ]
        },
        {
          "id": 95,
          "name": "rail-1",
          "type": "environment",
          "x": 1350,
          "y": 430,
          "width": 180,
          "height": 100,
          "visible": true,
          "rotation": 0,
          "properties": [
            {
              "name": "runtimeId",
              "type": "string",
              "value": "rail-1"
            },
            {
              "name": "assetKey",
              "type": "string",
              "value": "lower-basement-kit"
            },
            {
              "name": "frame",
              "type": "string",
              "value": "technical-foreground"
            },
            {
              "name": "depth",
              "type": "int",
              "value": 40
            },
            {
              "name": "anchor",
              "type": "string",
              "value": "0.5,1"
            },
            {
              "name": "alpha",
              "type": "float",
              "value": 1.0
            },
            {
              "name": "tint",
              "type": "string",
              "value": "#ffffff"
            },
            {
              "name": "scrollFactorX",
              "type": "float",
              "value": 1.0
            },
            {
              "name": "scrollFactorY",
              "type": "float",
              "value": 1.0
            },
            {
              "name": "visualRole",
              "type": "string",
              "value": "foreground"
            },
            {
              "name": "collision",
              "type": "bool",
              "value": false
            }
          ]
        },
        {
          "id": 96,
          "name": "rail-2",
          "type": "environment",
          "x": 2250,
          "y": 520,
          "width": 180,
          "height": 100,
          "visible": true,
          "rotation": 0,
          "properties": [
            {
              "name": "runtimeId",
              "type": "string",
              "value": "rail-2"
            },
            {
              "name": "assetKey",
              "type": "string",
              "value": "lower-basement-kit"
            },
            {
              "name": "frame",
              "type": "string",
              "value": "technical-foreground"
            },
            {
              "name": "depth",
              "type": "int",
              "value": 40
            },
            {
              "name": "anchor",
              "type": "string",
              "value": "0.5,1"
            },
            {
              "name": "alpha",
              "type": "float",
              "value": 1.0
            },
            {
              "name": "tint",
              "type": "string",
              "value": "#ffffff"
            },
            {
              "name": "scrollFactorX",
              "type": "float",
              "value": 1.0
            },
            {
              "name": "scrollFactorY",
              "type": "float",
              "value": 1.0
            },
            {
              "name": "visualRole",
              "type": "string",
              "value": "foreground"
            },
            {
              "name": "collision",
              "type": "bool",
              "value": false
            }
          ]
        },
        {
          "id": 97,
          "name": "rail-3",
          "type": "environment",
          "x": 3170,
          "y": 610,
          "width": 180,
          "height": 100,
          "visible": true,
          "rotation": 0,
          "properties": [
            {
              "name": "runtimeId",
              "type": "string",
              "value": "rail-3"
            },
            {
              "name": "assetKey",
              "type": "string",
              "value": "lower-basement-kit"
            },
            {
              "name": "frame",
              "type": "string",
              "value": "technical-foreground"
            },
            {
              "name": "depth",
              "type": "int",
              "value": 40
            },
            {
              "name": "anchor",
              "type": "string",
              "value": "0.5,1"
            },
            {
              "name": "alpha",
              "type": "float",
              "value": 1.0
            },
            {
              "name": "tint",
              "type": "string",
              "value": "#ffffff"
            },
            {
              "name": "scrollFactorX",
              "type": "float",
              "value": 1.0
            },
            {
              "name": "scrollFactorY",
              "type": "float",
              "value": 1.0
            },
            {
              "name": "visualRole",
              "type": "string",
              "value": "foreground"
            },
            {
              "name": "collision",
              "type": "bool",
              "value": false
            }
          ]
        },
        {
          "id": 98,
          "name": "rail-4",
          "type": "environment",
          "x": 4070,
          "y": 700,
          "width": 180,
          "height": 100,
          "visible": true,
          "rotation": 0,
          "properties": [
            {
              "name": "runtimeId",
              "type": "string",
              "value": "rail-4"
            },
            {
              "name": "assetKey",
              "type": "string",
              "value": "lower-basement-kit"
            },
            {
              "name": "frame",
              "type": "string",
              "value": "technical-foreground"
            },
            {
              "name": "depth",
              "type": "int",
              "value": 40
            },
            {
              "name": "anchor",
              "type": "string",
              "value": "0.5,1"
            },
            {
              "name": "alpha",
              "type": "float",
              "value": 1.0
            },
            {
              "name": "tint",
              "type": "string",
              "value": "#ffffff"
            },
            {
              "name": "scrollFactorX",
              "type": "float",
              "value": 1.0
            },
            {
              "name": "scrollFactorY",
              "type": "float",
              "value": 1.0
            },
            {
              "name": "visualRole",
              "type": "string",
              "value": "foreground"
            },
            {
              "name": "collision",
              "type": "bool",
              "value": false
            }
          ]
        },
        {
          "id": 99,
          "name": "rail-5",
          "type": "environment",
          "x": 4990,
          "y": 790,
          "width": 180,
          "height": 100,
          "visible": true,
          "rotation": 0,
          "properties": [
            {
              "name": "runtimeId",
              "type": "string",
              "value": "rail-5"
            },
            {
              "name": "assetKey",
              "type": "string",
              "value": "lower-basement-kit"
            },
            {
              "name": "frame",
              "type": "string",
              "value": "technical-foreground"
            },
            {
              "name": "depth",
              "type": "int",
              "value": 40
            },
            {
              "name": "anchor",
              "type": "string",
              "value": "0.5,1"
            },
            {
              "name": "alpha",
              "type": "float",
              "value": 1.0
            },
            {
              "name": "tint",
              "type": "string",
              "value": "#ffffff"
            },
            {
              "name": "scrollFactorX",
              "type": "float",
              "value": 1.0
            },
            {
              "name": "scrollFactorY",
              "type": "float",
              "value": 1.0
            },
            {
              "name": "visualRole",
              "type": "string",
              "value": "foreground"
            },
            {
              "name": "collision",
              "type": "bool",
              "value": false
            }
          ]
        },
        {
          "id": 100,
          "name": "rail-6",
          "type": "environment",
          "x": 5930,
          "y": 880,
          "width": 180,
          "height": 100,
          "visible": true,
          "rotation": 0,
          "properties": [
            {
              "name": "runtimeId",
              "type": "string",
              "value": "rail-6"
            },
            {
              "name": "assetKey",
              "type": "string",
              "value": "lower-basement-kit"
            },
            {
              "name": "frame",
              "type": "string",
              "value": "technical-foreground"
            },
            {
              "name": "depth",
              "type": "int",
              "value": 40
            },
            {
              "name": "anchor",
              "type": "string",
              "value": "0.5,1"
            },
            {
              "name": "alpha",
              "type": "float",
              "value": 1.0
            },
            {
              "name": "tint",
              "type": "string",
              "value": "#ffffff"
            },
            {
              "name": "scrollFactorX",
              "type": "float",
              "value": 1.0
            },
            {
              "name": "scrollFactorY",
              "type": "float",
              "value": 1.0
            },
            {
              "name": "visualRole",
              "type": "string",
              "value": "foreground"
            },
            {
              "name": "collision",
              "type": "bool",
              "value": false
            }
          ]
        },
        {
          "id": 101,
          "name": "rail-7",
          "type": "environment",
          "x": 6910,
          "y": 970,
          "width": 180,
          "height": 100,
          "visible": true,
          "rotation": 0,
          "properties": [
            {
              "name": "runtimeId",
              "type": "string",
              "value": "rail-7"
            },
            {
              "name": "assetKey",
              "type": "string",
              "value": "lower-basement-kit"
            },
            {
              "name": "frame",
              "type": "string",
              "value": "technical-foreground"
            },
            {
              "name": "depth",
              "type": "int",
              "value": 40
            },
            {
              "name": "anchor",
              "type": "string",
              "value": "0.5,1"
            },
            {
              "name": "alpha",
              "type": "float",
              "value": 1.0
            },
            {
              "name": "tint",
              "type": "string",
              "value": "#ffffff"
            },
            {
              "name": "scrollFactorX",
              "type": "float",
              "value": 1.0
            },
            {
              "name": "scrollFactorY",
              "type": "float",
              "value": 1.0
            },
            {
              "name": "visualRole",
              "type": "string",
              "value": "foreground"
            },
            {
              "name": "collision",
              "type": "bool",
              "value": false
            }
          ]
        },
        {
          "id": 102,
          "name": "rail-8",
          "type": "environment",
          "x": 8070,
          "y": 1080,
          "width": 180,
          "height": 100,
          "visible": true,
          "rotation": 0,
          "properties": [
            {
              "name": "runtimeId",
              "type": "string",
              "value": "rail-8"
            },
            {
              "name": "assetKey",
              "type": "string",
              "value": "lower-basement-kit"
            },
            {
              "name": "frame",
              "type": "string",
              "value": "technical-foreground"
            },
            {
              "name": "depth",
              "type": "int",
              "value": 40
            },
            {
              "name": "anchor",
              "type": "string",
              "value": "0.5,1"
            },
            {
              "name": "alpha",
              "type": "float",
              "value": 1.0
            },
            {
              "name": "tint",
              "type": "string",
              "value": "#ffffff"
            },
            {
              "name": "scrollFactorX",
              "type": "float",
              "value": 1.0
            },
            {
              "name": "scrollFactorY",
              "type": "float",
              "value": 1.0
            },
            {
              "name": "visualRole",
              "type": "string",
              "value": "foreground"
            },
            {
              "name": "collision",
              "type": "bool",
              "value": false
            }
          ]
        }
      ]
    },
    {
      "id": 10,
      "name": "LightingAnchors",
      "type": "objectgroup",
      "draworder": "topdown",
      "opacity": 1,
      "visible": true,
      "objects": [
        {
          "id": 103,
          "name": "emergency-0",
          "type": "environment",
          "x": 220,
          "y": 180,
          "width": 64,
          "height": 64,
          "visible": true,
          "rotation": 0,
          "properties": [
            {
              "name": "runtimeId",
              "type": "string",
              "value": "emergency-0"
            },
            {
              "name": "assetKey",
              "type": "string",
              "value": "industrial-lighting-kit"
            },
            {
              "name": "frame",
              "type": "string",
              "value": "emergency-on"
            },
            {
              "name": "depth",
              "type": "int",
              "value": 25
            },
            {
              "name": "anchor",
              "type": "string",
              "value": "0.5,1"
            },
            {
              "name": "alpha",
              "type": "float",
              "value": 1.0
            },
            {
              "name": "tint",
              "type": "string",
              "value": "#ffffff"
            },
            {
              "name": "scrollFactorX",
              "type": "float",
              "value": 1.0
            },
            {
              "name": "scrollFactorY",
              "type": "float",
              "value": 1.0
            },
            {
              "name": "visualRole",
              "type": "string",
              "value": "lighting"
            },
            {
              "name": "lightProfile",
              "type": "string",
              "value": "timed-descent-emergency"
            }
          ]
        },
        {
          "id": 104,
          "name": "emergency-1",
          "type": "environment",
          "x": 1100,
          "y": 260,
          "width": 64,
          "height": 64,
          "visible": true,
          "rotation": 0,
          "properties": [
            {
              "name": "runtimeId",
              "type": "string",
              "value": "emergency-1"
            },
            {
              "name": "assetKey",
              "type": "string",
              "value": "industrial-lighting-kit"
            },
            {
              "name": "frame",
              "type": "string",
              "value": "emergency-on"
            },
            {
              "name": "depth",
              "type": "int",
              "value": 25
            },
            {
              "name": "anchor",
              "type": "string",
              "value": "0.5,1"
            },
            {
              "name": "alpha",
              "type": "float",
              "value": 1.0
            },
            {
              "name": "tint",
              "type": "string",
              "value": "#ffffff"
            },
            {
              "name": "scrollFactorX",
              "type": "float",
              "value": 1.0
            },
            {
              "name": "scrollFactorY",
              "type": "float",
              "value": 1.0
            },
            {
              "name": "visualRole",
              "type": "string",
              "value": "lighting"
            },
            {
              "name": "lightProfile",
              "type": "string",
              "value": "timed-descent-emergency"
            }
          ]
        },
        {
          "id": 105,
          "name": "emergency-2",
          "type": "environment",
          "x": 2000,
          "y": 350,
          "width": 64,
          "height": 64,
          "visible": true,
          "rotation": 0,
          "properties": [
            {
              "name": "runtimeId",
              "type": "string",
              "value": "emergency-2"
            },
            {
              "name": "assetKey",
              "type": "string",
              "value": "industrial-lighting-kit"
            },
            {
              "name": "frame",
              "type": "string",
              "value": "emergency-on"
            },
            {
              "name": "depth",
              "type": "int",
              "value": 25
            },
            {
              "name": "anchor",
              "type": "string",
              "value": "0.5,1"
            },
            {
              "name": "alpha",
              "type": "float",
              "value": 1.0
            },
            {
              "name": "tint",
              "type": "string",
              "value": "#ffffff"
            },
            {
              "name": "scrollFactorX",
              "type": "float",
              "value": 1.0
            },
            {
              "name": "scrollFactorY",
              "type": "float",
              "value": 1.0
            },
            {
              "name": "visualRole",
              "type": "string",
              "value": "lighting"
            },
            {
              "name": "lightProfile",
              "type": "string",
              "value": "timed-descent-emergency"
            }
          ]
        },
        {
          "id": 106,
          "name": "emergency-3",
          "type": "environment",
          "x": 2920,
          "y": 440,
          "width": 64,
          "height": 64,
          "visible": true,
          "rotation": 0,
          "properties": [
            {
              "name": "runtimeId",
              "type": "string",
              "value": "emergency-3"
            },
            {
              "name": "assetKey",
              "type": "string",
              "value": "industrial-lighting-kit"
            },
            {
              "name": "frame",
              "type": "string",
              "value": "emergency-on"
            },
            {
              "name": "depth",
              "type": "int",
              "value": 25
            },
            {
              "name": "anchor",
              "type": "string",
              "value": "0.5,1"
            },
            {
              "name": "alpha",
              "type": "float",
              "value": 1.0
            },
            {
              "name": "tint",
              "type": "string",
              "value": "#ffffff"
            },
            {
              "name": "scrollFactorX",
              "type": "float",
              "value": 1.0
            },
            {
              "name": "scrollFactorY",
              "type": "float",
              "value": 1.0
            },
            {
              "name": "visualRole",
              "type": "string",
              "value": "lighting"
            },
            {
              "name": "lightProfile",
              "type": "string",
              "value": "timed-descent-emergency"
            }
          ]
        },
        {
          "id": 107,
          "name": "emergency-4",
          "type": "environment",
          "x": 3820,
          "y": 530,
          "width": 64,
          "height": 64,
          "visible": true,
          "rotation": 0,
          "properties": [
            {
              "name": "runtimeId",
              "type": "string",
              "value": "emergency-4"
            },
            {
              "name": "assetKey",
              "type": "string",
              "value": "industrial-lighting-kit"
            },
            {
              "name": "frame",
              "type": "string",
              "value": "emergency-on"
            },
            {
              "name": "depth",
              "type": "int",
              "value": 25
            },
            {
              "name": "anchor",
              "type": "string",
              "value": "0.5,1"
            },
            {
              "name": "alpha",
              "type": "float",
              "value": 1.0
            },
            {
              "name": "tint",
              "type": "string",
              "value": "#ffffff"
            },
            {
              "name": "scrollFactorX",
              "type": "float",
              "value": 1.0
            },
            {
              "name": "scrollFactorY",
              "type": "float",
              "value": 1.0
            },
            {
              "name": "visualRole",
              "type": "string",
              "value": "lighting"
            },
            {
              "name": "lightProfile",
              "type": "string",
              "value": "timed-descent-emergency"
            }
          ]
        },
        {
          "id": 108,
          "name": "emergency-5",
          "type": "environment",
          "x": 4740,
          "y": 620,
          "width": 64,
          "height": 64,
          "visible": true,
          "rotation": 0,
          "properties": [
            {
              "name": "runtimeId",
              "type": "string",
              "value": "emergency-5"
            },
            {
              "name": "assetKey",
              "type": "string",
              "value": "industrial-lighting-kit"
            },
            {
              "name": "frame",
              "type": "string",
              "value": "emergency-on"
            },
            {
              "name": "depth",
              "type": "int",
              "value": 25
            },
            {
              "name": "anchor",
              "type": "string",
              "value": "0.5,1"
            },
            {
              "name": "alpha",
              "type": "float",
              "value": 1.0
            },
            {
              "name": "tint",
              "type": "string",
              "value": "#ffffff"
            },
            {
              "name": "scrollFactorX",
              "type": "float",
              "value": 1.0
            },
            {
              "name": "scrollFactorY",
              "type": "float",
              "value": 1.0
            },
            {
              "name": "visualRole",
              "type": "string",
              "value": "lighting"
            },
            {
              "name": "lightProfile",
              "type": "string",
              "value": "timed-descent-emergency"
            }
          ]
        },
        {
          "id": 109,
          "name": "emergency-6",
          "type": "environment",
          "x": 5680,
          "y": 710,
          "width": 64,
          "height": 64,
          "visible": true,
          "rotation": 0,
          "properties": [
            {
              "name": "runtimeId",
              "type": "string",
              "value": "emergency-6"
            },
            {
              "name": "assetKey",
              "type": "string",
              "value": "industrial-lighting-kit"
            },
            {
              "name": "frame",
              "type": "string",
              "value": "emergency-on"
            },
            {
              "name": "depth",
              "type": "int",
              "value": 25
            },
            {
              "name": "anchor",
              "type": "string",
              "value": "0.5,1"
            },
            {
              "name": "alpha",
              "type": "float",
              "value": 1.0
            },
            {
              "name": "tint",
              "type": "string",
              "value": "#ffffff"
            },
            {
              "name": "scrollFactorX",
              "type": "float",
              "value": 1.0
            },
            {
              "name": "scrollFactorY",
              "type": "float",
              "value": 1.0
            },
            {
              "name": "visualRole",
              "type": "string",
              "value": "lighting"
            },
            {
              "name": "lightProfile",
              "type": "string",
              "value": "timed-descent-emergency"
            }
          ]
        },
        {
          "id": 110,
          "name": "emergency-7",
          "type": "environment",
          "x": 6660,
          "y": 800,
          "width": 64,
          "height": 64,
          "visible": true,
          "rotation": 0,
          "properties": [
            {
              "name": "runtimeId",
              "type": "string",
              "value": "emergency-7"
            },
            {
              "name": "assetKey",
              "type": "string",
              "value": "industrial-lighting-kit"
            },
            {
              "name": "frame",
              "type": "string",
              "value": "emergency-on"
            },
            {
              "name": "depth",
              "type": "int",
              "value": 25
            },
            {
              "name": "anchor",
              "type": "string",
              "value": "0.5,1"
            },
            {
              "name": "alpha",
              "type": "float",
              "value": 1.0
            },
            {
              "name": "tint",
              "type": "string",
              "value": "#ffffff"
            },
            {
              "name": "scrollFactorX",
              "type": "float",
              "value": 1.0
            },
            {
              "name": "scrollFactorY",
              "type": "float",
              "value": 1.0
            },
            {
              "name": "visualRole",
              "type": "string",
              "value": "lighting"
            },
            {
              "name": "lightProfile",
              "type": "string",
              "value": "timed-descent-emergency"
            }
          ]
        },
        {
          "id": 111,
          "name": "emergency-8",
          "type": "environment",
          "x": 7820,
          "y": 910,
          "width": 64,
          "height": 64,
          "visible": true,
          "rotation": 0,
          "properties": [
            {
              "name": "runtimeId",
              "type": "string",
              "value": "emergency-8"
            },
            {
              "name": "assetKey",
              "type": "string",
              "value": "industrial-lighting-kit"
            },
            {
              "name": "frame",
              "type": "string",
              "value": "emergency-on"
            },
            {
              "name": "depth",
              "type": "int",
              "value": 25
            },
            {
              "name": "anchor",
              "type": "string",
              "value": "0.5,1"
            },
            {
              "name": "alpha",
              "type": "float",
              "value": 1.0
            },
            {
              "name": "tint",
              "type": "string",
              "value": "#ffffff"
            },
            {
              "name": "scrollFactorX",
              "type": "float",
              "value": 1.0
            },
            {
              "name": "scrollFactorY",
              "type": "float",
              "value": 1.0
            },
            {
              "name": "visualRole",
              "type": "string",
              "value": "lighting"
            },
            {
              "name": "lightProfile",
              "type": "string",
              "value": "timed-descent-emergency"
            }
          ]
        }
      ]
    },
    {
      "id": 38,
      "name": "OcclusionZones",
      "type": "objectgroup",
      "draworder": "topdown",
      "opacity": 1,
      "visible": true,
      "objects": [
        {
          "id": 114,
          "name": "pipe-occlusion",
          "type": "environment",
          "x": 5200,
          "y": 730,
          "width": 300,
          "height": 220,
          "visible": true,
          "rotation": 0,
          "properties": [
            {
              "name": "runtimeId",
              "type": "string",
              "value": "pipe-occlusion"
            },
            {
              "name": "assetKey",
              "type": "string",
              "value": "subsoil-three-kit"
            },
            {
              "name": "frame",
              "type": "string",
              "value": "large-pipe"
            },
            {
              "name": "depth",
              "type": "int",
              "value": 38
            },
            {
              "name": "anchor",
              "type": "string",
              "value": "0.5,1"
            },
            {
              "name": "alpha",
              "type": "float",
              "value": 1.0
            },
            {
              "name": "tint",
              "type": "string",
              "value": "#ffffff"
            },
            {
              "name": "scrollFactorX",
              "type": "float",
              "value": 1.0
            },
            {
              "name": "scrollFactorY",
              "type": "float",
              "value": 1.0
            },
            {
              "name": "visualRole",
              "type": "string",
              "value": "occlusion"
            },
            {
              "name": "fadeAlpha",
              "type": "float",
              "value": 0.45
            }
          ]
        }
      ]
    },
    {
      "id": 37,
      "name": "ReflectionZones",
      "type": "objectgroup",
      "draworder": "topdown",
      "opacity": 1,
      "visible": true,
      "objects": [
        {
          "id": 113,
          "name": "flood-reflection",
          "type": "environment",
          "x": 7300,
          "y": 1035,
          "width": 1000,
          "height": 60,
          "visible": true,
          "rotation": 0,
          "properties": [
            {
              "name": "runtimeId",
              "type": "string",
              "value": "flood-reflection"
            },
            {
              "name": "assetKey",
              "type": "string",
              "value": "subsoil-three-kit"
            },
            {
              "name": "frame",
              "type": "string",
              "value": "flooded-floor"
            },
            {
              "name": "depth",
              "type": "int",
              "value": 8
            },
            {
              "name": "anchor",
              "type": "string",
              "value": "0.5,1"
            },
            {
              "name": "alpha",
              "type": "float",
              "value": 1.0
            },
            {
              "name": "tint",
              "type": "string",
              "value": "#ffffff"
            },
            {
              "name": "scrollFactorX",
              "type": "float",
              "value": 1.0
            },
            {
              "name": "scrollFactorY",
              "type": "float",
              "value": 1.0
            },
            {
              "name": "visualRole",
              "type": "string",
              "value": "reflection"
            },
            {
              "name": "localized",
              "type": "bool",
              "value": true
            }
          ]
        }
      ]
    },
    {
      "id": 36,
      "name": "AmbientZones",
      "type": "objectgroup",
      "draworder": "topdown",
      "opacity": 1,
      "visible": true,
      "objects": [
        {
          "id": 112,
          "name": "steam-zone",
          "type": "environment",
          "x": 6500,
          "y": 860,
          "width": 1200,
          "height": 260,
          "visible": true,
          "rotation": 0,
          "properties": [
            {
              "name": "runtimeId",
              "type": "string",
              "value": "steam-zone"
            },
            {
              "name": "assetKey",
              "type": "string",
              "value": "subsoil-three-kit"
            },
            {
              "name": "frame",
              "type": "string",
              "value": "steam-vent"
            },
            {
              "name": "depth",
              "type": "int",
              "value": 8
            },
            {
              "name": "anchor",
              "type": "string",
              "value": "0.5,1"
            },
            {
              "name": "alpha",
              "type": "float",
              "value": 1.0
            },
            {
              "name": "tint",
              "type": "string",
              "value": "#ffffff"
            },
            {
              "name": "scrollFactorX",
              "type": "float",
              "value": 1.0
            },
            {
              "name": "scrollFactorY",
              "type": "float",
              "value": 1.0
            },
            {
              "name": "visualRole",
              "type": "string",
              "value": "ambient"
            },
            {
              "name": "effect",
              "type": "string",
              "value": "steam"
            }
          ]
        }
      ]
    },
    {
      "id": 12,
      "name": "Collision",
      "type": "objectgroup",
      "draworder": "topdown",
      "opacity": 1,
      "visible": true,
      "objects": [
        {
          "id": 11,
          "name": "floor",
          "type": "floor",
          "x": 0,
          "y": 1108,
          "width": 8400,
          "height": 72,
          "rotation": 0,
          "visible": true,
          "properties": [
            {
              "name": "runtimeId",
              "type": "string",
              "value": "level_8_pasillo_subsuelo2_escaleras_subsuelo3-floor"
            },
            {
              "name": "collisionCategory",
              "type": "string",
              "value": "World"
            },
            {
              "name": "collisionMask",
              "type": "string",
              "value": "Player|Ally|Enemy|Projectile"
            },
            {
              "name": "sensor",
              "type": "bool",
              "value": false
            },
            {
              "name": "floorId",
              "type": "string",
              "value": "floor-18"
            }
          ]
        }
      ]
    },
    {
      "id": 13,
      "name": "OneWayPlatforms",
      "type": "objectgroup",
      "draworder": "topdown",
      "opacity": 1,
      "visible": true,
      "objects": []
    },
    {
      "id": 15,
      "name": "Stairs",
      "type": "objectgroup",
      "draworder": "topdown",
      "opacity": 1,
      "visible": true,
      "objects": [
        {
          "id": 14,
          "name": "internal-stair",
          "type": "internal-stair",
          "x": 4032,
          "y": 808,
          "width": 520,
          "height": 300,
          "rotation": 0,
          "visible": true,
          "properties": [
            {
              "name": "runtimeId",
              "type": "string",
              "value": "level_8_pasillo_subsuelo2_escaleras_subsuelo3-stair"
            },
            {
              "name": "stairId",
              "type": "string",
              "value": "level_8_pasillo_subsuelo2_escaleras_subsuelo3-stair"
            },
            {
              "name": "stairKind",
              "type": "string",
              "value": "internal"
            },
            {
              "name": "direction",
              "type": "string",
              "value": "down-right"
            },
            {
              "name": "fromElevation",
              "type": "float",
              "value": 300
            },
            {
              "name": "toElevation",
              "type": "float",
              "value": 0
            },
            {
              "name": "entrySide",
              "type": "string",
              "value": "left"
            },
            {
              "name": "exitSide",
              "type": "string",
              "value": "right"
            },
            {
              "name": "allowsPlayer",
              "type": "bool",
              "value": true
            },
            {
              "name": "allowsAllies",
              "type": "bool",
              "value": true
            },
            {
              "name": "allowsEnemies",
              "type": "bool",
              "value": true
            },
            {
              "name": "sensor",
              "type": "bool",
              "value": true
            },
            {
              "name": "interactionId",
              "type": "string",
              "value": "level_8_pasillo_subsuelo2_escaleras_subsuelo3-stair-assist"
            }
          ]
        }
      ]
    },
    {
      "id": 17,
      "name": "PlayerSpawns",
      "type": "objectgroup",
      "draworder": "topdown",
      "opacity": 1,
      "visible": true,
      "objects": [
        {
          "id": 16,
          "name": "default-spawn",
          "type": "default-spawn",
          "x": 200,
          "y": 1040,
          "width": 40,
          "height": 72,
          "rotation": 0,
          "visible": true,
          "properties": [
            {
              "name": "runtimeId",
              "type": "string",
              "value": "level_8_pasillo_subsuelo2_escaleras_subsuelo3-spawn-default"
            },
            {
              "name": "spawnId",
              "type": "string",
              "value": "default"
            },
            {
              "name": "floorId",
              "type": "string",
              "value": "floor-18"
            },
            {
              "name": "elevation",
              "type": "float",
              "value": 0
            }
          ]
        }
      ]
    },
    {
      "id": 18,
      "name": "AllySpawns",
      "type": "objectgroup",
      "draworder": "topdown",
      "opacity": 1,
      "visible": true,
      "objects": []
    },
    {
      "id": 20,
      "name": "EnemySpawns",
      "type": "objectgroup",
      "draworder": "topdown",
      "opacity": 1,
      "visible": true,
      "objects": [
        {
          "id": 19,
          "name": "vertical-stairs",
          "type": "vertical-stairs",
          "x": 4100,
          "y": 440,
          "width": 40,
          "height": 72,
          "rotation": 0,
          "visible": true,
          "properties": [
            {
              "name": "runtimeId",
              "type": "string",
              "value": "vertical-stairs"
            },
            {
              "name": "spawnId",
              "type": "string",
              "value": "vertical-stairs"
            },
            {
              "name": "floorId",
              "type": "string",
              "value": "floor-18"
            }
          ]
        }
      ]
    },
    {
      "id": 22,
      "name": "SpawnAreas",
      "type": "objectgroup",
      "draworder": "topdown",
      "opacity": 1,
      "visible": true,
      "objects": [
        {
          "id": 21,
          "name": "vertical-pressure",
          "type": "vertical-pressure",
          "x": 1800,
          "y": 120,
          "width": 5800,
          "height": 980,
          "rotation": 0,
          "visible": true,
          "properties": [
            {
              "name": "runtimeId",
              "type": "string",
              "value": "vertical-pressure"
            },
            {
              "name": "sensor",
              "type": "bool",
              "value": true
            }
          ]
        }
      ]
    },
    {
      "id": 24,
      "name": "Interactables",
      "type": "objectgroup",
      "draworder": "topdown",
      "opacity": 1,
      "visible": true,
      "objects": [
        {
          "id": 23,
          "name": "accion-escalera-subsuelo-3",
          "type": "accion-escalera-subsuelo-3",
          "x": 8100,
          "y": 1040,
          "width": 64,
          "height": 96,
          "rotation": 0,
          "visible": true,
          "properties": [
            {
              "name": "runtimeId",
              "type": "string",
              "value": "accion-escalera-subsuelo-3"
            },
            {
              "name": "interactionId",
              "type": "string",
              "value": "accion-escalera-subsuelo-3"
            },
            {
              "name": "prompt",
              "type": "string",
              "value": "E · BAJAR AL SUBSUELO 3"
            },
            {
              "name": "sensor",
              "type": "bool",
              "value": true
            }
          ]
        }
      ]
    },
    {
      "id": 25,
      "name": "Triggers",
      "type": "objectgroup",
      "draworder": "topdown",
      "opacity": 1,
      "visible": true,
      "objects": []
    },
    {
      "id": 27,
      "name": "Objectives",
      "type": "objectgroup",
      "draworder": "topdown",
      "opacity": 1,
      "visible": true,
      "objects": [
        {
          "id": 26,
          "name": "descender-a-tiempo",
          "type": "descender-a-tiempo",
          "x": 360,
          "y": 944,
          "width": 48,
          "height": 48,
          "rotation": 0,
          "visible": true,
          "properties": [
            {
              "name": "runtimeId",
              "type": "string",
              "value": "descender-a-tiempo"
            },
            {
              "name": "objectiveId",
              "type": "string",
              "value": "descender-a-tiempo"
            },
            {
              "name": "targetId",
              "type": "string",
              "value": "escalera-subsuelo-3"
            }
          ]
        }
      ]
    },
    {
      "id": 28,
      "name": "Checkpoints",
      "type": "objectgroup",
      "draworder": "topdown",
      "opacity": 1,
      "visible": true,
      "objects": []
    },
    {
      "id": 29,
      "name": "Pickups",
      "type": "objectgroup",
      "draworder": "topdown",
      "opacity": 1,
      "visible": true,
      "objects": []
    },
    {
      "id": 31,
      "name": "Exits",
      "type": "objectgroup",
      "draworder": "topdown",
      "opacity": 1,
      "visible": true,
      "objects": [
        {
          "id": 30,
          "name": "escalera-subsuelo-3",
          "type": "escalera-subsuelo-3",
          "x": 8220,
          "y": 988,
          "width": 100,
          "height": 120,
          "rotation": 0,
          "visible": true,
          "properties": [
            {
              "name": "runtimeId",
              "type": "string",
              "value": "escalera-subsuelo-3"
            },
            {
              "name": "interactionId",
              "type": "string",
              "value": "escalera-subsuelo-3"
            },
            {
              "name": "connectorId",
              "type": "string",
              "value": "escalera-subsuelo-3"
            },
            {
              "name": "targetNodeId",
              "type": "string",
              "value": "lvl08-cin01-damian-infectado-y-suicidio"
            },
            {
              "name": "targetConnectorId",
              "type": "string",
              "value": "default"
            },
            {
              "name": "enabledByObjectiveId",
              "type": "string",
              "value": "descender-a-tiempo"
            },
            {
              "name": "sensor",
              "type": "bool",
              "value": true
            },
            {
              "name": "prompt",
              "type": "string",
              "value": "Usar salida"
            }
          ]
        }
      ]
    },
    {
      "id": 33,
      "name": "CameraBounds",
      "type": "objectgroup",
      "draworder": "topdown",
      "opacity": 1,
      "visible": true,
      "objects": [
        {
          "id": 32,
          "name": "camera-bounds",
          "type": "camera-bounds",
          "x": 0,
          "y": 0,
          "width": 8400,
          "height": 1180,
          "rotation": 0,
          "visible": true,
          "properties": [
            {
              "name": "runtimeId",
              "type": "string",
              "value": "level_8_pasillo_subsuelo2_escaleras_subsuelo3-camera"
            },
            {
              "name": "editorOnly",
              "type": "bool",
              "value": false
            }
          ]
        }
      ]
    },
    {
      "id": 34,
      "name": "NavigationHints",
      "type": "objectgroup",
      "draworder": "topdown",
      "opacity": 1,
      "visible": true,
      "objects": []
    }
  ],
  "properties": [
    {
      "name": "schemaVersion",
      "type": "int",
      "value": 1
    },
    {
      "name": "nodeId",
      "type": "string",
      "value": "lvl08-esc01-descenso-con-temporizador"
    },
    {
      "name": "canonicalNodeIds",
      "type": "string",
      "value": "lvl08-esc01-descenso-con-temporizador"
    },
    {
      "name": "runtimeLevelId",
      "type": "string",
      "value": "level_8_pasillo_subsuelo2_escaleras_subsuelo3"
    },
    {
      "name": "locationId",
      "type": "string",
      "value": "level8_pasillo_subsuelo2_escaleras_subsuelo3"
    },
    {
      "name": "locationLabel",
      "type": "string",
      "value": "level_8_pasillo_subsuelo2_escaleras_subsuelo3"
    },
    {
      "name": "floorId",
      "type": "string",
      "value": "subsoil-2-to-3"
    },
    {
      "name": "floorLabel",
      "type": "string",
      "value": "Subsuelo 2 → Subsuelo 3"
    },
    {
      "name": "canonicalIndex",
      "type": "int",
      "value": 18
    },
    {
      "name": "entryConnectorId",
      "type": "string",
      "value": "default"
    },
    {
      "name": "exitConnectorId",
      "type": "string",
      "value": "escalera-subsuelo-3"
    },
    {
      "name": "targetNodeId",
      "type": "string",
      "value": "lvl08-cin01-damian-infectado-y-suicidio"
    },
    {
      "name": "defaultCameraZoom",
      "type": "float",
      "value": 1.34
    },
    {
      "name": "gravityScale",
      "type": "float",
      "value": 1
    },
    {
      "name": "referencePhotoPath",
      "type": "file",
      "value": "public/subsoil.jpg"
    },
    {
      "name": "runtimeBackgroundPath",
      "type": "file",
      "value": ""
    },
    {
      "name": "supportsVerticalCamera",
      "type": "bool",
      "value": true
    },
    {
      "name": "musicProfile",
      "type": "string",
      "value": "campaign-default"
    },
    {
      "name": "environmentProfile",
      "type": "string",
      "value": "level8_pasillo_subsuelo2_escaleras_subsuelo3"
    },
    {
      "name": "environmentKitIds",
      "type": "string",
      "value": "lower-basement-kit,subsoil-three-kit,industrial-lighting-kit"
    },
    {
      "name": "compositionSignature",
      "type": "string",
      "value": "timed-descent-nine-elevation-sectors"
    },
    {
      "name": "productionComposition",
      "type": "bool",
      "value": true
    },
    {
      "name": "lightingProfile",
      "type": "string",
      "value": "timed-descent-emergency"
    },
    {
      "name": "minimapProfile",
      "type": "string",
      "value": "multi-height-descent"
    },
    {
      "name": "descentSectorCount",
      "type": "int",
      "value": 9
    }
  ],
  "backgroundcolor": "#111827"
}
