{
  "compressionlevel": -1,
  "height": 39,
  "width": 288,
  "infinite": false,
  "nextlayerid": 41,
  "nextobjectid": 113,
  "orientation": "orthogonal",
  "renderorder": "right-down",
  "tiledversion": "1.11.2",
  "tileheight": 32,
  "tilewidth": 32,
  "type": "map",
  "version": "1.10",
  "layers": [
    {
      "id": 2,
      "name": "BackgroundReference",
      "type": "objectgroup",
      "draworder": "topdown",
      "opacity": 1,
      "visible": false,
      "objects": [
        {
          "id": 1,
          "name": "reference-photo",
          "type": "reference-photo",
          "x": 0,
          "y": 0,
          "width": 9200,
          "height": 1240,
          "rotation": 0,
          "visible": true,
          "properties": [
            {
              "name": "editorOnly",
              "type": "bool",
              "value": true
            },
            {
              "name": "runtimeId",
              "type": "string",
              "value": "level_9_subsuelo3_garage_salida-reference"
            }
          ],
          "image": "../../../../../public/outside.jpg"
        }
      ],
      "locked": true,
      "properties": [
        {
          "name": "editorOnly",
          "type": "bool",
          "value": true
        }
      ]
    },
    {
      "id": 3,
      "name": "Background",
      "type": "objectgroup",
      "draworder": "topdown",
      "opacity": 1,
      "visible": true,
      "objects": [
        {
          "id": 57,
          "name": "garage-bg",
          "type": "environment",
          "x": 0,
          "y": 0,
          "width": 9200,
          "height": 1240,
          "visible": true,
          "rotation": 0,
          "properties": [
            {
              "name": "runtimeId",
              "type": "string",
              "value": "garage-bg"
            },
            {
              "name": "assetKey",
              "type": "string",
              "value": "parking-garage-kit"
            },
            {
              "name": "frame",
              "type": "string",
              "value": "garage-wall"
            },
            {
              "name": "depth",
              "type": "int",
              "value": -30
            },
            {
              "name": "anchor",
              "type": "string",
              "value": "0.5,1"
            },
            {
              "name": "alpha",
              "type": "float",
              "value": 1.0
            },
            {
              "name": "tint",
              "type": "string",
              "value": "#ffffff"
            },
            {
              "name": "scrollFactorX",
              "type": "float",
              "value": 1.0
            },
            {
              "name": "scrollFactorY",
              "type": "float",
              "value": 1.0
            },
            {
              "name": "visualRole",
              "type": "string",
              "value": "background"
            }
          ]
        }
      ]
    },
    {
      "id": 37,
      "name": "DistantArchitecture",
      "type": "objectgroup",
      "draworder": "topdown",
      "opacity": 1,
      "visible": true,
      "objects": [
        {
          "id": 58,
          "name": "garage-depth",
          "type": "environment",
          "x": 0,
          "y": 0,
          "width": 8800,
          "height": 600,
          "visible": true,
          "rotation": 0,
          "properties": [
            {
              "name": "runtimeId",
              "type": "string",
              "value": "garage-depth"
            },
            {
              "name": "assetKey",
              "type": "string",
              "value": "parking-garage-kit"
            },
            {
              "name": "frame",
              "type": "string",
              "value": "ramp"
            },
            {
              "name": "depth",
              "type": "int",
              "value": -20
            },
            {
              "name": "anchor",
              "type": "string",
              "value": "0.5,1"
            },
            {
              "name": "alpha",
              "type": "float",
              "value": 1.0
            },
            {
              "name": "tint",
              "type": "string",
              "value": "#ffffff"
            },
            {
              "name": "scrollFactorX",
              "type": "float",
              "value": 1.0
            },
            {
              "name": "scrollFactorY",
              "type": "float",
              "value": 1.0
            },
            {
              "name": "visualRole",
              "type": "string",
              "value": "distantArchitecture"
            }
          ]
        }
      ]
    },
    {
      "id": 4,
      "name": "RearArchitecture",
      "type": "objectgroup",
      "draworder": "topdown",
      "opacity": 1,
      "visible": true,
      "objects": [
        {
          "id": 59,
          "name": "garage-sector-1",
          "type": "environment",
          "x": 300,
          "y": 988,
          "width": 900,
          "height": 260,
          "visible": true,
          "rotation": 0,
          "properties": [
            {
              "name": "runtimeId",
              "type": "string",
              "value": "garage-sector-1"
            },
            {
              "name": "assetKey",
              "type": "string",
              "value": "parking-garage-kit"
            },
            {
              "name": "frame",
              "type": "string",
              "value": "garage-beam"
            },
            {
              "name": "depth",
              "type": "int",
              "value": 5
            },
            {
              "name": "anchor",
              "type": "string",
              "value": "0.5,1"
            },
            {
              "name": "alpha",
              "type": "float",
              "value": 1.0
            },
            {
              "name": "tint",
              "type": "string",
              "value": "#ffffff"
            },
            {
              "name": "scrollFactorX",
              "type": "float",
              "value": 1.0
            },
            {
              "name": "scrollFactorY",
              "type": "float",
              "value": 1.0
            },
            {
              "name": "visualRole",
              "type": "string",
              "value": "architecture"
            },
            {
              "name": "sectorId",
              "type": "string",
              "value": "1"
            }
          ]
        },
        {
          "id": 60,
          "name": "garage-sector-2",
          "type": "environment",
          "x": 1300,
          "y": 988,
          "width": 900,
          "height": 260,
          "visible": true,
          "rotation": 0,
          "properties": [
            {
              "name": "runtimeId",
              "type": "string",
              "value": "garage-sector-2"
            },
            {
              "name": "assetKey",
              "type": "string",
              "value": "parking-garage-kit"
            },
            {
              "name": "frame",
              "type": "string",
              "value": "garage-beam"
            },
            {
              "name": "depth",
              "type": "int",
              "value": 5
            },
            {
              "name": "anchor",
              "type": "string",
              "value": "0.5,1"
            },
            {
              "name": "alpha",
              "type": "float",
              "value": 1.0
            },
            {
              "name": "tint",
              "type": "string",
              "value": "#ffffff"
            },
            {
              "name": "scrollFactorX",
              "type": "float",
              "value": 1.0
            },
            {
              "name": "scrollFactorY",
              "type": "float",
              "value": 1.0
            },
            {
              "name": "visualRole",
              "type": "string",
              "value": "architecture"
            },
            {
              "name": "sectorId",
              "type": "string",
              "value": "2"
            }
          ]
        },
        {
          "id": 61,
          "name": "garage-sector-3",
          "type": "environment",
          "x": 2400,
          "y": 988,
          "width": 900,
          "height": 260,
          "visible": true,
          "rotation": 0,
          "properties": [
            {
              "name": "runtimeId",
              "type": "string",
              "value": "garage-sector-3"
            },
            {
              "name": "assetKey",
              "type": "string",
              "value": "parking-garage-kit"
            },
            {
              "name": "frame",
              "type": "string",
              "value": "garage-beam"
            },
            {
              "name": "depth",
              "type": "int",
              "value": 5
            },
            {
              "name": "anchor",
              "type": "string",
              "value": "0.5,1"
            },
            {
              "name": "alpha",
              "type": "float",
              "value": 1.0
            },
            {
              "name": "tint",
              "type": "string",
              "value": "#ffffff"
            },
            {
              "name": "scrollFactorX",
              "type": "float",
              "value": 1.0
            },
            {
              "name": "scrollFactorY",
              "type": "float",
              "value": 1.0
            },
            {
              "name": "visualRole",
              "type": "string",
              "value": "architecture"
            },
            {
              "name": "sectorId",
              "type": "string",
              "value": "3"
            }
          ]
        },
        {
          "id": 62,
          "name": "garage-sector-4",
          "type": "environment",
          "x": 3500,
          "y": 988,
          "width": 900,
          "height": 260,
          "visible": true,
          "rotation": 0,
          "properties": [
            {
              "name": "runtimeId",
              "type": "string",
              "value": "garage-sector-4"
            },
            {
              "name": "assetKey",
              "type": "string",
              "value": "parking-garage-kit"
            },
            {
              "name": "frame",
              "type": "string",
              "value": "garage-beam"
            },
            {
              "name": "depth",
              "type": "int",
              "value": 5
            },
            {
              "name": "anchor",
              "type": "string",
              "value": "0.5,1"
            },
            {
              "name": "alpha",
              "type": "float",
              "value": 1.0
            },
            {
              "name": "tint",
              "type": "string",
              "value": "#ffffff"
            },
            {
              "name": "scrollFactorX",
              "type": "float",
              "value": 1.0
            },
            {
              "name": "scrollFactorY",
              "type": "float",
              "value": 1.0
            },
            {
              "name": "visualRole",
              "type": "string",
              "value": "architecture"
            },
            {
              "name": "sectorId",
              "type": "string",
              "value": "4"
            }
          ]
        },
        {
          "id": 63,
          "name": "garage-sector-5",
          "type": "environment",
          "x": 4700,
          "y": 988,
          "width": 900,
          "height": 260,
          "visible": true,
          "rotation": 0,
          "properties": [
            {
              "name": "runtimeId",
              "type": "string",
              "value": "garage-sector-5"
            },
            {
              "name": "assetKey",
              "type": "string",
              "value": "parking-garage-kit"
            },
            {
              "name": "frame",
              "type": "string",
              "value": "garage-beam"
            },
            {
              "name": "depth",
              "type": "int",
              "value": 5
            },
            {
              "name": "anchor",
              "type": "string",
              "value": "0.5,1"
            },
            {
              "name": "alpha",
              "type": "float",
              "value": 1.0
            },
            {
              "name": "tint",
              "type": "string",
              "value": "#ffffff"
            },
            {
              "name": "scrollFactorX",
              "type": "float",
              "value": 1.0
            },
            {
              "name": "scrollFactorY",
              "type": "float",
              "value": 1.0
            },
            {
              "name": "visualRole",
              "type": "string",
              "value": "architecture"
            },
            {
              "name": "sectorId",
              "type": "string",
              "value": "5"
            }
          ]
        },
        {
          "id": 64,
          "name": "garage-sector-6",
          "type": "environment",
          "x": 5900,
          "y": 988,
          "width": 900,
          "height": 260,
          "visible": true,
          "rotation": 0,
          "properties": [
            {
              "name": "runtimeId",
              "type": "string",
              "value": "garage-sector-6"
            },
            {
              "name": "assetKey",
              "type": "string",
              "value": "parking-garage-kit"
            },
            {
              "name": "frame",
              "type": "string",
              "value": "garage-beam"
            },
            {
              "name": "depth",
              "type": "int",
              "value": 5
            },
            {
              "name": "anchor",
              "type": "string",
              "value": "0.5,1"
            },
            {
              "name": "alpha",
              "type": "float",
              "value": 1.0
            },
            {
              "name": "tint",
              "type": "string",
              "value": "#ffffff"
            },
            {
              "name": "scrollFactorX",
              "type": "float",
              "value": 1.0
            },
            {
              "name": "scrollFactorY",
              "type": "float",
              "value": 1.0
            },
            {
              "name": "visualRole",
              "type": "string",
              "value": "architecture"
            },
            {
              "name": "sectorId",
              "type": "string",
              "value": "6"
            }
          ]
        },
        {
          "id": 65,
          "name": "garage-sector-7",
          "type": "environment",
          "x": 7000,
          "y": 988,
          "width": 900,
          "height": 260,
          "visible": true,
          "rotation": 0,
          "properties": [
            {
              "name": "runtimeId",
              "type": "string",
              "value": "garage-sector-7"
            },
            {
              "name": "assetKey",
              "type": "string",
              "value": "parking-garage-kit"
            },
            {
              "name": "frame",
              "type": "string",
              "value": "garage-beam"
            },
            {
              "name": "depth",
              "type": "int",
              "value": 5
            },
            {
              "name": "anchor",
              "type": "string",
              "value": "0.5,1"
            },
            {
              "name": "alpha",
              "type": "float",
              "value": 1.0
            },
            {
              "name": "tint",
              "type": "string",
              "value": "#ffffff"
            },
            {
              "name": "scrollFactorX",
              "type": "float",
              "value": 1.0
            },
            {
              "name": "scrollFactorY",
              "type": "float",
              "value": 1.0
            },
            {
              "name": "visualRole",
              "type": "string",
              "value": "architecture"
            },
            {
              "name": "sectorId",
              "type": "string",
              "value": "7"
            }
          ]
        },
        {
          "id": 66,
          "name": "garage-sector-8",
          "type": "environment",
          "x": 8050,
          "y": 988,
          "width": 900,
          "height": 260,
          "visible": true,
          "rotation": 0,
          "properties": [
            {
              "name": "runtimeId",
              "type": "string",
              "value": "garage-sector-8"
            },
            {
              "name": "assetKey",
              "type": "string",
              "value": "parking-garage-kit"
            },
            {
              "name": "frame",
              "type": "string",
              "value": "garage-beam"
            },
            {
              "name": "depth",
              "type": "int",
              "value": 5
            },
            {
              "name": "anchor",
              "type": "string",
              "value": "0.5,1"
            },
            {
              "name": "alpha",
              "type": "float",
              "value": 1.0
            },
            {
              "name": "tint",
              "type": "string",
              "value": "#ffffff"
            },
            {
              "name": "scrollFactorX",
              "type": "float",
              "value": 1.0
            },
            {
              "name": "scrollFactorY",
              "type": "float",
              "value": 1.0
            },
            {
              "name": "visualRole",
              "type": "string",
              "value": "architecture"
            },
            {
              "name": "sectorId",
              "type": "string",
              "value": "8"
            }
          ]
        },
        {
          "id": 67,
          "name": "garage-sector-9",
          "type": "environment",
          "x": 8316,
          "y": 988,
          "width": 900,
          "height": 260,
          "visible": true,
          "rotation": 0,
          "properties": [
            {
              "name": "runtimeId",
              "type": "string",
              "value": "garage-sector-9"
            },
            {
              "name": "assetKey",
              "type": "string",
              "value": "parking-garage-kit"
            },
            {
              "name": "frame",
              "type": "string",
              "value": "garage-beam"
            },
            {
              "name": "depth",
              "type": "int",
              "value": 5
            },
            {
              "name": "anchor",
              "type": "string",
              "value": "0.5,1"
            },
            {
              "name": "alpha",
              "type": "float",
              "value": 1.0
            },
            {
              "name": "tint",
              "type": "string",
              "value": "#ffffff"
            },
            {
              "name": "scrollFactorX",
              "type": "float",
              "value": 1.0
            },
            {
              "name": "scrollFactorY",
              "type": "float",
              "value": 1.0
            },
            {
              "name": "visualRole",
              "type": "string",
              "value": "architecture"
            },
            {
              "name": "sectorId",
              "type": "string",
              "value": "9"
            }
          ]
        }
      ]
    },
    {
      "id": 5,
      "name": "Architecture",
      "type": "objectgroup",
      "draworder": "topdown",
      "opacity": 1,
      "visible": true,
      "objects": [
        {
          "id": 68,
          "name": "column-0",
          "type": "environment",
          "x": 800,
          "y": 988,
          "width": 90,
          "height": 260,
          "visible": true,
          "rotation": 0,
          "properties": [
            {
              "name": "runtimeId",
              "type": "string",
              "value": "column-0"
            },
            {
              "name": "assetKey",
              "type": "string",
              "value": "parking-garage-kit"
            },
            {
              "name": "frame",
              "type": "string",
              "value": "garage-column"
            },
            {
              "name": "depth",
              "type": "int",
              "value": 10
            },
            {
              "name": "anchor",
              "type": "string",
              "value": "0.5,1"
            },
            {
              "name": "alpha",
              "type": "float",
              "value": 1.0
            },
            {
              "name": "tint",
              "type": "string",
              "value": "#ffffff"
            },
            {
              "name": "scrollFactorX",
              "type": "float",
              "value": 1.0
            },
            {
              "name": "scrollFactorY",
              "type": "float",
              "value": 1.0
            },
            {
              "name": "visualRole",
              "type": "string",
              "value": "architecture"
            },
            {
              "name": "authoredColliderId",
              "type": "string",
              "value": "column-collider-0"
            }
          ]
        },
        {
          "id": 69,
          "name": "column-1",
          "type": "environment",
          "x": 1600,
          "y": 988,
          "width": 90,
          "height": 260,
          "visible": true,
          "rotation": 0,
          "properties": [
            {
              "name": "runtimeId",
              "type": "string",
              "value": "column-1"
            },
            {
              "name": "assetKey",
              "type": "string",
              "value": "parking-garage-kit"
            },
            {
              "name": "frame",
              "type": "string",
              "value": "garage-column"
            },
            {
              "name": "depth",
              "type": "int",
              "value": 10
            },
            {
              "name": "anchor",
              "type": "string",
              "value": "0.5,1"
            },
            {
              "name": "alpha",
              "type": "float",
              "value": 1.0
            },
            {
              "name": "tint",
              "type": "string",
              "value": "#ffffff"
            },
            {
              "name": "scrollFactorX",
              "type": "float",
              "value": 1.0
            },
            {
              "name": "scrollFactorY",
              "type": "float",
              "value": 1.0
            },
            {
              "name": "visualRole",
              "type": "string",
              "value": "architecture"
            },
            {
              "name": "authoredColliderId",
              "type": "string",
              "value": "column-collider-1"
            }
          ]
        },
        {
          "id": 70,
          "name": "column-2",
          "type": "environment",
          "x": 2400,
          "y": 988,
          "width": 90,
          "height": 260,
          "visible": true,
          "rotation": 0,
          "properties": [
            {
              "name": "runtimeId",
              "type": "string",
              "value": "column-2"
            },
            {
              "name": "assetKey",
              "type": "string",
              "value": "parking-garage-kit"
            },
            {
              "name": "frame",
              "type": "string",
              "value": "garage-column"
            },
            {
              "name": "depth",
              "type": "int",
              "value": 10
            },
            {
              "name": "anchor",
              "type": "string",
              "value": "0.5,1"
            },
            {
              "name": "alpha",
              "type": "float",
              "value": 1.0
            },
            {
              "name": "tint",
              "type": "string",
              "value": "#ffffff"
            },
            {
              "name": "scrollFactorX",
              "type": "float",
              "value": 1.0
            },
            {
              "name": "scrollFactorY",
              "type": "float",
              "value": 1.0
            },
            {
              "name": "visualRole",
              "type": "string",
              "value": "architecture"
            },
            {
              "name": "authoredColliderId",
              "type": "string",
              "value": "column-collider-2"
            }
          ]
        },
        {
          "id": 71,
          "name": "column-3",
          "type": "environment",
          "x": 3200,
          "y": 988,
          "width": 90,
          "height": 260,
          "visible": true,
          "rotation": 0,
          "properties": [
            {
              "name": "runtimeId",
              "type": "string",
              "value": "column-3"
            },
            {
              "name": "assetKey",
              "type": "string",
              "value": "parking-garage-kit"
            },
            {
              "name": "frame",
              "type": "string",
              "value": "garage-column"
            },
            {
              "name": "depth",
              "type": "int",
              "value": 10
            },
            {
              "name": "anchor",
              "type": "string",
              "value": "0.5,1"
            },
            {
              "name": "alpha",
              "type": "float",
              "value": 1.0
            },
            {
              "name": "tint",
              "type": "string",
              "value": "#ffffff"
            },
            {
              "name": "scrollFactorX",
              "type": "float",
              "value": 1.0
            },
            {
              "name": "scrollFactorY",
              "type": "float",
              "value": 1.0
            },
            {
              "name": "visualRole",
              "type": "string",
              "value": "architecture"
            },
            {
              "name": "authoredColliderId",
              "type": "string",
              "value": "column-collider-3"
            }
          ]
        },
        {
          "id": 72,
          "name": "column-4",
          "type": "environment",
          "x": 4000,
          "y": 988,
          "width": 90,
          "height": 260,
          "visible": true,
          "rotation": 0,
          "properties": [
            {
              "name": "runtimeId",
              "type": "string",
              "value": "column-4"
            },
            {
              "name": "assetKey",
              "type": "string",
              "value": "parking-garage-kit"
            },
            {
              "name": "frame",
              "type": "string",
              "value": "garage-column"
            },
            {
              "name": "depth",
              "type": "int",
              "value": 10
            },
            {
              "name": "anchor",
              "type": "string",
              "value": "0.5,1"
            },
            {
              "name": "alpha",
              "type": "float",
              "value": 1.0
            },
            {
              "name": "tint",
              "type": "string",
              "value": "#ffffff"
            },
            {
              "name": "scrollFactorX",
              "type": "float",
              "value": 1.0
            },
            {
              "name": "scrollFactorY",
              "type": "float",
              "value": 1.0
            },
            {
              "name": "visualRole",
              "type": "string",
              "value": "architecture"
            },
            {
              "name": "authoredColliderId",
              "type": "string",
              "value": "column-collider-4"
            }
          ]
        },
        {
          "id": 73,
          "name": "column-5",
          "type": "environment",
          "x": 4800,
          "y": 988,
          "width": 90,
          "height": 260,
          "visible": true,
          "rotation": 0,
          "properties": [
            {
              "name": "runtimeId",
              "type": "string",
              "value": "column-5"
            },
            {
              "name": "assetKey",
              "type": "string",
              "value": "parking-garage-kit"
            },
            {
              "name": "frame",
              "type": "string",
              "value": "garage-column"
            },
            {
              "name": "depth",
              "type": "int",
              "value": 10
            },
            {
              "name": "anchor",
              "type": "string",
              "value": "0.5,1"
            },
            {
              "name": "alpha",
              "type": "float",
              "value": 1.0
            },
            {
              "name": "tint",
              "type": "string",
              "value": "#ffffff"
            },
            {
              "name": "scrollFactorX",
              "type": "float",
              "value": 1.0
            },
            {
              "name": "scrollFactorY",
              "type": "float",
              "value": 1.0
            },
            {
              "name": "visualRole",
              "type": "string",
              "value": "architecture"
            },
            {
              "name": "authoredColliderId",
              "type": "string",
              "value": "column-collider-5"
            }
          ]
        },
        {
          "id": 74,
          "name": "column-6",
          "type": "environment",
          "x": 5600,
          "y": 988,
          "width": 90,
          "height": 260,
          "visible": true,
          "rotation": 0,
          "properties": [
            {
              "name": "runtimeId",
              "type": "string",
              "value": "column-6"
            },
            {
              "name": "assetKey",
              "type": "string",
              "value": "parking-garage-kit"
            },
            {
              "name": "frame",
              "type": "string",
              "value": "garage-column"
            },
            {
              "name": "depth",
              "type": "int",
              "value": 10
            },
            {
              "name": "anchor",
              "type": "string",
              "value": "0.5,1"
            },
            {
              "name": "alpha",
              "type": "float",
              "value": 1.0
            },
            {
              "name": "tint",
              "type": "string",
              "value": "#ffffff"
            },
            {
              "name": "scrollFactorX",
              "type": "float",
              "value": 1.0
            },
            {
              "name": "scrollFactorY",
              "type": "float",
              "value": 1.0
            },
            {
              "name": "visualRole",
              "type": "string",
              "value": "architecture"
            },
            {
              "name": "authoredColliderId",
              "type": "string",
              "value": "column-collider-6"
            }
          ]
        },
        {
          "id": 75,
          "name": "column-7",
          "type": "environment",
          "x": 6400,
          "y": 988,
          "width": 90,
          "height": 260,
          "visible": true,
          "rotation": 0,
          "properties": [
            {
              "name": "runtimeId",
              "type": "string",
              "value": "column-7"
            },
            {
              "name": "assetKey",
              "type": "string",
              "value": "parking-garage-kit"
            },
            {
              "name": "frame",
              "type": "string",
              "value": "garage-column"
            },
            {
              "name": "depth",
              "type": "int",
              "value": 10
            },
            {
              "name": "anchor",
              "type": "string",
              "value": "0.5,1"
            },
            {
              "name": "alpha",
              "type": "float",
              "value": 1.0
            },
            {
              "name": "tint",
              "type": "string",
              "value": "#ffffff"
            },
            {
              "name": "scrollFactorX",
              "type": "float",
              "value": 1.0
            },
            {
              "name": "scrollFactorY",
              "type": "float",
              "value": 1.0
            },
            {
              "name": "visualRole",
              "type": "string",
              "value": "architecture"
            },
            {
              "name": "authoredColliderId",
              "type": "string",
              "value": "column-collider-7"
            }
          ]
        },
        {
          "id": 76,
          "name": "column-8",
          "type": "environment",
          "x": 7200,
          "y": 988,
          "width": 90,
          "height": 260,
          "visible": true,
          "rotation": 0,
          "properties": [
            {
              "name": "runtimeId",
              "type": "string",
              "value": "column-8"
            },
            {
              "name": "assetKey",
              "type": "string",
              "value": "parking-garage-kit"
            },
            {
              "name": "frame",
              "type": "string",
              "value": "garage-column"
            },
            {
              "name": "depth",
              "type": "int",
              "value": 10
            },
            {
              "name": "anchor",
              "type": "string",
              "value": "0.5,1"
            },
            {
              "name": "alpha",
              "type": "float",
              "value": 1.0
            },
            {
              "name": "tint",
              "type": "string",
              "value": "#ffffff"
            },
            {
              "name": "scrollFactorX",
              "type": "float",
              "value": 1.0
            },
            {
              "name": "scrollFactorY",
              "type": "float",
              "value": 1.0
            },
            {
              "name": "visualRole",
              "type": "string",
              "value": "architecture"
            },
            {
              "name": "authoredColliderId",
              "type": "string",
              "value": "column-collider-8"
            }
          ]
        },
        {
          "id": 77,
          "name": "column-9",
          "type": "environment",
          "x": 8000,
          "y": 988,
          "width": 90,
          "height": 260,
          "visible": true,
          "rotation": 0,
          "properties": [
            {
              "name": "runtimeId",
              "type": "string",
              "value": "column-9"
            },
            {
              "name": "assetKey",
              "type": "string",
              "value": "parking-garage-kit"
            },
            {
              "name": "frame",
              "type": "string",
              "value": "garage-column"
            },
            {
              "name": "depth",
              "type": "int",
              "value": 10
            },
            {
              "name": "anchor",
              "type": "string",
              "value": "0.5,1"
            },
            {
              "name": "alpha",
              "type": "float",
              "value": 1.0
            },
            {
              "name": "tint",
              "type": "string",
              "value": "#ffffff"
            },
            {
              "name": "scrollFactorX",
              "type": "float",
              "value": 1.0
            },
            {
              "name": "scrollFactorY",
              "type": "float",
              "value": 1.0
            },
            {
              "name": "visualRole",
              "type": "string",
              "value": "architecture"
            },
            {
              "name": "authoredColliderId",
              "type": "string",
              "value": "column-collider-9"
            }
          ]
        }
      ]
    },
    {
      "id": 6,
      "name": "RearProps",
      "type": "objectgroup",
      "draworder": "topdown",
      "opacity": 1,
      "visible": true,
      "objects": [
        {
          "id": 78,
          "name": "sedan-a",
          "type": "environment",
          "x": 1800,
          "y": 1080,
          "width": 210,
          "height": 100,
          "visible": true,
          "rotation": 0,
          "properties": [
            {
              "name": "runtimeId",
              "type": "string",
              "value": "sedan-a"
            },
            {
              "name": "assetKey",
              "type": "string",
              "value": "garage-vehicle-kit"
            },
            {
              "name": "frame",
              "type": "string",
              "value": "sedan"
            },
            {
              "name": "depth",
              "type": "int",
              "value": 13
            },
            {
              "name": "anchor",
              "type": "string",
              "value": "0.5,1"
            },
            {
              "name": "alpha",
              "type": "float",
              "value": 1.0
            },
            {
              "name": "tint",
              "type": "string",
              "value": "#ffffff"
            },
            {
              "name": "scrollFactorX",
              "type": "float",
              "value": 1.0
            },
            {
              "name": "scrollFactorY",
              "type": "float",
              "value": 1.0
            },
            {
              "name": "visualRole",
              "type": "string",
              "value": "rearProp"
            },
            {
              "name": "vehicleId",
              "type": "string",
              "value": "sedan-a"
            },
            {
              "name": "wheelBase",
              "type": "string",
              "value": "0.5,1"
            },
            {
              "name": "floorContact",
              "type": "int",
              "value": 1080
            },
            {
              "name": "doorInteract",
              "type": "string",
              "value": "1750,1020"
            },
            {
              "name": "trunkInteract",
              "type": "string",
              "value": "1880,1030"
            },
            {
              "name": "hoodInteract",
              "type": "string",
              "value": "1720,1030"
            },
            {
              "name": "searchAnchor",
              "type": "string",
              "value": "1800,1020"
            }
          ]
        },
        {
          "id": 79,
          "name": "hatchback-b",
          "type": "environment",
          "x": 2750,
          "y": 1080,
          "width": 210,
          "height": 100,
          "visible": true,
          "rotation": 0,
          "properties": [
            {
              "name": "runtimeId",
              "type": "string",
              "value": "hatchback-b"
            },
            {
              "name": "assetKey",
              "type": "string",
              "value": "garage-vehicle-kit"
            },
            {
              "name": "frame",
              "type": "string",
              "value": "hatchback"
            },
            {
              "name": "depth",
              "type": "int",
              "value": 13
            },
            {
              "name": "anchor",
              "type": "string",
              "value": "0.5,1"
            },
            {
              "name": "alpha",
              "type": "float",
              "value": 1.0
            },
            {
              "name": "tint",
              "type": "string",
              "value": "#ffffff"
            },
            {
              "name": "scrollFactorX",
              "type": "float",
              "value": 1.0
            },
            {
              "name": "scrollFactorY",
              "type": "float",
              "value": 1.0
            },
            {
              "name": "visualRole",
              "type": "string",
              "value": "rearProp"
            },
            {
              "name": "vehicleId",
              "type": "string",
              "value": "hatchback-b"
            },
            {
              "name": "wheelBase",
              "type": "string",
              "value": "0.5,1"
            },
            {
              "name": "floorContact",
              "type": "int",
              "value": 1080
            },
            {
              "name": "doorInteract",
              "type": "string",
              "value": "2700,1020"
            },
            {
              "name": "trunkInteract",
              "type": "string",
              "value": "2830,1030"
            },
            {
              "name": "hoodInteract",
              "type": "string",
              "value": "2670,1030"
            },
            {
              "name": "searchAnchor",
              "type": "string",
              "value": "2750,1020"
            }
          ]
        },
        {
          "id": 80,
          "name": "van-c",
          "type": "environment",
          "x": 3900,
          "y": 1080,
          "width": 210,
          "height": 100,
          "visible": true,
          "rotation": 0,
          "properties": [
            {
              "name": "runtimeId",
              "type": "string",
              "value": "van-c"
            },
            {
              "name": "assetKey",
              "type": "string",
              "value": "garage-vehicle-kit"
            },
            {
              "name": "frame",
              "type": "string",
              "value": "van"
            },
            {
              "name": "depth",
              "type": "int",
              "value": 13
            },
            {
              "name": "anchor",
              "type": "string",
              "value": "0.5,1"
            },
            {
              "name": "alpha",
              "type": "float",
              "value": 1.0
            },
            {
              "name": "tint",
              "type": "string",
              "value": "#ffffff"
            },
            {
              "name": "scrollFactorX",
              "type": "float",
              "value": 1.0
            },
            {
              "name": "scrollFactorY",
              "type": "float",
              "value": 1.0
            },
            {
              "name": "visualRole",
              "type": "string",
              "value": "rearProp"
            },
            {
              "name": "vehicleId",
              "type": "string",
              "value": "van-c"
            },
            {
              "name": "wheelBase",
              "type": "string",
              "value": "0.5,1"
            },
            {
              "name": "floorContact",
              "type": "int",
              "value": 1080
            },
            {
              "name": "doorInteract",
              "type": "string",
              "value": "3850,1020"
            },
            {
              "name": "trunkInteract",
              "type": "string",
              "value": "3980,1030"
            },
            {
              "name": "hoodInteract",
              "type": "string",
              "value": "3820,1030"
            },
            {
              "name": "searchAnchor",
              "type": "string",
              "value": "3900,1020"
            }
          ]
        },
        {
          "id": 81,
          "name": "pickup-d",
          "type": "environment",
          "x": 5050,
          "y": 1080,
          "width": 210,
          "height": 100,
          "visible": true,
          "rotation": 0,
          "properties": [
            {
              "name": "runtimeId",
              "type": "string",
              "value": "pickup-d"
            },
            {
              "name": "assetKey",
              "type": "string",
              "value": "garage-vehicle-kit"
            },
            {
              "name": "frame",
              "type": "string",
              "value": "pickup"
            },
            {
              "name": "depth",
              "type": "int",
              "value": 13
            },
            {
              "name": "anchor",
              "type": "string",
              "value": "0.5,1"
            },
            {
              "name": "alpha",
              "type": "float",
              "value": 1.0
            },
            {
              "name": "tint",
              "type": "string",
              "value": "#ffffff"
            },
            {
              "name": "scrollFactorX",
              "type": "float",
              "value": 1.0
            },
            {
              "name": "scrollFactorY",
              "type": "float",
              "value": 1.0
            },
            {
              "name": "visualRole",
              "type": "string",
              "value": "rearProp"
            },
            {
              "name": "vehicleId",
              "type": "string",
              "value": "pickup-d"
            },
            {
              "name": "wheelBase",
              "type": "string",
              "value": "0.5,1"
            },
            {
              "name": "floorContact",
              "type": "int",
              "value": 1080
            },
            {
              "name": "doorInteract",
              "type": "string",
              "value": "5000,1020"
            },
            {
              "name": "trunkInteract",
              "type": "string",
              "value": "5130,1030"
            },
            {
              "name": "hoodInteract",
              "type": "string",
              "value": "4970,1030"
            },
            {
              "name": "searchAnchor",
              "type": "string",
              "value": "5050,1020"
            }
          ]
        },
        {
          "id": 82,
          "name": "security-e",
          "type": "environment",
          "x": 6200,
          "y": 1080,
          "width": 210,
          "height": 100,
          "visible": true,
          "rotation": 0,
          "properties": [
            {
              "name": "runtimeId",
              "type": "string",
              "value": "security-e"
            },
            {
              "name": "assetKey",
              "type": "string",
              "value": "garage-vehicle-kit"
            },
            {
              "name": "frame",
              "type": "string",
              "value": "security-vehicle"
            },
            {
              "name": "depth",
              "type": "int",
              "value": 13
            },
            {
              "name": "anchor",
              "type": "string",
              "value": "0.5,1"
            },
            {
              "name": "alpha",
              "type": "float",
              "value": 1.0
            },
            {
              "name": "tint",
              "type": "string",
              "value": "#ffffff"
            },
            {
              "name": "scrollFactorX",
              "type": "float",
              "value": 1.0
            },
            {
              "name": "scrollFactorY",
              "type": "float",
              "value": 1.0
            },
            {
              "name": "visualRole",
              "type": "string",
              "value": "rearProp"
            },
            {
              "name": "vehicleId",
              "type": "string",
              "value": "security-e"
            },
            {
              "name": "wheelBase",
              "type": "string",
              "value": "0.5,1"
            },
            {
              "name": "floorContact",
              "type": "int",
              "value": 1080
            },
            {
              "name": "doorInteract",
              "type": "string",
              "value": "6150,1020"
            },
            {
              "name": "trunkInteract",
              "type": "string",
              "value": "6280,1030"
            },
            {
              "name": "hoodInteract",
              "type": "string",
              "value": "6120,1030"
            },
            {
              "name": "searchAnchor",
              "type": "string",
              "value": "6200,1020"
            }
          ]
        },
        {
          "id": 83,
          "name": "burned-f",
          "type": "environment",
          "x": 7700,
          "y": 1080,
          "width": 210,
          "height": 100,
          "visible": true,
          "rotation": 0,
          "properties": [
            {
              "name": "runtimeId",
              "type": "string",
              "value": "burned-f"
            },
            {
              "name": "assetKey",
              "type": "string",
              "value": "garage-vehicle-kit"
            },
            {
              "name": "frame",
              "type": "string",
              "value": "burned-vehicle"
            },
            {
              "name": "depth",
              "type": "int",
              "value": 13
            },
            {
              "name": "anchor",
              "type": "string",
              "value": "0.5,1"
            },
            {
              "name": "alpha",
              "type": "float",
              "value": 1.0
            },
            {
              "name": "tint",
              "type": "string",
              "value": "#ffffff"
            },
            {
              "name": "scrollFactorX",
              "type": "float",
              "value": 1.0
            },
            {
              "name": "scrollFactorY",
              "type": "float",
              "value": 1.0
            },
            {
              "name": "visualRole",
              "type": "string",
              "value": "rearProp"
            },
            {
              "name": "vehicleId",
              "type": "string",
              "value": "burned-f"
            },
            {
              "name": "wheelBase",
              "type": "string",
              "value": "0.5,1"
            },
            {
              "name": "floorContact",
              "type": "int",
              "value": 1080
            },
            {
              "name": "doorInteract",
              "type": "string",
              "value": "7650,1020"
            },
            {
              "name": "trunkInteract",
              "type": "string",
              "value": "7780,1030"
            },
            {
              "name": "hoodInteract",
              "type": "string",
              "value": "7620,1030"
            },
            {
              "name": "searchAnchor",
              "type": "string",
              "value": "7700,1020"
            }
          ]
        }
      ]
    },
    {
      "id": 7,
      "name": "GameplayDecor",
      "type": "objectgroup",
      "draworder": "topdown",
      "opacity": 1,
      "visible": true,
      "objects": [
        {
          "id": 84,
          "name": "sector-number-1",
          "type": "environment",
          "x": 300,
          "y": 800,
          "width": 64,
          "height": 64,
          "visible": true,
          "rotation": 0,
          "properties": [
            {
              "name": "runtimeId",
              "type": "string",
              "value": "sector-number-1"
            },
            {
              "name": "assetKey",
              "type": "string",
              "value": "parking-garage-kit"
            },
            {
              "name": "frame",
              "type": "string",
              "value": "sector-number"
            },
            {
              "name": "depth",
              "type": "int",
              "value": 12
            },
            {
              "name": "anchor",
              "type": "string",
              "value": "0.5,1"
            },
            {
              "name": "alpha",
              "type": "float",
              "value": 1.0
            },
            {
              "name": "tint",
              "type": "string",
              "value": "#ffffff"
            },
            {
              "name": "scrollFactorX",
              "type": "float",
              "value": 1.0
            },
            {
              "name": "scrollFactorY",
              "type": "float",
              "value": 1.0
            },
            {
              "name": "visualRole",
              "type": "string",
              "value": "gameplayDecor"
            }
          ]
        },
        {
          "id": 85,
          "name": "sector-number-2",
          "type": "environment",
          "x": 1300,
          "y": 800,
          "width": 64,
          "height": 64,
          "visible": true,
          "rotation": 0,
          "properties": [
            {
              "name": "runtimeId",
              "type": "string",
              "value": "sector-number-2"
            },
            {
              "name": "assetKey",
              "type": "string",
              "value": "parking-garage-kit"
            },
            {
              "name": "frame",
              "type": "string",
              "value": "sector-number"
            },
            {
              "name": "depth",
              "type": "int",
              "value": 12
            },
            {
              "name": "anchor",
              "type": "string",
              "value": "0.5,1"
            },
            {
              "name": "alpha",
              "type": "float",
              "value": 1.0
            },
            {
              "name": "tint",
              "type": "string",
              "value": "#ffffff"
            },
            {
              "name": "scrollFactorX",
              "type": "float",
              "value": 1.0
            },
            {
              "name": "scrollFactorY",
              "type": "float",
              "value": 1.0
            },
            {
              "name": "visualRole",
              "type": "string",
              "value": "gameplayDecor"
            }
          ]
        },
        {
          "id": 86,
          "name": "sector-number-3",
          "type": "environment",
          "x": 2400,
          "y": 800,
          "width": 64,
          "height": 64,
          "visible": true,
          "rotation": 0,
          "properties": [
            {
              "name": "runtimeId",
              "type": "string",
              "value": "sector-number-3"
            },
            {
              "name": "assetKey",
              "type": "string",
              "value": "parking-garage-kit"
            },
            {
              "name": "frame",
              "type": "string",
              "value": "sector-number"
            },
            {
              "name": "depth",
              "type": "int",
              "value": 12
            },
            {
              "name": "anchor",
              "type": "string",
              "value": "0.5,1"
            },
            {
              "name": "alpha",
              "type": "float",
              "value": 1.0
            },
            {
              "name": "tint",
              "type": "string",
              "value": "#ffffff"
            },
            {
              "name": "scrollFactorX",
              "type": "float",
              "value": 1.0
            },
            {
              "name": "scrollFactorY",
              "type": "float",
              "value": 1.0
            },
            {
              "name": "visualRole",
              "type": "string",
              "value": "gameplayDecor"
            }
          ]
        },
        {
          "id": 87,
          "name": "sector-number-4",
          "type": "environment",
          "x": 3500,
          "y": 800,
          "width": 64,
          "height": 64,
          "visible": true,
          "rotation": 0,
          "properties": [
            {
              "name": "runtimeId",
              "type": "string",
              "value": "sector-number-4"
            },
            {
              "name": "assetKey",
              "type": "string",
              "value": "parking-garage-kit"
            },
            {
              "name": "frame",
              "type": "string",
              "value": "sector-number"
            },
            {
              "name": "depth",
              "type": "int",
              "value": 12
            },
            {
              "name": "anchor",
              "type": "string",
              "value": "0.5,1"
            },
            {
              "name": "alpha",
              "type": "float",
              "value": 1.0
            },
            {
              "name": "tint",
              "type": "string",
              "value": "#ffffff"
            },
            {
              "name": "scrollFactorX",
              "type": "float",
              "value": 1.0
            },
            {
              "name": "scrollFactorY",
              "type": "float",
              "value": 1.0
            },
            {
              "name": "visualRole",
              "type": "string",
              "value": "gameplayDecor"
            }
          ]
        },
        {
          "id": 88,
          "name": "sector-number-5",
          "type": "environment",
          "x": 4700,
          "y": 800,
          "width": 64,
          "height": 64,
          "visible": true,
          "rotation": 0,
          "properties": [
            {
              "name": "runtimeId",
              "type": "string",
              "value": "sector-number-5"
            },
            {
              "name": "assetKey",
              "type": "string",
              "value": "parking-garage-kit"
            },
            {
              "name": "frame",
              "type": "string",
              "value": "sector-number"
            },
            {
              "name": "depth",
              "type": "int",
              "value": 12
            },
            {
              "name": "anchor",
              "type": "string",
              "value": "0.5,1"
            },
            {
              "name": "alpha",
              "type": "float",
              "value": 1.0
            },
            {
              "name": "tint",
              "type": "string",
              "value": "#ffffff"
            },
            {
              "name": "scrollFactorX",
              "type": "float",
              "value": 1.0
            },
            {
              "name": "scrollFactorY",
              "type": "float",
              "value": 1.0
            },
            {
              "name": "visualRole",
              "type": "string",
              "value": "gameplayDecor"
            }
          ]
        },
        {
          "id": 89,
          "name": "sector-number-6",
          "type": "environment",
          "x": 5900,
          "y": 800,
          "width": 64,
          "height": 64,
          "visible": true,
          "rotation": 0,
          "properties": [
            {
              "name": "runtimeId",
              "type": "string",
              "value": "sector-number-6"
            },
            {
              "name": "assetKey",
              "type": "string",
              "value": "parking-garage-kit"
            },
            {
              "name": "frame",
              "type": "string",
              "value": "sector-number"
            },
            {
              "name": "depth",
              "type": "int",
              "value": 12
            },
            {
              "name": "anchor",
              "type": "string",
              "value": "0.5,1"
            },
            {
              "name": "alpha",
              "type": "float",
              "value": 1.0
            },
            {
              "name": "tint",
              "type": "string",
              "value": "#ffffff"
            },
            {
              "name": "scrollFactorX",
              "type": "float",
              "value": 1.0
            },
            {
              "name": "scrollFactorY",
              "type": "float",
              "value": 1.0
            },
            {
              "name": "visualRole",
              "type": "string",
              "value": "gameplayDecor"
            }
          ]
        },
        {
          "id": 90,
          "name": "sector-number-7",
          "type": "environment",
          "x": 7000,
          "y": 800,
          "width": 64,
          "height": 64,
          "visible": true,
          "rotation": 0,
          "properties": [
            {
              "name": "runtimeId",
              "type": "string",
              "value": "sector-number-7"
            },
            {
              "name": "assetKey",
              "type": "string",
              "value": "parking-garage-kit"
            },
            {
              "name": "frame",
              "type": "string",
              "value": "sector-number"
            },
            {
              "name": "depth",
              "type": "int",
              "value": 12
            },
            {
              "name": "anchor",
              "type": "string",
              "value": "0.5,1"
            },
            {
              "name": "alpha",
              "type": "float",
              "value": 1.0
            },
            {
              "name": "tint",
              "type": "string",
              "value": "#ffffff"
            },
            {
              "name": "scrollFactorX",
              "type": "float",
              "value": 1.0
            },
            {
              "name": "scrollFactorY",
              "type": "float",
              "value": 1.0
            },
            {
              "name": "visualRole",
              "type": "string",
              "value": "gameplayDecor"
            }
          ]
        },
        {
          "id": 91,
          "name": "sector-number-8",
          "type": "environment",
          "x": 8050,
          "y": 800,
          "width": 64,
          "height": 64,
          "visible": true,
          "rotation": 0,
          "properties": [
            {
              "name": "runtimeId",
              "type": "string",
              "value": "sector-number-8"
            },
            {
              "name": "assetKey",
              "type": "string",
              "value": "parking-garage-kit"
            },
            {
              "name": "frame",
              "type": "string",
              "value": "sector-number"
            },
            {
              "name": "depth",
              "type": "int",
              "value": 12
            },
            {
              "name": "anchor",
              "type": "string",
              "value": "0.5,1"
            },
            {
              "name": "alpha",
              "type": "float",
              "value": 1.0
            },
            {
              "name": "tint",
              "type": "string",
              "value": "#ffffff"
            },
            {
              "name": "scrollFactorX",
              "type": "float",
              "value": 1.0
            },
            {
              "name": "scrollFactorY",
              "type": "float",
              "value": 1.0
            },
            {
              "name": "visualRole",
              "type": "string",
              "value": "gameplayDecor"
            }
          ]
        },
        {
          "id": 92,
          "name": "sector-number-9",
          "type": "environment",
          "x": 8900,
          "y": 800,
          "width": 64,
          "height": 64,
          "visible": true,
          "rotation": 0,
          "properties": [
            {
              "name": "runtimeId",
              "type": "string",
              "value": "sector-number-9"
            },
            {
              "name": "assetKey",
              "type": "string",
              "value": "parking-garage-kit"
            },
            {
              "name": "frame",
              "type": "string",
              "value": "sector-number"
            },
            {
              "name": "depth",
              "type": "int",
              "value": 12
            },
            {
              "name": "anchor",
              "type": "string",
              "value": "0.5,1"
            },
            {
              "name": "alpha",
              "type": "float",
              "value": 1.0
            },
            {
              "name": "tint",
              "type": "string",
              "value": "#ffffff"
            },
            {
              "name": "scrollFactorX",
              "type": "float",
              "value": 1.0
            },
            {
              "name": "scrollFactorY",
              "type": "float",
              "value": 1.0
            },
            {
              "name": "visualRole",
              "type": "string",
              "value": "gameplayDecor"
            }
          ]
        }
      ]
    },
    {
      "id": 8,
      "name": "FrontProps",
      "type": "objectgroup",
      "draworder": "topdown",
      "opacity": 1,
      "visible": true,
      "objects": [
        {
          "id": 93,
          "name": "exterior-gate",
          "type": "environment",
          "x": 8950,
          "y": 1028,
          "width": 220,
          "height": 220,
          "visible": true,
          "rotation": 0,
          "properties": [
            {
              "name": "runtimeId",
              "type": "string",
              "value": "exterior-gate"
            },
            {
              "name": "assetKey",
              "type": "string",
              "value": "parking-garage-kit"
            },
            {
              "name": "frame",
              "type": "string",
              "value": "garage-gate"
            },
            {
              "name": "depth",
              "type": "int",
              "value": 20
            },
            {
              "name": "anchor",
              "type": "string",
              "value": "0.5,1"
            },
            {
              "name": "alpha",
              "type": "float",
              "value": 1.0
            },
            {
              "name": "tint",
              "type": "string",
              "value": "#ffffff"
            },
            {
              "name": "scrollFactorX",
              "type": "float",
              "value": 1.0
            },
            {
              "name": "scrollFactorY",
              "type": "float",
              "value": 1.0
            },
            {
              "name": "visualRole",
              "type": "string",
              "value": "frontProp"
            },
            {
              "name": "connectorId",
              "type": "string",
              "value": "garage-exterior-gate"
            },
            {
              "name": "direction",
              "type": "string",
              "value": "exterior"
            }
          ]
        }
      ]
    },
    {
      "id": 9,
      "name": "Foreground",
      "type": "objectgroup",
      "draworder": "topdown",
      "opacity": 1,
      "visible": true,
      "objects": [
        {
          "id": 94,
          "name": "foreground-column-0",
          "type": "environment",
          "x": 1500,
          "y": 948,
          "width": 120,
          "height": 300,
          "visible": true,
          "rotation": 0,
          "properties": [
            {
              "name": "runtimeId",
              "type": "string",
              "value": "foreground-column-0"
            },
            {
              "name": "assetKey",
              "type": "string",
              "value": "parking-garage-kit"
            },
            {
              "name": "frame",
              "type": "string",
              "value": "column-foreground"
            },
            {
              "name": "depth",
              "type": "int",
              "value": 40
            },
            {
              "name": "anchor",
              "type": "string",
              "value": "0.5,1"
            },
            {
              "name": "alpha",
              "type": "float",
              "value": 1.0
            },
            {
              "name": "tint",
              "type": "string",
              "value": "#ffffff"
            },
            {
              "name": "scrollFactorX",
              "type": "float",
              "value": 1.0
            },
            {
              "name": "scrollFactorY",
              "type": "float",
              "value": 1.0
            },
            {
              "name": "visualRole",
              "type": "string",
              "value": "foreground"
            },
            {
              "name": "collision",
              "type": "bool",
              "value": false
            }
          ]
        },
        {
          "id": 95,
          "name": "foreground-column-1",
          "type": "environment",
          "x": 4500,
          "y": 948,
          "width": 120,
          "height": 300,
          "visible": true,
          "rotation": 0,
          "properties": [
            {
              "name": "runtimeId",
              "type": "string",
              "value": "foreground-column-1"
            },
            {
              "name": "assetKey",
              "type": "string",
              "value": "parking-garage-kit"
            },
            {
              "name": "frame",
              "type": "string",
              "value": "column-foreground"
            },
            {
              "name": "depth",
              "type": "int",
              "value": 40
            },
            {
              "name": "anchor",
              "type": "string",
              "value": "0.5,1"
            },
            {
              "name": "alpha",
              "type": "float",
              "value": 1.0
            },
            {
              "name": "tint",
              "type": "string",
              "value": "#ffffff"
            },
            {
              "name": "scrollFactorX",
              "type": "float",
              "value": 1.0
            },
            {
              "name": "scrollFactorY",
              "type": "float",
              "value": 1.0
            },
            {
              "name": "visualRole",
              "type": "string",
              "value": "foreground"
            },
            {
              "name": "collision",
              "type": "bool",
              "value": false
            }
          ]
        },
        {
          "id": 96,
          "name": "foreground-column-2",
          "type": "environment",
          "x": 7400,
          "y": 948,
          "width": 120,
          "height": 300,
          "visible": true,
          "rotation": 0,
          "properties": [
            {
              "name": "runtimeId",
              "type": "string",
              "value": "foreground-column-2"
            },
            {
              "name": "assetKey",
              "type": "string",
              "value": "parking-garage-kit"
            },
            {
              "name": "frame",
              "type": "string",
              "value": "column-foreground"
            },
            {
              "name": "depth",
              "type": "int",
              "value": 40
            },
            {
              "name": "anchor",
              "type": "string",
              "value": "0.5,1"
            },
            {
              "name": "alpha",
              "type": "float",
              "value": 1.0
            },
            {
              "name": "tint",
              "type": "string",
              "value": "#ffffff"
            },
            {
              "name": "scrollFactorX",
              "type": "float",
              "value": 1.0
            },
            {
              "name": "scrollFactorY",
              "type": "float",
              "value": 1.0
            },
            {
              "name": "visualRole",
              "type": "string",
              "value": "foreground"
            },
            {
              "name": "collision",
              "type": "bool",
              "value": false
            }
          ]
        }
      ]
    },
    {
      "id": 10,
      "name": "LightingAnchors",
      "type": "objectgroup",
      "draworder": "topdown",
      "opacity": 1,
      "visible": true,
      "objects": [
        {
          "id": 97,
          "name": "garage-light-0",
          "type": "environment",
          "x": 600,
          "y": 760,
          "width": 64,
          "height": 64,
          "visible": true,
          "rotation": 0,
          "properties": [
            {
              "name": "runtimeId",
              "type": "string",
              "value": "garage-light-0"
            },
            {
              "name": "assetKey",
              "type": "string",
              "value": "industrial-lighting-kit"
            },
            {
              "name": "frame",
              "type": "string",
              "value": "fluorescent-flicker"
            },
            {
              "name": "depth",
              "type": "int",
              "value": 25
            },
            {
              "name": "anchor",
              "type": "string",
              "value": "0.5,1"
            },
            {
              "name": "alpha",
              "type": "float",
              "value": 1.0
            },
            {
              "name": "tint",
              "type": "string",
              "value": "#ffffff"
            },
            {
              "name": "scrollFactorX",
              "type": "float",
              "value": 1.0
            },
            {
              "name": "scrollFactorY",
              "type": "float",
              "value": 1.0
            },
            {
              "name": "visualRole",
              "type": "string",
              "value": "lighting"
            },
            {
              "name": "lightProfile",
              "type": "string",
              "value": "parking-garage-industrial"
            }
          ]
        },
        {
          "id": 98,
          "name": "garage-light-1",
          "type": "environment",
          "x": 1300,
          "y": 760,
          "width": 64,
          "height": 64,
          "visible": true,
          "rotation": 0,
          "properties": [
            {
              "name": "runtimeId",
              "type": "string",
              "value": "garage-light-1"
            },
            {
              "name": "assetKey",
              "type": "string",
              "value": "industrial-lighting-kit"
            },
            {
              "name": "frame",
              "type": "string",
              "value": "fluorescent-on"
            },
            {
              "name": "depth",
              "type": "int",
              "value": 25
            },
            {
              "name": "anchor",
              "type": "string",
              "value": "0.5,1"
            },
            {
              "name": "alpha",
              "type": "float",
              "value": 1.0
            },
            {
              "name": "tint",
              "type": "string",
              "value": "#ffffff"
            },
            {
              "name": "scrollFactorX",
              "type": "float",
              "value": 1.0
            },
            {
              "name": "scrollFactorY",
              "type": "float",
              "value": 1.0
            },
            {
              "name": "visualRole",
              "type": "string",
              "value": "lighting"
            },
            {
              "name": "lightProfile",
              "type": "string",
              "value": "parking-garage-industrial"
            }
          ]
        },
        {
          "id": 99,
          "name": "garage-light-2",
          "type": "environment",
          "x": 2000,
          "y": 760,
          "width": 64,
          "height": 64,
          "visible": true,
          "rotation": 0,
          "properties": [
            {
              "name": "runtimeId",
              "type": "string",
              "value": "garage-light-2"
            },
            {
              "name": "assetKey",
              "type": "string",
              "value": "industrial-lighting-kit"
            },
            {
              "name": "frame",
              "type": "string",
              "value": "fluorescent-on"
            },
            {
              "name": "depth",
              "type": "int",
              "value": 25
            },
            {
              "name": "anchor",
              "type": "string",
              "value": "0.5,1"
            },
            {
              "name": "alpha",
              "type": "float",
              "value": 1.0
            },
            {
              "name": "tint",
              "type": "string",
              "value": "#ffffff"
            },
            {
              "name": "scrollFactorX",
              "type": "float",
              "value": 1.0
            },
            {
              "name": "scrollFactorY",
              "type": "float",
              "value": 1.0
            },
            {
              "name": "visualRole",
              "type": "string",
              "value": "lighting"
            },
            {
              "name": "lightProfile",
              "type": "string",
              "value": "parking-garage-industrial"
            }
          ]
        },
        {
          "id": 100,
          "name": "garage-light-3",
          "type": "environment",
          "x": 2700,
          "y": 760,
          "width": 64,
          "height": 64,
          "visible": true,
          "rotation": 0,
          "properties": [
            {
              "name": "runtimeId",
              "type": "string",
              "value": "garage-light-3"
            },
            {
              "name": "assetKey",
              "type": "string",
              "value": "industrial-lighting-kit"
            },
            {
              "name": "frame",
              "type": "string",
              "value": "fluorescent-flicker"
            },
            {
              "name": "depth",
              "type": "int",
              "value": 25
            },
            {
              "name": "anchor",
              "type": "string",
              "value": "0.5,1"
            },
            {
              "name": "alpha",
              "type": "float",
              "value": 1.0
            },
            {
              "name": "tint",
              "type": "string",
              "value": "#ffffff"
            },
            {
              "name": "scrollFactorX",
              "type": "float",
              "value": 1.0
            },
            {
              "name": "scrollFactorY",
              "type": "float",
              "value": 1.0
            },
            {
              "name": "visualRole",
              "type": "string",
              "value": "lighting"
            },
            {
              "name": "lightProfile",
              "type": "string",
              "value": "parking-garage-industrial"
            }
          ]
        },
        {
          "id": 101,
          "name": "garage-light-4",
          "type": "environment",
          "x": 3400,
          "y": 760,
          "width": 64,
          "height": 64,
          "visible": true,
          "rotation": 0,
          "properties": [
            {
              "name": "runtimeId",
              "type": "string",
              "value": "garage-light-4"
            },
            {
              "name": "assetKey",
              "type": "string",
              "value": "industrial-lighting-kit"
            },
            {
              "name": "frame",
              "type": "string",
              "value": "fluorescent-on"
            },
            {
              "name": "depth",
              "type": "int",
              "value": 25
            },
            {
              "name": "anchor",
              "type": "string",
              "value": "0.5,1"
            },
            {
              "name": "alpha",
              "type": "float",
              "value": 1.0
            },
            {
              "name": "tint",
              "type": "string",
              "value": "#ffffff"
            },
            {
              "name": "scrollFactorX",
              "type": "float",
              "value": 1.0
            },
            {
              "name": "scrollFactorY",
              "type": "float",
              "value": 1.0
            },
            {
              "name": "visualRole",
              "type": "string",
              "value": "lighting"
            },
            {
              "name": "lightProfile",
              "type": "string",
              "value": "parking-garage-industrial"
            }
          ]
        },
        {
          "id": 102,
          "name": "garage-light-5",
          "type": "environment",
          "x": 4100,
          "y": 760,
          "width": 64,
          "height": 64,
          "visible": true,
          "rotation": 0,
          "properties": [
            {
              "name": "runtimeId",
              "type": "string",
              "value": "garage-light-5"
            },
            {
              "name": "assetKey",
              "type": "string",
              "value": "industrial-lighting-kit"
            },
            {
              "name": "frame",
              "type": "string",
              "value": "fluorescent-on"
            },
            {
              "name": "depth",
              "type": "int",
              "value": 25
            },
            {
              "name": "anchor",
              "type": "string",
              "value": "0.5,1"
            },
            {
              "name": "alpha",
              "type": "float",
              "value": 1.0
            },
            {
              "name": "tint",
              "type": "string",
              "value": "#ffffff"
            },
            {
              "name": "scrollFactorX",
              "type": "float",
              "value": 1.0
            },
            {
              "name": "scrollFactorY",
              "type": "float",
              "value": 1.0
            },
            {
              "name": "visualRole",
              "type": "string",
              "value": "lighting"
            },
            {
              "name": "lightProfile",
              "type": "string",
              "value": "parking-garage-industrial"
            }
          ]
        },
        {
          "id": 103,
          "name": "garage-light-6",
          "type": "environment",
          "x": 4800,
          "y": 760,
          "width": 64,
          "height": 64,
          "visible": true,
          "rotation": 0,
          "properties": [
            {
              "name": "runtimeId",
              "type": "string",
              "value": "garage-light-6"
            },
            {
              "name": "assetKey",
              "type": "string",
              "value": "industrial-lighting-kit"
            },
            {
              "name": "frame",
              "type": "string",
              "value": "fluorescent-flicker"
            },
            {
              "name": "depth",
              "type": "int",
              "value": 25
            },
            {
              "name": "anchor",
              "type": "string",
              "value": "0.5,1"
            },
            {
              "name": "alpha",
              "type": "float",
              "value": 1.0
            },
            {
              "name": "tint",
              "type": "string",
              "value": "#ffffff"
            },
            {
              "name": "scrollFactorX",
              "type": "float",
              "value": 1.0
            },
            {
              "name": "scrollFactorY",
              "type": "float",
              "value": 1.0
            },
            {
              "name": "visualRole",
              "type": "string",
              "value": "lighting"
            },
            {
              "name": "lightProfile",
              "type": "string",
              "value": "parking-garage-industrial"
            }
          ]
        },
        {
          "id": 104,
          "name": "garage-light-7",
          "type": "environment",
          "x": 5500,
          "y": 760,
          "width": 64,
          "height": 64,
          "visible": true,
          "rotation": 0,
          "properties": [
            {
              "name": "runtimeId",
              "type": "string",
              "value": "garage-light-7"
            },
            {
              "name": "assetKey",
              "type": "string",
              "value": "industrial-lighting-kit"
            },
            {
              "name": "frame",
              "type": "string",
              "value": "fluorescent-on"
            },
            {
              "name": "depth",
              "type": "int",
              "value": 25
            },
            {
              "name": "anchor",
              "type": "string",
              "value": "0.5,1"
            },
            {
              "name": "alpha",
              "type": "float",
              "value": 1.0
            },
            {
              "name": "tint",
              "type": "string",
              "value": "#ffffff"
            },
            {
              "name": "scrollFactorX",
              "type": "float",
              "value": 1.0
            },
            {
              "name": "scrollFactorY",
              "type": "float",
              "value": 1.0
            },
            {
              "name": "visualRole",
              "type": "string",
              "value": "lighting"
            },
            {
              "name": "lightProfile",
              "type": "string",
              "value": "parking-garage-industrial"
            }
          ]
        },
        {
          "id": 105,
          "name": "garage-light-8",
          "type": "environment",
          "x": 6200,
          "y": 760,
          "width": 64,
          "height": 64,
          "visible": true,
          "rotation": 0,
          "properties": [
            {
              "name": "runtimeId",
              "type": "string",
              "value": "garage-light-8"
            },
            {
              "name": "assetKey",
              "type": "string",
              "value": "industrial-lighting-kit"
            },
            {
              "name": "frame",
              "type": "string",
              "value": "fluorescent-on"
            },
            {
              "name": "depth",
              "type": "int",
              "value": 25
            },
            {
              "name": "anchor",
              "type": "string",
              "value": "0.5,1"
            },
            {
              "name": "alpha",
              "type": "float",
              "value": 1.0
            },
            {
              "name": "tint",
              "type": "string",
              "value": "#ffffff"
            },
            {
              "name": "scrollFactorX",
              "type": "float",
              "value": 1.0
            },
            {
              "name": "scrollFactorY",
              "type": "float",
              "value": 1.0
            },
            {
              "name": "visualRole",
              "type": "string",
              "value": "lighting"
            },
            {
              "name": "lightProfile",
              "type": "string",
              "value": "parking-garage-industrial"
            }
          ]
        },
        {
          "id": 106,
          "name": "garage-light-9",
          "type": "environment",
          "x": 6900,
          "y": 760,
          "width": 64,
          "height": 64,
          "visible": true,
          "rotation": 0,
          "properties": [
            {
              "name": "runtimeId",
              "type": "string",
              "value": "garage-light-9"
            },
            {
              "name": "assetKey",
              "type": "string",
              "value": "industrial-lighting-kit"
            },
            {
              "name": "frame",
              "type": "string",
              "value": "fluorescent-flicker"
            },
            {
              "name": "depth",
              "type": "int",
              "value": 25
            },
            {
              "name": "anchor",
              "type": "string",
              "value": "0.5,1"
            },
            {
              "name": "alpha",
              "type": "float",
              "value": 1.0
            },
            {
              "name": "tint",
              "type": "string",
              "value": "#ffffff"
            },
            {
              "name": "scrollFactorX",
              "type": "float",
              "value": 1.0
            },
            {
              "name": "scrollFactorY",
              "type": "float",
              "value": 1.0
            },
            {
              "name": "visualRole",
              "type": "string",
              "value": "lighting"
            },
            {
              "name": "lightProfile",
              "type": "string",
              "value": "parking-garage-industrial"
            }
          ]
        },
        {
          "id": 107,
          "name": "garage-light-10",
          "type": "environment",
          "x": 7600,
          "y": 760,
          "width": 64,
          "height": 64,
          "visible": true,
          "rotation": 0,
          "properties": [
            {
              "name": "runtimeId",
              "type": "string",
              "value": "garage-light-10"
            },
            {
              "name": "assetKey",
              "type": "string",
              "value": "industrial-lighting-kit"
            },
            {
              "name": "frame",
              "type": "string",
              "value": "fluorescent-on"
            },
            {
              "name": "depth",
              "type": "int",
              "value": 25
            },
            {
              "name": "anchor",
              "type": "string",
              "value": "0.5,1"
            },
            {
              "name": "alpha",
              "type": "float",
              "value": 1.0
            },
            {
              "name": "tint",
              "type": "string",
              "value": "#ffffff"
            },
            {
              "name": "scrollFactorX",
              "type": "float",
              "value": 1.0
            },
            {
              "name": "scrollFactorY",
              "type": "float",
              "value": 1.0
            },
            {
              "name": "visualRole",
              "type": "string",
              "value": "lighting"
            },
            {
              "name": "lightProfile",
              "type": "string",
              "value": "parking-garage-industrial"
            }
          ]
        },
        {
          "id": 108,
          "name": "garage-light-11",
          "type": "environment",
          "x": 8300,
          "y": 760,
          "width": 64,
          "height": 64,
          "visible": true,
          "rotation": 0,
          "properties": [
            {
              "name": "runtimeId",
              "type": "string",
              "value": "garage-light-11"
            },
            {
              "name": "assetKey",
              "type": "string",
              "value": "industrial-lighting-kit"
            },
            {
              "name": "frame",
              "type": "string",
              "value": "fluorescent-on"
            },
            {
              "name": "depth",
              "type": "int",
              "value": 25
            },
            {
              "name": "anchor",
              "type": "string",
              "value": "0.5,1"
            },
            {
              "name": "alpha",
              "type": "float",
              "value": 1.0
            },
            {
              "name": "tint",
              "type": "string",
              "value": "#ffffff"
            },
            {
              "name": "scrollFactorX",
              "type": "float",
              "value": 1.0
            },
            {
              "name": "scrollFactorY",
              "type": "float",
              "value": 1.0
            },
            {
              "name": "visualRole",
              "type": "string",
              "value": "lighting"
            },
            {
              "name": "lightProfile",
              "type": "string",
              "value": "parking-garage-industrial"
            }
          ]
        }
      ]
    },
    {
      "id": 40,
      "name": "OcclusionZones",
      "type": "objectgroup",
      "draworder": "topdown",
      "opacity": 1,
      "visible": true,
      "objects": [
        {
          "id": 111,
          "name": "garage-smoke-zone",
          "type": "environment",
          "x": 7200,
          "y": 898,
          "width": 600,
          "height": 350,
          "visible": true,
          "rotation": 0,
          "properties": [
            {
              "name": "runtimeId",
              "type": "string",
              "value": "garage-smoke-zone"
            },
            {
              "name": "assetKey",
              "type": "string",
              "value": "garage-damage-kit"
            },
            {
              "name": "frame",
              "type": "string",
              "value": "damage-smoke"
            },
            {
              "name": "depth",
              "type": "int",
              "value": 38
            },
            {
              "name": "anchor",
              "type": "string",
              "value": "0.5,1"
            },
            {
              "name": "alpha",
              "type": "float",
              "value": 1.0
            },
            {
              "name": "tint",
              "type": "string",
              "value": "#ffffff"
            },
            {
              "name": "scrollFactorX",
              "type": "float",
              "value": 1.0
            },
            {
              "name": "scrollFactorY",
              "type": "float",
              "value": 1.0
            },
            {
              "name": "visualRole",
              "type": "string",
              "value": "occlusion"
            },
            {
              "name": "fadeAlpha",
              "type": "float",
              "value": 0.45
            }
          ]
        }
      ]
    },
    {
      "id": 39,
      "name": "ReflectionZones",
      "type": "objectgroup",
      "draworder": "topdown",
      "opacity": 1,
      "visible": true,
      "objects": [
        {
          "id": 110,
          "name": "garage-wet-lane",
          "type": "environment",
          "x": 4800,
          "y": 1100,
          "width": 2500,
          "height": 60,
          "visible": true,
          "rotation": 0,
          "properties": [
            {
              "name": "runtimeId",
              "type": "string",
              "value": "garage-wet-lane"
            },
            {
              "name": "assetKey",
              "type": "string",
              "value": "parking-garage-kit"
            },
            {
              "name": "frame",
              "type": "string",
              "value": "garage-puddle"
            },
            {
              "name": "depth",
              "type": "int",
              "value": 8
            },
            {
              "name": "anchor",
              "type": "string",
              "value": "0.5,1"
            },
            {
              "name": "alpha",
              "type": "float",
              "value": 1.0
            },
            {
              "name": "tint",
              "type": "string",
              "value": "#ffffff"
            },
            {
              "name": "scrollFactorX",
              "type": "float",
              "value": 1.0
            },
            {
              "name": "scrollFactorY",
              "type": "float",
              "value": 1.0
            },
            {
              "name": "visualRole",
              "type": "string",
              "value": "reflection"
            },
            {
              "name": "localized",
              "type": "bool",
              "value": true
            }
          ]
        }
      ]
    },
    {
      "id": 38,
      "name": "AmbientZones",
      "type": "objectgroup",
      "draworder": "topdown",
      "opacity": 1,
      "visible": true,
      "objects": [
        {
          "id": 109,
          "name": "garage-ventilation",
          "type": "environment",
          "x": 2216,
          "y": 800,
          "width": 7000,
          "height": 400,
          "visible": true,
          "rotation": 0,
          "properties": [
            {
              "name": "runtimeId",
              "type": "string",
              "value": "garage-ventilation"
            },
            {
              "name": "assetKey",
              "type": "string",
              "value": "parking-garage-kit"
            },
            {
              "name": "frame",
              "type": "string",
              "value": "ventilation"
            },
            {
              "name": "depth",
              "type": "int",
              "value": 8
            },
            {
              "name": "anchor",
              "type": "string",
              "value": "0.5,1"
            },
            {
              "name": "alpha",
              "type": "float",
              "value": 1.0
            },
            {
              "name": "tint",
              "type": "string",
              "value": "#ffffff"
            },
            {
              "name": "scrollFactorX",
              "type": "float",
              "value": 1.0
            },
            {
              "name": "scrollFactorY",
              "type": "float",
              "value": 1.0
            },
            {
              "name": "visualRole",
              "type": "string",
              "value": "ambient"
            },
            {
              "name": "audioProfile",
              "type": "string",
              "value": "garage-ventilation"
            }
          ]
        }
      ]
    },
    {
      "id": 12,
      "name": "Collision",
      "type": "objectgroup",
      "draworder": "topdown",
      "opacity": 1,
      "visible": true,
      "objects": [
        {
          "id": 11,
          "name": "floor",
          "type": "floor",
          "x": 0,
          "y": 1166,
          "width": 9200,
          "height": 74,
          "rotation": 0,
          "visible": true,
          "properties": [
            {
              "name": "runtimeId",
              "type": "string",
              "value": "level_9_subsuelo3_garage_salida-floor"
            },
            {
              "name": "collisionCategory",
              "type": "string",
              "value": "World"
            },
            {
              "name": "collisionMask",
              "type": "string",
              "value": "Player|Ally|Enemy|Projectile"
            },
            {
              "name": "sensor",
              "type": "bool",
              "value": false
            },
            {
              "name": "floorId",
              "type": "string",
              "value": "floor-25"
            }
          ]
        }
      ]
    },
    {
      "id": 13,
      "name": "OneWayPlatforms",
      "type": "objectgroup",
      "draworder": "topdown",
      "opacity": 1,
      "visible": true,
      "objects": []
    },
    {
      "id": 14,
      "name": "Stairs",
      "type": "objectgroup",
      "draworder": "topdown",
      "opacity": 1,
      "visible": true,
      "objects": []
    },
    {
      "id": 16,
      "name": "PlayerSpawns",
      "type": "objectgroup",
      "draworder": "topdown",
      "opacity": 1,
      "visible": true,
      "objects": [
        {
          "id": 15,
          "name": "default-spawn",
          "type": "default-spawn",
          "x": 200,
          "y": 1080,
          "width": 40,
          "height": 72,
          "rotation": 0,
          "visible": true,
          "properties": [
            {
              "name": "runtimeId",
              "type": "string",
              "value": "level_9_subsuelo3_garage_salida-spawn-default"
            },
            {
              "name": "spawnId",
              "type": "string",
              "value": "default"
            },
            {
              "name": "floorId",
              "type": "string",
              "value": "floor-25"
            },
            {
              "name": "elevation",
              "type": "float",
              "value": 0
            }
          ]
        }
      ]
    },
    {
      "id": 17,
      "name": "AllySpawns",
      "type": "objectgroup",
      "draworder": "topdown",
      "opacity": 1,
      "visible": true,
      "objects": []
    },
    {
      "id": 18,
      "name": "EnemySpawns",
      "type": "objectgroup",
      "draworder": "topdown",
      "opacity": 1,
      "visible": true,
      "objects": [
        {
          "id": 112,
          "name": "garage-shadow-entry",
          "type": "wave_spawn",
          "x": 3400,
          "y": 1000,
          "width": 40,
          "height": 72,
          "rotation": 0,
          "visible": true,
          "properties": [
            {
              "name": "runtimeId",
              "type": "string",
              "value": "garage-shadow-entry"
            },
            {
              "name": "spawnId",
              "type": "string",
              "value": "garage-shadow-entry"
            },
            {
              "name": "floorId",
              "type": "string",
              "value": "subsoil-3"
            }
          ]
        }
      ]
    },
    {
      "id": 19,
      "name": "SpawnAreas",
      "type": "objectgroup",
      "draworder": "topdown",
      "opacity": 1,
      "visible": true,
      "objects": []
    },
    {
      "id": 24,
      "name": "Interactables",
      "type": "objectgroup",
      "draworder": "topdown",
      "opacity": 1,
      "visible": true,
      "objects": [
        {
          "id": 20,
          "name": "recoger-mapa",
          "type": "recoger-mapa",
          "x": 1700,
          "y": 1040,
          "width": 64,
          "height": 96,
          "rotation": 0,
          "visible": true,
          "properties": [
            {
              "name": "runtimeId",
              "type": "string",
              "value": "recoger-mapa"
            },
            {
              "name": "interactionId",
              "type": "string",
              "value": "recoger-mapa"
            },
            {
              "name": "prompt",
              "type": "string",
              "value": "E · RECOGER MAPA"
            },
            {
              "name": "sensor",
              "type": "bool",
              "value": true
            }
          ]
        },
        {
          "id": 21,
          "name": "recoger-llaves",
          "type": "recoger-llaves",
          "x": 4300,
          "y": 1040,
          "width": 64,
          "height": 96,
          "rotation": 0,
          "visible": true,
          "properties": [
            {
              "name": "runtimeId",
              "type": "string",
              "value": "recoger-llaves"
            },
            {
              "name": "interactionId",
              "type": "string",
              "value": "recoger-llaves"
            },
            {
              "name": "prompt",
              "type": "string",
              "value": "E · RECOGER LLAVES"
            },
            {
              "name": "sensor",
              "type": "bool",
              "value": true
            }
          ]
        },
        {
          "id": 22,
          "name": "inspeccionar-sedan",
          "type": "inspeccionar-sedan",
          "x": 7000,
          "y": 1040,
          "width": 64,
          "height": 96,
          "rotation": 0,
          "visible": true,
          "properties": [
            {
              "name": "runtimeId",
              "type": "string",
              "value": "inspeccionar-sedan"
            },
            {
              "name": "interactionId",
              "type": "string",
              "value": "inspeccionar-sedan"
            },
            {
              "name": "prompt",
              "type": "string",
              "value": "E · INSPECCIONAR SEDÁN"
            },
            {
              "name": "sensor",
              "type": "bool",
              "value": true
            }
          ]
        },
        {
          "id": 23,
          "name": "abordar-sedan-accion",
          "type": "abordar-sedan-accion",
          "x": 7350,
          "y": 1040,
          "width": 64,
          "height": 96,
          "rotation": 0,
          "visible": true,
          "properties": [
            {
              "name": "runtimeId",
              "type": "string",
              "value": "abordar-sedan-accion"
            },
            {
              "name": "interactionId",
              "type": "string",
              "value": "abordar-sedan-accion"
            },
            {
              "name": "prompt",
              "type": "string",
              "value": "E · ABORDAR VEHÍCULO"
            },
            {
              "name": "sensor",
              "type": "bool",
              "value": true
            }
          ]
        }
      ]
    },
    {
      "id": 25,
      "name": "Triggers",
      "type": "objectgroup",
      "draworder": "topdown",
      "opacity": 1,
      "visible": true,
      "objects": []
    },
    {
      "id": 29,
      "name": "Objectives",
      "type": "objectgroup",
      "draworder": "topdown",
      "opacity": 1,
      "visible": true,
      "objects": [
        {
          "id": 26,
          "name": "reunir-pistas",
          "type": "reunir-pistas",
          "x": 360,
          "y": 984,
          "width": 48,
          "height": 48,
          "rotation": 0,
          "visible": true,
          "properties": [
            {
              "name": "runtimeId",
              "type": "string",
              "value": "reunir-pistas"
            },
            {
              "name": "objectiveId",
              "type": "string",
              "value": "reunir-pistas"
            },
            {
              "name": "targetId",
              "type": "string",
              "value": "mapa-garage"
            }
          ]
        },
        {
          "id": 27,
          "name": "inspeccionar-sedan",
          "type": "inspeccionar-sedan",
          "x": 440,
          "y": 984,
          "width": 48,
          "height": 48,
          "rotation": 0,
          "visible": true,
          "properties": [
            {
              "name": "runtimeId",
              "type": "string",
              "value": "inspeccionar-sedan-objectives"
            },
            {
              "name": "objectiveId",
              "type": "string",
              "value": "inspeccionar-sedan"
            },
            {
              "name": "targetId",
              "type": "string",
              "value": "sedan-supervivencia"
            }
          ]
        },
        {
          "id": 28,
          "name": "abordar",
          "type": "abordar",
          "x": 520,
          "y": 984,
          "width": 48,
          "height": 48,
          "rotation": 0,
          "visible": true,
          "properties": [
            {
              "name": "runtimeId",
              "type": "string",
              "value": "abordar"
            },
            {
              "name": "objectiveId",
              "type": "string",
              "value": "abordar"
            },
            {
              "name": "targetId",
              "type": "string",
              "value": "abordar-sedan"
            }
          ]
        }
      ]
    },
    {
      "id": 30,
      "name": "Checkpoints",
      "type": "objectgroup",
      "draworder": "topdown",
      "opacity": 1,
      "visible": true,
      "objects": []
    },
    {
      "id": 31,
      "name": "Pickups",
      "type": "objectgroup",
      "draworder": "topdown",
      "opacity": 1,
      "visible": true,
      "objects": []
    },
    {
      "id": 33,
      "name": "Exits",
      "type": "objectgroup",
      "draworder": "topdown",
      "opacity": 1,
      "visible": true,
      "objects": [
        {
          "id": 32,
          "name": "abordar-sedan",
          "type": "abordar-sedan",
          "x": 9020,
          "y": 1046,
          "width": 100,
          "height": 120,
          "rotation": 0,
          "visible": true,
          "properties": [
            {
              "name": "runtimeId",
              "type": "string",
              "value": "abordar-sedan"
            },
            {
              "name": "interactionId",
              "type": "string",
              "value": "abordar-sedan"
            },
            {
              "name": "connectorId",
              "type": "string",
              "value": "abordar-sedan"
            },
            {
              "name": "targetNodeId",
              "type": "string",
              "value": "lvl10-cin01-hallazgo-del-vehiculo"
            },
            {
              "name": "targetConnectorId",
              "type": "string",
              "value": "default"
            },
            {
              "name": "enabledByObjectiveId",
              "type": "string",
              "value": "abordar"
            },
            {
              "name": "sensor",
              "type": "bool",
              "value": true
            },
            {
              "name": "prompt",
              "type": "string",
              "value": "Usar salida"
            }
          ]
        }
      ]
    },
    {
      "id": 35,
      "name": "CameraBounds",
      "type": "objectgroup",
      "draworder": "topdown",
      "opacity": 1,
      "visible": true,
      "objects": [
        {
          "id": 34,
          "name": "camera-bounds",
          "type": "camera-bounds",
          "x": 0,
          "y": 0,
          "width": 9200,
          "height": 1240,
          "rotation": 0,
          "visible": true,
          "properties": [
            {
              "name": "runtimeId",
              "type": "string",
              "value": "level_9_subsuelo3_garage_salida-camera"
            },
            {
              "name": "editorOnly",
              "type": "bool",
              "value": false
            }
          ]
        }
      ]
    },
    {
      "id": 36,
      "name": "NavigationHints",
      "type": "objectgroup",
      "draworder": "topdown",
      "opacity": 1,
      "visible": true,
      "objects": []
    }
  ],
  "properties": [
    {
      "name": "schemaVersion",
      "type": "int",
      "value": 1
    },
    {
      "name": "nodeId",
      "type": "string",
      "value": "lvl10-esc01-garage-busqueda-vehiculo"
    },
    {
      "name": "canonicalNodeIds",
      "type": "string",
      "value": "lvl10-esc01-garage-busqueda-vehiculo,lvl10-esc02-resistencia-en-garage"
    },
    {
      "name": "runtimeLevelId",
      "type": "string",
      "value": "level_9_subsuelo3_garage_salida"
    },
    {
      "name": "locationId",
      "type": "string",
      "value": "level9_subsuelo3_garage_salida"
    },
    {
      "name": "locationLabel",
      "type": "string",
      "value": "level_9_subsuelo3_garage_salida"
    },
    {
      "name": "floorId",
      "type": "string",
      "value": "subsoil-3-garage"
    },
    {
      "name": "floorLabel",
      "type": "string",
      "value": "Garage · Subsuelo 3"
    },
    {
      "name": "canonicalIndex",
      "type": "int",
      "value": 25
    },
    {
      "name": "entryConnectorId",
      "type": "string",
      "value": "default"
    },
    {
      "name": "exitConnectorId",
      "type": "string",
      "value": "abordar-sedan"
    },
    {
      "name": "targetNodeId",
      "type": "string",
      "value": "lvl10-cin01-hallazgo-del-vehiculo"
    },
    {
      "name": "defaultCameraZoom",
      "type": "float",
      "value": 1.34
    },
    {
      "name": "gravityScale",
      "type": "float",
      "value": 1
    },
    {
      "name": "referencePhotoPath",
      "type": "file",
      "value": "public/outside.jpg"
    },
    {
      "name": "runtimeBackgroundPath",
      "type": "file",
      "value": ""
    },
    {
      "name": "supportsVerticalCamera",
      "type": "bool",
      "value": true
    },
    {
      "name": "musicProfile",
      "type": "string",
      "value": "campaign-default"
    },
    {
      "name": "environmentProfile",
      "type": "string",
      "value": "level9_subsuelo3_garage_salida"
    },
    {
      "name": "environmentKitIds",
      "type": "string",
      "value": "parking-garage-kit,garage-vehicle-kit,garage-damage-kit"
    },
    {
      "name": "compositionSignature",
      "type": "string",
      "value": "nine-sector-deep-garage-six-vehicle-silhouettes"
    },
    {
      "name": "productionComposition",
      "type": "bool",
      "value": true
    },
    {
      "name": "lightingProfile",
      "type": "string",
      "value": "parking-garage-industrial"
    },
    {
      "name": "minimapProfile",
      "type": "string",
      "value": "garage-sectors-ramps"
    },
    {
      "name": "garageSectorCount",
      "type": "int",
      "value": 9
    },
    {
      "name": "vehicleCount",
      "type": "int",
      "value": 6
    }
  ],
  "backgroundcolor": "#111827"
}
