{
  "compressionlevel": -1,
  "height": 35,
  "width": 219,
  "infinite": false,
  "nextlayerid": 37,
  "nextobjectid": 37,
  "orientation": "orthogonal",
  "renderorder": "right-down",
  "tiledversion": "1.11.2",
  "tileheight": 32,
  "tilewidth": 32,
  "type": "map",
  "version": "1.10",
  "layers": [
    {
      "id": 2,
      "name": "BackgroundReference",
      "type": "objectgroup",
      "draworder": "topdown",
      "opacity": 1,
      "visible": false,
      "objects": [
        {
          "id": 1,
          "name": "reference-photo",
          "type": "reference-photo",
          "x": 0,
          "y": 0,
          "width": 7000,
          "height": 1120,
          "rotation": 0,
          "visible": true,
          "properties": [
            {
              "name": "editorOnly",
              "type": "bool",
              "value": true
            },
            {
              "name": "runtimeId",
              "type": "string",
              "value": "level_5_oficinas_selene_descenso-reference"
            }
          ],
          "image": "../../../../../public/ground-floor-reconquista-sector.jpg"
        }
      ],
      "locked": true,
      "properties": [
        {
          "name": "editorOnly",
          "type": "bool",
          "value": true
        }
      ]
    },
    {
      "id": 3,
      "name": "Background",
      "type": "objectgroup",
      "draworder": "topdown",
      "opacity": 1,
      "visible": true,
      "objects": []
    },
    {
      "id": 4,
      "name": "RearArchitecture",
      "type": "objectgroup",
      "draworder": "topdown",
      "opacity": 1,
      "visible": true,
      "objects": []
    },
    {
      "id": 5,
      "name": "Architecture",
      "type": "objectgroup",
      "draworder": "topdown",
      "opacity": 1,
      "visible": true,
      "objects": []
    },
    {
      "id": 6,
      "name": "RearProps",
      "type": "objectgroup",
      "draworder": "topdown",
      "opacity": 1,
      "visible": true,
      "objects": []
    },
    {
      "id": 7,
      "name": "GameplayDecor",
      "type": "objectgroup",
      "draworder": "topdown",
      "opacity": 1,
      "visible": true,
      "objects": []
    },
    {
      "id": 8,
      "name": "FrontProps",
      "type": "objectgroup",
      "draworder": "topdown",
      "opacity": 1,
      "visible": true,
      "objects": []
    },
    {
      "id": 9,
      "name": "Foreground",
      "type": "objectgroup",
      "draworder": "topdown",
      "opacity": 1,
      "visible": true,
      "objects": []
    },
    {
      "id": 10,
      "name": "LightingAnchors",
      "type": "objectgroup",
      "draworder": "topdown",
      "opacity": 1,
      "visible": true,
      "objects": []
    },
    {
      "id": 12,
      "name": "Collision",
      "type": "objectgroup",
      "draworder": "topdown",
      "opacity": 1,
      "visible": true,
      "objects": [
        {
          "id": 11,
          "name": "floor",
          "type": "floor",
          "x": 0,
          "y": 1048,
          "width": 7000,
          "height": 72,
          "rotation": 0,
          "visible": true,
          "properties": [
            {
              "name": "runtimeId",
              "type": "string",
              "value": "level_5_oficinas_selene_descenso-floor"
            },
            {
              "name": "collisionCategory",
              "type": "string",
              "value": "World"
            },
            {
              "name": "collisionMask",
              "type": "string",
              "value": "Player|Ally|Enemy|Projectile"
            },
            {
              "name": "sensor",
              "type": "bool",
              "value": false
            },
            {
              "name": "floorId",
              "type": "string",
              "value": "floor-13"
            }
          ]
        }
      ]
    },
    {
      "id": 13,
      "name": "OneWayPlatforms",
      "type": "objectgroup",
      "draworder": "topdown",
      "opacity": 1,
      "visible": true,
      "objects": []
    },
    {
      "id": 15,
      "name": "Stairs",
      "type": "objectgroup",
      "draworder": "topdown",
      "opacity": 1,
      "visible": true,
      "objects": [
        {
          "id": 14,
          "name": "internal-stair",
          "type": "internal-stair",
          "x": 3360,
          "y": 748,
          "width": 520,
          "height": 300,
          "rotation": 0,
          "visible": true,
          "properties": [
            {
              "name": "runtimeId",
              "type": "string",
              "value": "level_5_oficinas_selene_descenso-stair"
            },
            {
              "name": "stairId",
              "type": "string",
              "value": "level_5_oficinas_selene_descenso-stair"
            },
            {
              "name": "stairKind",
              "type": "string",
              "value": "internal"
            },
            {
              "name": "direction",
              "type": "string",
              "value": "down-right"
            },
            {
              "name": "fromElevation",
              "type": "float",
              "value": 300
            },
            {
              "name": "toElevation",
              "type": "float",
              "value": 0
            },
            {
              "name": "entrySide",
              "type": "string",
              "value": "left"
            },
            {
              "name": "exitSide",
              "type": "string",
              "value": "right"
            },
            {
              "name": "allowsPlayer",
              "type": "bool",
              "value": true
            },
            {
              "name": "allowsAllies",
              "type": "bool",
              "value": true
            },
            {
              "name": "allowsEnemies",
              "type": "bool",
              "value": true
            },
            {
              "name": "sensor",
              "type": "bool",
              "value": true
            },
            {
              "name": "interactionId",
              "type": "string",
              "value": "level_5_oficinas_selene_descenso-stair-assist"
            }
          ]
        }
      ]
    },
    {
      "id": 17,
      "name": "PlayerSpawns",
      "type": "objectgroup",
      "draworder": "topdown",
      "opacity": 1,
      "visible": true,
      "objects": [
        {
          "id": 16,
          "name": "default-spawn",
          "type": "default-spawn",
          "x": 240,
          "y": 980,
          "width": 40,
          "height": 72,
          "rotation": 0,
          "visible": true,
          "properties": [
            {
              "name": "runtimeId",
              "type": "string",
              "value": "level_5_oficinas_selene_descenso-spawn-default"
            },
            {
              "name": "spawnId",
              "type": "string",
              "value": "default"
            },
            {
              "name": "floorId",
              "type": "string",
              "value": "floor-13"
            },
            {
              "name": "elevation",
              "type": "float",
              "value": 0
            }
          ]
        }
      ]
    },
    {
      "id": 18,
      "name": "AllySpawns",
      "type": "objectgroup",
      "draworder": "topdown",
      "opacity": 1,
      "visible": true,
      "objects": []
    },
    {
      "id": 19,
      "name": "EnemySpawns",
      "type": "objectgroup",
      "draworder": "topdown",
      "opacity": 1,
      "visible": true,
      "objects": []
    },
    {
      "id": 20,
      "name": "SpawnAreas",
      "type": "objectgroup",
      "draworder": "topdown",
      "opacity": 1,
      "visible": true,
      "objects": []
    },
    {
      "id": 23,
      "name": "Interactables",
      "type": "objectgroup",
      "draworder": "topdown",
      "opacity": 1,
      "visible": true,
      "objects": [
        {
          "id": 21,
          "name": "lvl06-esc01-quinto-piso-pertenencias-checkpoint",
          "type": "lvl06-esc01-quinto-piso-pertenencias-checkpoint",
          "x": 3500,
          "y": 980,
          "width": 64,
          "height": 96,
          "rotation": 0,
          "visible": true,
          "properties": [
            {
              "name": "runtimeId",
              "type": "string",
              "value": "lvl06-esc01-quinto-piso-pertenencias-checkpoint"
            },
            {
              "name": "interactionId",
              "type": "string",
              "value": "lvl06-esc01-quinto-piso-pertenencias-checkpoint"
            },
            {
              "name": "prompt",
              "type": "string",
              "value": "E · Asegurar checkpoint"
            },
            {
              "name": "sensor",
              "type": "bool",
              "value": true
            }
          ]
        },
        {
          "id": 22,
          "name": "lvl06-esc01-quinto-piso-pertenencias-exit",
          "type": "lvl06-esc01-quinto-piso-pertenencias-exit",
          "x": 6700,
          "y": 980,
          "width": 64,
          "height": 96,
          "rotation": 0,
          "visible": true,
          "properties": [
            {
              "name": "runtimeId",
              "type": "string",
              "value": "lvl06-esc01-quinto-piso-pertenencias-exit"
            },
            {
              "name": "interactionId",
              "type": "string",
              "value": "lvl06-esc01-quinto-piso-pertenencias-exit"
            },
            {
              "name": "prompt",
              "type": "string",
              "value": "E · Continuar"
            },
            {
              "name": "sensor",
              "type": "bool",
              "value": true
            }
          ]
        }
      ]
    },
    {
      "id": 25,
      "name": "Triggers",
      "type": "objectgroup",
      "draworder": "topdown",
      "opacity": 1,
      "visible": true,
      "objects": [
        {
          "id": 24,
          "name": "lvl06-esc01-quinto-piso-pertenencias-narrative",
          "type": "lvl06-esc01-quinto-piso-pertenencias-narrative",
          "width": 64,
          "height": 96,
          "rotation": 0,
          "visible": true,
          "properties": [
            {
              "name": "runtimeId",
              "type": "string",
              "value": "lvl06-esc01-quinto-piso-pertenencias-narrative"
            },
            {
              "name": "targetId",
              "type": "string",
              "value": ""
            },
            {
              "name": "sensor",
              "type": "bool",
              "value": true
            }
          ]
        }
      ]
    },
    {
      "id": 27,
      "name": "Objectives",
      "type": "objectgroup",
      "draworder": "topdown",
      "opacity": 1,
      "visible": true,
      "objects": [
        {
          "id": 26,
          "name": "lvl06-esc01-quinto-piso-pertenencias-objective",
          "type": "lvl06-esc01-quinto-piso-pertenencias-objective",
          "x": 400,
          "y": 884,
          "width": 48,
          "height": 48,
          "rotation": 0,
          "visible": true,
          "properties": [
            {
              "name": "runtimeId",
              "type": "string",
              "value": "lvl06-esc01-quinto-piso-pertenencias-objective"
            },
            {
              "name": "objectiveId",
              "type": "string",
              "value": "lvl06-esc01-quinto-piso-pertenencias-objective"
            },
            {
              "name": "targetId",
              "type": "string",
              "value": "salida-quinto"
            }
          ]
        }
      ]
    },
    {
      "id": 29,
      "name": "Checkpoints",
      "type": "objectgroup",
      "draworder": "topdown",
      "opacity": 1,
      "visible": true,
      "objects": [
        {
          "id": 28,
          "name": "lvl06-esc01-quinto-piso-pertenencias-checkpoint",
          "type": "lvl06-esc01-quinto-piso-pertenencias-checkpoint",
          "x": 3500,
          "y": 980,
          "width": 64,
          "height": 96,
          "rotation": 0,
          "visible": true,
          "properties": [
            {
              "name": "runtimeId",
              "type": "string",
              "value": "lvl06-esc01-quinto-piso-pertenencias-checkpoint-checkpoints"
            },
            {
              "name": "checkpointId",
              "type": "string",
              "value": "lvl06-esc01-quinto-piso-pertenencias-checkpoint"
            },
            {
              "name": "spawnId",
              "type": "string",
              "value": "default"
            },
            {
              "name": "sensor",
              "type": "bool",
              "value": true
            }
          ]
        }
      ]
    },
    {
      "id": 30,
      "name": "Pickups",
      "type": "objectgroup",
      "draworder": "topdown",
      "opacity": 1,
      "visible": true,
      "objects": []
    },
    {
      "id": 32,
      "name": "Exits",
      "type": "objectgroup",
      "draworder": "topdown",
      "opacity": 1,
      "visible": true,
      "objects": [
        {
          "id": 31,
          "name": "salida-quinto",
          "type": "salida-quinto",
          "x": 6820,
          "y": 928,
          "width": 100,
          "height": 120,
          "rotation": 0,
          "visible": true,
          "properties": [
            {
              "name": "runtimeId",
              "type": "string",
              "value": "salida-quinto"
            },
            {
              "name": "interactionId",
              "type": "string",
              "value": "salida-quinto"
            },
            {
              "name": "connectorId",
              "type": "string",
              "value": "salida-quinto"
            },
            {
              "name": "targetNodeId",
              "type": "string",
              "value": "lvl06-cin01-reencuentro-y-salida-e"
            },
            {
              "name": "targetConnectorId",
              "type": "string",
              "value": "default"
            },
            {
              "name": "enabledByObjectiveId",
              "type": "string",
              "value": "lvl06-esc01-quinto-piso-pertenencias-objective"
            },
            {
              "name": "sensor",
              "type": "bool",
              "value": true
            },
            {
              "name": "prompt",
              "type": "string",
              "value": "Usar salida"
            }
          ]
        }
      ]
    },
    {
      "id": 34,
      "name": "CameraBounds",
      "type": "objectgroup",
      "draworder": "topdown",
      "opacity": 1,
      "visible": true,
      "objects": [
        {
          "id": 33,
          "name": "camera-bounds",
          "type": "camera-bounds",
          "x": 0,
          "y": 0,
          "width": 7000,
          "height": 1120,
          "rotation": 0,
          "visible": true,
          "properties": [
            {
              "name": "runtimeId",
              "type": "string",
              "value": "level_5_oficinas_selene_descenso-camera"
            },
            {
              "name": "editorOnly",
              "type": "bool",
              "value": false
            }
          ]
        }
      ]
    },
    {
      "id": 35,
      "name": "NavigationHints",
      "type": "objectgroup",
      "draworder": "topdown",
      "opacity": 1,
      "visible": true,
      "objects": []
    }
  ],
  "properties": [
    {
      "name": "schemaVersion",
      "type": "int",
      "value": 1
    },
    {
      "name": "nodeId",
      "type": "string",
      "value": "lvl06-esc01-quinto-piso-pertenencias"
    },
    {
      "name": "canonicalNodeIds",
      "type": "string",
      "value": "lvl06-esc01-quinto-piso-pertenencias"
    },
    {
      "name": "runtimeLevelId",
      "type": "string",
      "value": "level_5_oficinas_selene_descenso"
    },
    {
      "name": "locationId",
      "type": "string",
      "value": "level5_oficinas_selene_descenso"
    },
    {
      "name": "locationLabel",
      "type": "string",
      "value": "Recuperar las pertenencias y alcanzar la salida E."
    },
    {
      "name": "floorId",
      "type": "string",
      "value": "floor-13"
    },
    {
      "name": "floorLabel",
      "type": "string",
      "value": "Piso canónico 13"
    },
    {
      "name": "canonicalIndex",
      "type": "int",
      "value": 13
    },
    {
      "name": "entryConnectorId",
      "type": "string",
      "value": "default"
    },
    {
      "name": "exitConnectorId",
      "type": "string",
      "value": "salida-quinto"
    },
    {
      "name": "targetNodeId",
      "type": "string",
      "value": "lvl06-cin01-reencuentro-y-salida-e"
    },
    {
      "name": "defaultCameraZoom",
      "type": "float",
      "value": 1.34
    },
    {
      "name": "gravityScale",
      "type": "float",
      "value": 1
    },
    {
      "name": "referencePhotoPath",
      "type": "file",
      "value": "public/ground-floor-reconquista-sector.jpg"
    },
    {
      "name": "runtimeBackgroundPath",
      "type": "file",
      "value": ""
    },
    {
      "name": "supportsVerticalCamera",
      "type": "bool",
      "value": true
    },
    {
      "name": "musicProfile",
      "type": "string",
      "value": "campaign-default"
    },
    {
      "name": "environmentProfile",
      "type": "string",
      "value": "level5_oficinas_selene_descenso"
    }
  ],
  "backgroundcolor": "#111827"
}
