{
  "compressionlevel": -1,
  "height": 27,
  "width": 175,
  "infinite": false,
  "nextlayerid": 45,
  "nextobjectid": 63,
  "orientation": "orthogonal",
  "renderorder": "right-down",
  "tiledversion": "1.11.2",
  "tileheight": 32,
  "tilewidth": 32,
  "type": "map",
  "version": "1.10",
  "layers": [
    {
      "id": 2,
      "name": "BackgroundReference",
      "type": "objectgroup",
      "draworder": "topdown",
      "opacity": 1,
      "visible": false,
      "objects": [
        {
          "id": 1,
          "name": "reference-photo",
          "type": "reference-photo",
          "x": 0,
          "y": 0,
          "width": 5600,
          "height": 864,
          "rotation": 0,
          "visible": true,
          "properties": [
            {
              "name": "editorOnly",
              "type": "bool",
              "value": true
            },
            {
              "name": "runtimeId",
              "type": "string",
              "value": "level_1_pasillos_escaleras_pb-reference"
            }
          ],
          "image": "../../../../../public/ground-floor-25may-sector.jpg"
        }
      ],
      "locked": true,
      "properties": [
        {
          "name": "editorOnly",
          "type": "bool",
          "value": true
        }
      ]
    },
    {
      "id": 3,
      "name": "Background",
      "type": "objectgroup",
      "draworder": "topdown",
      "opacity": 1,
      "visible": true,
      "objects": [
        {
          "id": 39,
          "name": "context-wall",
          "type": "visual",
          "x": 0,
          "y": 444,
          "width": 5600,
          "height": 420,
          "rotation": 0,
          "visible": true,
          "properties": [
            {
              "name": "assetKey",
              "type": "string",
              "value": "wall-damaged"
            },
            {
              "name": "visualRole",
              "type": "string",
              "value": "background"
            },
            {
              "name": "sector",
              "type": "string",
              "value": "salida-comedor"
            },
            {
              "name": "depth",
              "type": "int",
              "value": -50
            },
            {
              "name": "runtimeId",
              "type": "string",
              "value": "level_1_pasillos_escaleras_pb-visual-39"
            }
          ]
        }
      ]
    },
    {
      "id": 41,
      "name": "DistantArchitecture",
      "type": "objectgroup",
      "draworder": "topdown",
      "opacity": 1,
      "visible": true,
      "objects": [
        {
          "id": 40,
          "name": "distant-depth",
          "type": "visual",
          "x": 448,
          "y": 364,
          "width": 4704,
          "height": 260,
          "rotation": 0,
          "visible": true,
          "properties": [
            {
              "name": "assetKey",
              "type": "string",
              "value": "service-door"
            },
            {
              "name": "visualRole",
              "type": "string",
              "value": "distantArchitecture"
            },
            {
              "name": "sector",
              "type": "string",
              "value": "salida-comedor"
            },
            {
              "name": "depth",
              "type": "int",
              "value": -40
            },
            {
              "name": "runtimeId",
              "type": "string",
              "value": "level_1_pasillos_escaleras_pb-visual-40"
            }
          ]
        }
      ]
    },
    {
      "id": 4,
      "name": "RearArchitecture",
      "type": "objectgroup",
      "draworder": "topdown",
      "opacity": 1,
      "visible": true,
      "objects": []
    },
    {
      "id": 5,
      "name": "Architecture",
      "type": "objectgroup",
      "draworder": "topdown",
      "opacity": 1,
      "visible": true,
      "objects": [
        {
          "id": 41,
          "name": "salida-comedor-architecture",
          "type": "visual",
          "x": 327,
          "y": 534,
          "width": 340,
          "height": 210,
          "rotation": 0,
          "visible": true,
          "properties": [
            {
              "name": "assetKey",
              "type": "string",
              "value": "service-door"
            },
            {
              "name": "visualRole",
              "type": "string",
              "value": "architecture"
            },
            {
              "name": "sector",
              "type": "string",
              "value": "salida-comedor"
            },
            {
              "name": "depth",
              "type": "int",
              "value": -15
            },
            {
              "name": "runtimeId",
              "type": "string",
              "value": "level_1_pasillos_escaleras_pb-visual-41"
            }
          ]
        },
        {
          "id": 42,
          "name": "servicio-architecture",
          "type": "visual",
          "x": 1260,
          "y": 534,
          "width": 340,
          "height": 210,
          "rotation": 0,
          "visible": true,
          "properties": [
            {
              "name": "assetKey",
              "type": "string",
              "value": "security-bars"
            },
            {
              "name": "visualRole",
              "type": "string",
              "value": "architecture"
            },
            {
              "name": "sector",
              "type": "string",
              "value": "servicio"
            },
            {
              "name": "depth",
              "type": "int",
              "value": -15
            },
            {
              "name": "runtimeId",
              "type": "string",
              "value": "level_1_pasillos_escaleras_pb-visual-42"
            }
          ]
        },
        {
          "id": 43,
          "name": "ventanillas-architecture",
          "type": "visual",
          "x": 2193,
          "y": 534,
          "width": 340,
          "height": 210,
          "rotation": 0,
          "visible": true,
          "properties": [
            {
              "name": "assetKey",
              "type": "string",
              "value": "teller-window"
            },
            {
              "name": "visualRole",
              "type": "string",
              "value": "architecture"
            },
            {
              "name": "sector",
              "type": "string",
              "value": "ventanillas"
            },
            {
              "name": "depth",
              "type": "int",
              "value": -15
            },
            {
              "name": "runtimeId",
              "type": "string",
              "value": "level_1_pasillos_escaleras_pb-visual-43"
            }
          ]
        },
        {
          "id": 44,
          "name": "oficina-danada-architecture",
          "type": "visual",
          "x": 3127,
          "y": 534,
          "width": 340,
          "height": 210,
          "rotation": 0,
          "visible": true,
          "properties": [
            {
              "name": "assetKey",
              "type": "string",
              "value": "office-dark"
            },
            {
              "name": "visualRole",
              "type": "string",
              "value": "architecture"
            },
            {
              "name": "sector",
              "type": "string",
              "value": "oficina-danada"
            },
            {
              "name": "depth",
              "type": "int",
              "value": -15
            },
            {
              "name": "runtimeId",
              "type": "string",
              "value": "level_1_pasillos_escaleras_pb-visual-44"
            }
          ]
        },
        {
          "id": 45,
          "name": "corredor-oscuro-architecture",
          "type": "visual",
          "x": 4060,
          "y": 534,
          "width": 340,
          "height": 210,
          "rotation": 0,
          "visible": true,
          "properties": [
            {
              "name": "assetKey",
              "type": "string",
              "value": "wall-damaged"
            },
            {
              "name": "visualRole",
              "type": "string",
              "value": "architecture"
            },
            {
              "name": "sector",
              "type": "string",
              "value": "corredor-oscuro"
            },
            {
              "name": "depth",
              "type": "int",
              "value": -15
            },
            {
              "name": "runtimeId",
              "type": "string",
              "value": "level_1_pasillos_escaleras_pb-visual-45"
            }
          ]
        },
        {
          "id": 46,
          "name": "aproximacion-escaleras-architecture",
          "type": "visual",
          "x": 4993,
          "y": 534,
          "width": 340,
          "height": 210,
          "rotation": 0,
          "visible": true,
          "properties": [
            {
              "name": "assetKey",
              "type": "string",
              "value": "stairs-end"
            },
            {
              "name": "visualRole",
              "type": "string",
              "value": "architecture"
            },
            {
              "name": "sector",
              "type": "string",
              "value": "aproximacion-escaleras"
            },
            {
              "name": "depth",
              "type": "int",
              "value": -15
            },
            {
              "name": "runtimeId",
              "type": "string",
              "value": "level_1_pasillos_escaleras_pb-visual-46"
            }
          ]
        }
      ]
    },
    {
      "id": 6,
      "name": "RearProps",
      "type": "objectgroup",
      "draworder": "topdown",
      "opacity": 1,
      "visible": true,
      "objects": [
        {
          "id": 53,
          "name": "upper-services",
          "type": "visual",
          "x": 1568,
          "y": 434,
          "width": 220,
          "height": 64,
          "rotation": 0,
          "visible": true,
          "properties": [
            {
              "name": "assetKey",
              "type": "string",
              "value": "pipe-bundle"
            },
            {
              "name": "visualRole",
              "type": "string",
              "value": "rearProp"
            },
            {
              "name": "sector",
              "type": "string",
              "value": "servicio"
            },
            {
              "name": "depth",
              "type": "int",
              "value": -5
            },
            {
              "name": "runtimeId",
              "type": "string",
              "value": "level_1_pasillos_escaleras_pb-visual-53"
            }
          ]
        }
      ]
    },
    {
      "id": 7,
      "name": "GameplayDecor",
      "type": "objectgroup",
      "draworder": "topdown",
      "opacity": 1,
      "visible": true,
      "objects": [
        {
          "id": 47,
          "name": "salida-comedor-decor-1",
          "type": "visual",
          "x": 607,
          "y": 718,
          "width": 180,
          "height": 76,
          "rotation": 0,
          "visible": true,
          "properties": [
            {
              "name": "assetKey",
              "type": "string",
              "value": "trash-bin"
            },
            {
              "name": "visualRole",
              "type": "string",
              "value": "gameplayDecor"
            },
            {
              "name": "sector",
              "type": "string",
              "value": "salida-comedor"
            },
            {
              "name": "depth",
              "type": "int",
              "value": 2
            },
            {
              "name": "runtimeId",
              "type": "string",
              "value": "level_1_pasillos_escaleras_pb-visual-47"
            }
          ]
        },
        {
          "id": 48,
          "name": "servicio-decor-2",
          "type": "visual",
          "x": 1540,
          "y": 718,
          "width": 180,
          "height": 76,
          "rotation": 0,
          "visible": true,
          "properties": [
            {
              "name": "assetKey",
              "type": "string",
              "value": "cable-tray"
            },
            {
              "name": "visualRole",
              "type": "string",
              "value": "gameplayDecor"
            },
            {
              "name": "sector",
              "type": "string",
              "value": "servicio"
            },
            {
              "name": "depth",
              "type": "int",
              "value": 2
            },
            {
              "name": "runtimeId",
              "type": "string",
              "value": "level_1_pasillos_escaleras_pb-visual-48"
            }
          ]
        },
        {
          "id": 49,
          "name": "ventanillas-decor-3",
          "type": "visual",
          "x": 2473,
          "y": 718,
          "width": 180,
          "height": 76,
          "rotation": 0,
          "visible": true,
          "properties": [
            {
              "name": "assetKey",
              "type": "string",
              "value": "bank-bench"
            },
            {
              "name": "visualRole",
              "type": "string",
              "value": "gameplayDecor"
            },
            {
              "name": "sector",
              "type": "string",
              "value": "ventanillas"
            },
            {
              "name": "depth",
              "type": "int",
              "value": 2
            },
            {
              "name": "runtimeId",
              "type": "string",
              "value": "level_1_pasillos_escaleras_pb-visual-49"
            }
          ]
        },
        {
          "id": 50,
          "name": "oficina-danada-decor-4",
          "type": "visual",
          "x": 3407,
          "y": 718,
          "width": 180,
          "height": 76,
          "rotation": 0,
          "visible": true,
          "properties": [
            {
              "name": "assetKey",
              "type": "string",
              "value": "cracks-a"
            },
            {
              "name": "visualRole",
              "type": "string",
              "value": "gameplayDecor"
            },
            {
              "name": "sector",
              "type": "string",
              "value": "oficina-danada"
            },
            {
              "name": "depth",
              "type": "int",
              "value": 2
            },
            {
              "name": "runtimeId",
              "type": "string",
              "value": "level_1_pasillos_escaleras_pb-visual-50"
            }
          ]
        },
        {
          "id": 51,
          "name": "corredor-oscuro-decor-5",
          "type": "visual",
          "x": 4340,
          "y": 718,
          "width": 180,
          "height": 76,
          "rotation": 0,
          "visible": true,
          "properties": [
            {
              "name": "assetKey",
              "type": "string",
              "value": "humidity"
            },
            {
              "name": "visualRole",
              "type": "string",
              "value": "gameplayDecor"
            },
            {
              "name": "sector",
              "type": "string",
              "value": "corredor-oscuro"
            },
            {
              "name": "depth",
              "type": "int",
              "value": 2
            },
            {
              "name": "runtimeId",
              "type": "string",
              "value": "level_1_pasillos_escaleras_pb-visual-51"
            }
          ]
        },
        {
          "id": 52,
          "name": "aproximacion-escaleras-decor-6",
          "type": "visual",
          "x": 5273,
          "y": 718,
          "width": 180,
          "height": 76,
          "rotation": 0,
          "visible": true,
          "properties": [
            {
              "name": "assetKey",
              "type": "string",
              "value": "exit-sign"
            },
            {
              "name": "visualRole",
              "type": "string",
              "value": "gameplayDecor"
            },
            {
              "name": "sector",
              "type": "string",
              "value": "aproximacion-escaleras"
            },
            {
              "name": "depth",
              "type": "int",
              "value": 2
            },
            {
              "name": "runtimeId",
              "type": "string",
              "value": "level_1_pasillos_escaleras_pb-visual-52"
            }
          ]
        }
      ]
    },
    {
      "id": 8,
      "name": "FrontProps",
      "type": "objectgroup",
      "draworder": "topdown",
      "opacity": 1,
      "visible": true,
      "objects": [
        {
          "id": 54,
          "name": "route-damage",
          "type": "visual",
          "x": 3248,
          "y": 769,
          "width": 180,
          "height": 40,
          "rotation": 0,
          "visible": true,
          "properties": [
            {
              "name": "assetKey",
              "type": "string",
              "value": "floor-damage"
            },
            {
              "name": "visualRole",
              "type": "string",
              "value": "frontProp"
            },
            {
              "name": "sector",
              "type": "string",
              "value": "corredor-oscuro"
            },
            {
              "name": "depth",
              "type": "int",
              "value": 6
            },
            {
              "name": "runtimeId",
              "type": "string",
              "value": "level_1_pasillos_escaleras_pb-visual-54"
            }
          ]
        }
      ]
    },
    {
      "id": 9,
      "name": "Foreground",
      "type": "objectgroup",
      "draworder": "topdown",
      "opacity": 1,
      "visible": true,
      "objects": [
        {
          "id": 55,
          "name": "foreground-left",
          "type": "visual",
          "x": 112,
          "y": 564,
          "width": 90,
          "height": 260,
          "rotation": 0,
          "visible": true,
          "properties": [
            {
              "name": "assetKey",
              "type": "string",
              "value": "foreground-column"
            },
            {
              "name": "visualRole",
              "type": "string",
              "value": "foreground"
            },
            {
              "name": "sector",
              "type": "string",
              "value": "salida-comedor"
            },
            {
              "name": "depth",
              "type": "int",
              "value": 80
            },
            {
              "name": "runtimeId",
              "type": "string",
              "value": "level_1_pasillos_escaleras_pb-visual-55"
            }
          ]
        },
        {
          "id": 56,
          "name": "foreground-right",
          "type": "visual",
          "x": 4928,
          "y": 594,
          "width": 150,
          "height": 230,
          "rotation": 0,
          "visible": true,
          "properties": [
            {
              "name": "assetKey",
              "type": "string",
              "value": "foreground-bars"
            },
            {
              "name": "visualRole",
              "type": "string",
              "value": "foreground"
            },
            {
              "name": "sector",
              "type": "string",
              "value": "aproximacion-escaleras"
            },
            {
              "name": "depth",
              "type": "int",
              "value": 80
            },
            {
              "name": "runtimeId",
              "type": "string",
              "value": "level_1_pasillos_escaleras_pb-visual-56"
            }
          ]
        }
      ]
    },
    {
      "id": 10,
      "name": "LightingAnchors",
      "type": "objectgroup",
      "draworder": "topdown",
      "opacity": 1,
      "visible": true,
      "objects": [
        {
          "id": 60,
          "name": "practical-light-1",
          "type": "light-anchor",
          "x": 1232,
          "y": 474,
          "width": 1,
          "height": 1,
          "rotation": 0,
          "visible": true,
          "properties": [
            {
              "name": "lightAnchorId",
              "type": "string",
              "value": "level_1_pasillos_escaleras_pb-light-1"
            },
            {
              "name": "tint",
              "type": "string",
              "value": "0xffd27a"
            },
            {
              "name": "qualityTier",
              "type": "string",
              "value": "balanced"
            },
            {
              "name": "runtimeId",
              "type": "string",
              "value": "level_1_pasillos_escaleras_pb-visual-60"
            }
          ]
        },
        {
          "id": 61,
          "name": "practical-light-2",
          "type": "light-anchor",
          "x": 2912,
          "y": 474,
          "width": 1,
          "height": 1,
          "rotation": 0,
          "visible": true,
          "properties": [
            {
              "name": "lightAnchorId",
              "type": "string",
              "value": "level_1_pasillos_escaleras_pb-light-2"
            },
            {
              "name": "tint",
              "type": "string",
              "value": "0xb9d8ff"
            },
            {
              "name": "qualityTier",
              "type": "string",
              "value": "balanced"
            },
            {
              "name": "runtimeId",
              "type": "string",
              "value": "level_1_pasillos_escaleras_pb-visual-61"
            }
          ]
        },
        {
          "id": 62,
          "name": "practical-light-3",
          "type": "light-anchor",
          "x": 4480,
          "y": 474,
          "width": 1,
          "height": 1,
          "rotation": 0,
          "visible": true,
          "properties": [
            {
              "name": "lightAnchorId",
              "type": "string",
              "value": "level_1_pasillos_escaleras_pb-light-3"
            },
            {
              "name": "tint",
              "type": "string",
              "value": "0xffd27a"
            },
            {
              "name": "qualityTier",
              "type": "string",
              "value": "balanced"
            },
            {
              "name": "runtimeId",
              "type": "string",
              "value": "level_1_pasillos_escaleras_pb-visual-62"
            }
          ]
        }
      ]
    },
    {
      "id": 44,
      "name": "OcclusionZones",
      "type": "objectgroup",
      "draworder": "topdown",
      "opacity": 1,
      "visible": true,
      "objects": [
        {
          "id": 59,
          "name": "localized-darkness",
          "type": "occlusion-zone",
          "x": 3808,
          "y": 464,
          "width": 896,
          "height": 300,
          "rotation": 0,
          "visible": true,
          "properties": [
            {
              "name": "alpha",
              "type": "float",
              "value": 0.18
            },
            {
              "name": "runtimeId",
              "type": "string",
              "value": "level_1_pasillos_escaleras_pb-visual-59"
            }
          ]
        }
      ]
    },
    {
      "id": 43,
      "name": "ReflectionZones",
      "type": "objectgroup",
      "draworder": "topdown",
      "opacity": 1,
      "visible": true,
      "objects": [
        {
          "id": 58,
          "name": "wet-floor",
          "type": "reflection-zone",
          "x": 1960,
          "y": 734,
          "width": 1680,
          "height": 70,
          "rotation": 0,
          "visible": true,
          "properties": [
            {
              "name": "reflectionStrength",
              "type": "float",
              "value": 0.28
            },
            {
              "name": "runtimeId",
              "type": "string",
              "value": "level_1_pasillos_escaleras_pb-visual-58"
            }
          ]
        }
      ]
    },
    {
      "id": 42,
      "name": "AmbientZones",
      "type": "objectgroup",
      "draworder": "topdown",
      "opacity": 1,
      "visible": true,
      "objects": [
        {
          "id": 57,
          "name": "ambient-main",
          "type": "ambient-zone",
          "x": 0,
          "y": 0,
          "width": 5600,
          "height": 864,
          "rotation": 0,
          "visible": true,
          "properties": [
            {
              "name": "tint",
              "type": "string",
              "value": "0x18212a"
            },
            {
              "name": "alpha",
              "type": "float",
              "value": 0.22
            },
            {
              "name": "qualityTier",
              "type": "string",
              "value": "balanced"
            },
            {
              "name": "runtimeId",
              "type": "string",
              "value": "level_1_pasillos_escaleras_pb-visual-57"
            }
          ]
        }
      ]
    },
    {
      "id": 12,
      "name": "Collision",
      "type": "objectgroup",
      "draworder": "topdown",
      "opacity": 1,
      "visible": true,
      "objects": [
        {
          "id": 11,
          "name": "floor",
          "type": "floor",
          "x": 0,
          "y": 800,
          "width": 5600,
          "height": 64,
          "rotation": 0,
          "visible": true,
          "properties": [
            {
              "name": "runtimeId",
              "type": "string",
              "value": "level_1_pasillos_escaleras_pb-floor"
            },
            {
              "name": "collisionCategory",
              "type": "string",
              "value": "World"
            },
            {
              "name": "collisionMask",
              "type": "string",
              "value": "Player|Ally|Enemy|Projectile"
            },
            {
              "name": "sensor",
              "type": "bool",
              "value": false
            },
            {
              "name": "floorId",
              "type": "string",
              "value": "floor-2"
            }
          ]
        }
      ]
    },
    {
      "id": 13,
      "name": "OneWayPlatforms",
      "type": "objectgroup",
      "draworder": "topdown",
      "opacity": 1,
      "visible": true,
      "objects": []
    },
    {
      "id": 15,
      "name": "Stairs",
      "type": "objectgroup",
      "draworder": "topdown",
      "opacity": 1,
      "visible": true,
      "objects": [
        {
          "id": 14,
          "name": "internal-stair",
          "type": "internal-stair",
          "x": 2688,
          "y": 500,
          "width": 520,
          "height": 300,
          "rotation": 0,
          "visible": true,
          "properties": [
            {
              "name": "runtimeId",
              "type": "string",
              "value": "level_1_pasillos_escaleras_pb-stair"
            },
            {
              "name": "stairId",
              "type": "string",
              "value": "level_1_pasillos_escaleras_pb-stair"
            },
            {
              "name": "stairKind",
              "type": "string",
              "value": "internal"
            },
            {
              "name": "direction",
              "type": "string",
              "value": "down-right"
            },
            {
              "name": "fromElevation",
              "type": "float",
              "value": 300
            },
            {
              "name": "toElevation",
              "type": "float",
              "value": 0
            },
            {
              "name": "entrySide",
              "type": "string",
              "value": "left"
            },
            {
              "name": "exitSide",
              "type": "string",
              "value": "right"
            },
            {
              "name": "allowsPlayer",
              "type": "bool",
              "value": true
            },
            {
              "name": "allowsAllies",
              "type": "bool",
              "value": true
            },
            {
              "name": "allowsEnemies",
              "type": "bool",
              "value": true
            },
            {
              "name": "sensor",
              "type": "bool",
              "value": true
            },
            {
              "name": "interactionId",
              "type": "string",
              "value": "level_1_pasillos_escaleras_pb-stair-assist"
            }
          ]
        }
      ]
    },
    {
      "id": 17,
      "name": "PlayerSpawns",
      "type": "objectgroup",
      "draworder": "topdown",
      "opacity": 1,
      "visible": true,
      "objects": [
        {
          "id": 16,
          "name": "default-spawn",
          "type": "default-spawn",
          "x": 240,
          "y": 724,
          "width": 40,
          "height": 72,
          "rotation": 0,
          "visible": true,
          "properties": [
            {
              "name": "runtimeId",
              "type": "string",
              "value": "level_1_pasillos_escaleras_pb-spawn-default"
            },
            {
              "name": "spawnId",
              "type": "string",
              "value": "default"
            },
            {
              "name": "floorId",
              "type": "string",
              "value": "floor-2"
            },
            {
              "name": "elevation",
              "type": "float",
              "value": 0
            }
          ]
        }
      ]
    },
    {
      "id": 18,
      "name": "AllySpawns",
      "type": "objectgroup",
      "draworder": "topdown",
      "opacity": 1,
      "visible": true,
      "objects": []
    },
    {
      "id": 21,
      "name": "EnemySpawns",
      "type": "objectgroup",
      "draworder": "topdown",
      "opacity": 1,
      "visible": true,
      "objects": [
        {
          "id": 19,
          "name": "pasillo-a-spawn",
          "type": "pasillo-a-spawn",
          "x": 2030,
          "y": 724,
          "width": 40,
          "height": 72,
          "rotation": 0,
          "visible": true,
          "properties": [
            {
              "name": "runtimeId",
              "type": "string",
              "value": "pasillo-a-spawn"
            },
            {
              "name": "spawnId",
              "type": "string",
              "value": "pasillo-a-spawn"
            },
            {
              "name": "floorId",
              "type": "string",
              "value": "floor-2"
            }
          ]
        },
        {
          "id": 20,
          "name": "pasillo-b-spawn",
          "type": "pasillo-b-spawn",
          "x": 3980,
          "y": 724,
          "width": 40,
          "height": 72,
          "rotation": 0,
          "visible": true,
          "properties": [
            {
              "name": "runtimeId",
              "type": "string",
              "value": "pasillo-b-spawn"
            },
            {
              "name": "spawnId",
              "type": "string",
              "value": "pasillo-b-spawn"
            },
            {
              "name": "floorId",
              "type": "string",
              "value": "floor-2"
            }
          ]
        }
      ]
    },
    {
      "id": 24,
      "name": "SpawnAreas",
      "type": "objectgroup",
      "draworder": "topdown",
      "opacity": 1,
      "visible": true,
      "objects": [
        {
          "id": 22,
          "name": "pasillo-a",
          "type": "pasillo-a",
          "x": 1250,
          "y": 494,
          "width": 1000,
          "height": 300,
          "rotation": 0,
          "visible": true,
          "properties": [
            {
              "name": "runtimeId",
              "type": "string",
              "value": "pasillo-a"
            },
            {
              "name": "sensor",
              "type": "bool",
              "value": true
            }
          ]
        },
        {
          "id": 23,
          "name": "pasillo-b",
          "type": "pasillo-b",
          "x": 3200,
          "y": 494,
          "width": 1000,
          "height": 300,
          "rotation": 0,
          "visible": true,
          "properties": [
            {
              "name": "runtimeId",
              "type": "string",
              "value": "pasillo-b"
            },
            {
              "name": "sensor",
              "type": "bool",
              "value": true
            }
          ]
        }
      ]
    },
    {
      "id": 27,
      "name": "Interactables",
      "type": "objectgroup",
      "draworder": "topdown",
      "opacity": 1,
      "visible": true,
      "objects": [
        {
          "id": 25,
          "name": "level_1_pasillos_escaleras_pb-checkpoint",
          "type": "level_1_pasillos_escaleras_pb-checkpoint",
          "x": 2800,
          "y": 724,
          "width": 64,
          "height": 96,
          "rotation": 0,
          "visible": true,
          "properties": [
            {
              "name": "runtimeId",
              "type": "string",
              "value": "level_1_pasillos_escaleras_pb-checkpoint"
            },
            {
              "name": "interactionId",
              "type": "string",
              "value": "level_1_pasillos_escaleras_pb-checkpoint"
            },
            {
              "name": "prompt",
              "type": "string",
              "value": "E · Asegurar checkpoint"
            },
            {
              "name": "sensor",
              "type": "bool",
              "value": true
            }
          ]
        },
        {
          "id": 26,
          "name": "level_1_pasillos_escaleras_pb-exit",
          "type": "level_1_pasillos_escaleras_pb-exit",
          "x": 5300,
          "y": 724,
          "width": 64,
          "height": 96,
          "rotation": 0,
          "visible": true,
          "properties": [
            {
              "name": "runtimeId",
              "type": "string",
              "value": "level_1_pasillos_escaleras_pb-exit"
            },
            {
              "name": "interactionId",
              "type": "string",
              "value": "level_1_pasillos_escaleras_pb-exit"
            },
            {
              "name": "prompt",
              "type": "string",
              "value": "E · Subir hacia Planta Baja"
            },
            {
              "name": "sensor",
              "type": "bool",
              "value": true
            }
          ]
        }
      ]
    },
    {
      "id": 29,
      "name": "Triggers",
      "type": "objectgroup",
      "draworder": "topdown",
      "opacity": 1,
      "visible": true,
      "objects": [
        {
          "id": 28,
          "name": "level_1_pasillos_escaleras_pb-narrative",
          "type": "level_1_pasillos_escaleras_pb-narrative",
          "width": 64,
          "height": 96,
          "rotation": 0,
          "visible": true,
          "properties": [
            {
              "name": "runtimeId",
              "type": "string",
              "value": "level_1_pasillos_escaleras_pb-narrative"
            },
            {
              "name": "targetId",
              "type": "string",
              "value": ""
            },
            {
              "name": "sensor",
              "type": "bool",
              "value": true
            }
          ]
        }
      ]
    },
    {
      "id": 31,
      "name": "Objectives",
      "type": "objectgroup",
      "draworder": "topdown",
      "opacity": 1,
      "visible": true,
      "objects": [
        {
          "id": 30,
          "name": "level_1_pasillos_escaleras_pb-objective",
          "type": "level_1_pasillos_escaleras_pb-objective",
          "x": 400,
          "y": 628,
          "width": 48,
          "height": 48,
          "rotation": 0,
          "visible": true,
          "properties": [
            {
              "name": "runtimeId",
              "type": "string",
              "value": "level_1_pasillos_escaleras_pb-objective"
            },
            {
              "name": "objectiveId",
              "type": "string",
              "value": "level_1_pasillos_escaleras_pb-objective"
            },
            {
              "name": "targetId",
              "type": "string",
              "value": "salida-pasillos"
            }
          ]
        }
      ]
    },
    {
      "id": 33,
      "name": "Checkpoints",
      "type": "objectgroup",
      "draworder": "topdown",
      "opacity": 1,
      "visible": true,
      "objects": [
        {
          "id": 32,
          "name": "level_1_pasillos_escaleras_pb-checkpoint",
          "type": "level_1_pasillos_escaleras_pb-checkpoint",
          "x": 2800,
          "y": 724,
          "width": 64,
          "height": 96,
          "rotation": 0,
          "visible": true,
          "properties": [
            {
              "name": "runtimeId",
              "type": "string",
              "value": "level_1_pasillos_escaleras_pb-checkpoint-checkpoints"
            },
            {
              "name": "checkpointId",
              "type": "string",
              "value": "level_1_pasillos_escaleras_pb-checkpoint"
            },
            {
              "name": "spawnId",
              "type": "string",
              "value": "default"
            },
            {
              "name": "sensor",
              "type": "bool",
              "value": true
            }
          ]
        }
      ]
    },
    {
      "id": 35,
      "name": "Pickups",
      "type": "objectgroup",
      "draworder": "topdown",
      "opacity": 1,
      "visible": true,
      "objects": [
        {
          "id": 34,
          "name": "level_1_pasillos_escaleras_pb-medkit",
          "type": "level_1_pasillos_escaleras_pb-medkit",
          "x": 2500,
          "y": 724,
          "width": 32,
          "height": 32,
          "rotation": 0,
          "visible": true,
          "properties": [
            {
              "name": "runtimeId",
              "type": "string",
              "value": "level_1_pasillos_escaleras_pb-medkit"
            },
            {
              "name": "targetId",
              "type": "string",
              "value": "level_1_pasillos_escaleras_pb-medkit"
            },
            {
              "name": "sensor",
              "type": "bool",
              "value": true
            }
          ]
        }
      ]
    },
    {
      "id": 37,
      "name": "Exits",
      "type": "objectgroup",
      "draworder": "topdown",
      "opacity": 1,
      "visible": true,
      "objects": [
        {
          "id": 36,
          "name": "salida-pasillos",
          "type": "salida-pasillos",
          "x": 5420,
          "y": 680,
          "width": 100,
          "height": 120,
          "rotation": 0,
          "visible": true,
          "properties": [
            {
              "name": "runtimeId",
              "type": "string",
              "value": "salida-pasillos"
            },
            {
              "name": "interactionId",
              "type": "string",
              "value": "salida-pasillos"
            },
            {
              "name": "connectorId",
              "type": "string",
              "value": "salida-pasillos"
            },
            {
              "name": "targetNodeId",
              "type": "string",
              "value": "lvl01-cin01-cierre-contextual"
            },
            {
              "name": "targetConnectorId",
              "type": "string",
              "value": "default"
            },
            {
              "name": "enabledByObjectiveId",
              "type": "string",
              "value": "level_1_pasillos_escaleras_pb-objective"
            },
            {
              "name": "sensor",
              "type": "bool",
              "value": true
            },
            {
              "name": "prompt",
              "type": "string",
              "value": "Usar salida"
            }
          ]
        }
      ]
    },
    {
      "id": 39,
      "name": "CameraBounds",
      "type": "objectgroup",
      "draworder": "topdown",
      "opacity": 1,
      "visible": true,
      "objects": [
        {
          "id": 38,
          "name": "camera-bounds",
          "type": "camera-bounds",
          "x": 0,
          "y": 0,
          "width": 5600,
          "height": 864,
          "rotation": 0,
          "visible": true,
          "properties": [
            {
              "name": "runtimeId",
              "type": "string",
              "value": "level_1_pasillos_escaleras_pb-camera"
            },
            {
              "name": "editorOnly",
              "type": "bool",
              "value": false
            }
          ]
        }
      ]
    },
    {
      "id": 40,
      "name": "NavigationHints",
      "type": "objectgroup",
      "draworder": "topdown",
      "opacity": 1,
      "visible": true,
      "objects": []
    }
  ],
  "properties": [
    {
      "name": "schemaVersion",
      "type": "int",
      "value": 1
    },
    {
      "name": "nodeId",
      "type": "string",
      "value": "lvl01-esc02-pasillos-hacia-escaleras-pb"
    },
    {
      "name": "canonicalNodeIds",
      "type": "string",
      "value": "lvl01-esc02-pasillos-hacia-escaleras-pb"
    },
    {
      "name": "runtimeLevelId",
      "type": "string",
      "value": "level_1_pasillos_escaleras_pb"
    },
    {
      "name": "locationId",
      "type": "string",
      "value": "level1_subsuelo_comedor_pasillos"
    },
    {
      "name": "locationLabel",
      "type": "string",
      "value": "Cruza los pasillos y alcanza las escaleras a Planta Baja."
    },
    {
      "name": "floorId",
      "type": "string",
      "value": "floor-2"
    },
    {
      "name": "floorLabel",
      "type": "string",
      "value": "Piso canónico 2"
    },
    {
      "name": "canonicalIndex",
      "type": "int",
      "value": 2
    },
    {
      "name": "entryConnectorId",
      "type": "string",
      "value": "default"
    },
    {
      "name": "exitConnectorId",
      "type": "string",
      "value": "salida-pasillos"
    },
    {
      "name": "targetNodeId",
      "type": "string",
      "value": "lvl01-cin01-cierre-contextual"
    },
    {
      "name": "defaultCameraZoom",
      "type": "float",
      "value": 1.34
    },
    {
      "name": "gravityScale",
      "type": "float",
      "value": 1
    },
    {
      "name": "referencePhotoPath",
      "type": "file",
      "value": "public/ground-floor-25may-sector.jpg"
    },
    {
      "name": "runtimeBackgroundPath",
      "type": "file",
      "value": ""
    },
    {
      "name": "supportsVerticalCamera",
      "type": "bool",
      "value": true
    },
    {
      "name": "musicProfile",
      "type": "string",
      "value": "campaign-default"
    },
    {
      "name": "environmentProfile",
      "type": "string",
      "value": "level1_subsuelo_comedor_pasillos"
    }
  ],
  "backgroundcolor": "#111827"
}
