{
  "compressionlevel": -1,
  "height": 40,
  "width": 300,
  "infinite": false,
  "nextlayerid": 36,
  "nextobjectid": 52,
  "orientation": "orthogonal",
  "renderorder": "right-down",
  "tiledversion": "1.11.2",
  "tileheight": 32,
  "tilewidth": 32,
  "type": "map",
  "version": "1.10",
  "layers": [
    {
      "id": 2,
      "name": "BackgroundReference",
      "type": "objectgroup",
      "draworder": "topdown",
      "opacity": 1,
      "visible": false,
      "objects": [
        {
          "id": 1,
          "name": "reference-photo",
          "type": "reference-photo",
          "x": 0,
          "y": 0,
          "width": 9600,
          "height": 1260,
          "rotation": 0,
          "visible": true,
          "properties": [
            {
              "name": "editorOnly",
              "type": "bool",
              "value": true
            },
            {
              "name": "runtimeId",
              "type": "string",
              "value": "level_10_llegada_san_telmo-reference"
            }
          ],
          "image": "../../../../../public/stairs.jpg"
        }
      ],
      "locked": true,
      "properties": [
        {
          "name": "editorOnly",
          "type": "bool",
          "value": true
        }
      ]
    },
    {
      "id": 3,
      "name": "Background",
      "type": "objectgroup",
      "draworder": "topdown",
      "opacity": 1,
      "visible": true,
      "objects": [
        {
          "id": 30,
          "name": "context-wall",
          "type": "visual",
          "x": 0,
          "y": 860,
          "width": 9600,
          "height": 420,
          "rotation": 0,
          "visible": true,
          "properties": [
            {
              "name": "assetKey",
              "type": "string",
              "value": "wall-clean"
            },
            {
              "name": "visualRole",
              "type": "string",
              "value": "background"
            },
            {
              "name": "sector",
              "type": "string",
              "value": "acceso"
            },
            {
              "name": "depth",
              "type": "int",
              "value": -50
            },
            {
              "name": "runtimeId",
              "type": "string",
              "value": "level_10_llegada_san_telmo-visual-30"
            }
          ]
        }
      ]
    },
    {
      "id": 32,
      "name": "DistantArchitecture",
      "type": "objectgroup",
      "draworder": "topdown",
      "opacity": 1,
      "visible": true,
      "objects": [
        {
          "id": 31,
          "name": "distant-depth",
          "type": "visual",
          "x": 768,
          "y": 780,
          "width": 8064,
          "height": 260,
          "rotation": 0,
          "visible": true,
          "properties": [
            {
              "name": "assetKey",
              "type": "string",
              "value": "service-door"
            },
            {
              "name": "visualRole",
              "type": "string",
              "value": "distantArchitecture"
            },
            {
              "name": "sector",
              "type": "string",
              "value": "acceso"
            },
            {
              "name": "depth",
              "type": "int",
              "value": -40
            },
            {
              "name": "runtimeId",
              "type": "string",
              "value": "level_10_llegada_san_telmo-visual-31"
            }
          ]
        }
      ]
    },
    {
      "id": 4,
      "name": "RearArchitecture",
      "type": "objectgroup",
      "draworder": "topdown",
      "opacity": 1,
      "visible": true,
      "objects": []
    },
    {
      "id": 5,
      "name": "Architecture",
      "type": "objectgroup",
      "draworder": "topdown",
      "opacity": 1,
      "visible": true,
      "objects": [
        {
          "id": 32,
          "name": "acceso-architecture",
          "type": "visual",
          "x": 840,
          "y": 950,
          "width": 340,
          "height": 210,
          "rotation": 0,
          "visible": true,
          "properties": [
            {
              "name": "assetKey",
              "type": "string",
              "value": "service-door"
            },
            {
              "name": "visualRole",
              "type": "string",
              "value": "architecture"
            },
            {
              "name": "sector",
              "type": "string",
              "value": "acceso"
            },
            {
              "name": "depth",
              "type": "int",
              "value": -15
            },
            {
              "name": "runtimeId",
              "type": "string",
              "value": "level_10_llegada_san_telmo-visual-32"
            }
          ]
        },
        {
          "id": 33,
          "name": "calle-destino-architecture",
          "type": "visual",
          "x": 3240,
          "y": 950,
          "width": 340,
          "height": 210,
          "rotation": 0,
          "visible": true,
          "properties": [
            {
              "name": "assetKey",
              "type": "string",
              "value": "wall-clean"
            },
            {
              "name": "visualRole",
              "type": "string",
              "value": "architecture"
            },
            {
              "name": "sector",
              "type": "string",
              "value": "calle-destino"
            },
            {
              "name": "depth",
              "type": "int",
              "value": -15
            },
            {
              "name": "runtimeId",
              "type": "string",
              "value": "level_10_llegada_san_telmo-visual-33"
            }
          ]
        },
        {
          "id": 34,
          "name": "umbral-architecture",
          "type": "visual",
          "x": 5640,
          "y": 950,
          "width": 340,
          "height": 210,
          "rotation": 0,
          "visible": true,
          "properties": [
            {
              "name": "assetKey",
              "type": "string",
              "value": "office-lit"
            },
            {
              "name": "visualRole",
              "type": "string",
              "value": "architecture"
            },
            {
              "name": "sector",
              "type": "string",
              "value": "umbral"
            },
            {
              "name": "depth",
              "type": "int",
              "value": -15
            },
            {
              "name": "runtimeId",
              "type": "string",
              "value": "level_10_llegada_san_telmo-visual-34"
            }
          ]
        },
        {
          "id": 35,
          "name": "desenlace-architecture",
          "type": "visual",
          "x": 8040,
          "y": 950,
          "width": 340,
          "height": 210,
          "rotation": 0,
          "visible": true,
          "properties": [
            {
              "name": "assetKey",
              "type": "string",
              "value": "exit-door"
            },
            {
              "name": "visualRole",
              "type": "string",
              "value": "architecture"
            },
            {
              "name": "sector",
              "type": "string",
              "value": "desenlace"
            },
            {
              "name": "depth",
              "type": "int",
              "value": -15
            },
            {
              "name": "runtimeId",
              "type": "string",
              "value": "level_10_llegada_san_telmo-visual-35"
            }
          ]
        }
      ]
    },
    {
      "id": 6,
      "name": "RearProps",
      "type": "objectgroup",
      "draworder": "topdown",
      "opacity": 1,
      "visible": true,
      "objects": [
        {
          "id": 42,
          "name": "upper-services",
          "type": "visual",
          "x": 2688,
          "y": 850,
          "width": 220,
          "height": 64,
          "rotation": 0,
          "visible": true,
          "properties": [
            {
              "name": "assetKey",
              "type": "string",
              "value": "pipe-bundle"
            },
            {
              "name": "visualRole",
              "type": "string",
              "value": "rearProp"
            },
            {
              "name": "sector",
              "type": "string",
              "value": "calle-destino"
            },
            {
              "name": "depth",
              "type": "int",
              "value": -5
            },
            {
              "name": "runtimeId",
              "type": "string",
              "value": "level_10_llegada_san_telmo-visual-42"
            }
          ]
        }
      ]
    },
    {
      "id": 7,
      "name": "GameplayDecor",
      "type": "objectgroup",
      "draworder": "topdown",
      "opacity": 1,
      "visible": true,
      "objects": [
        {
          "id": 36,
          "name": "acceso-decor-1",
          "type": "visual",
          "x": 1040,
          "y": 1134,
          "width": 180,
          "height": 76,
          "rotation": 0,
          "visible": true,
          "properties": [
            {
              "name": "assetKey",
              "type": "string",
              "value": "bank-signage"
            },
            {
              "name": "visualRole",
              "type": "string",
              "value": "gameplayDecor"
            },
            {
              "name": "sector",
              "type": "string",
              "value": "acceso"
            },
            {
              "name": "depth",
              "type": "int",
              "value": 2
            },
            {
              "name": "runtimeId",
              "type": "string",
              "value": "level_10_llegada_san_telmo-visual-36"
            }
          ]
        },
        {
          "id": 37,
          "name": "calle-destino-decor-2",
          "type": "visual",
          "x": 2640,
          "y": 1162,
          "width": 180,
          "height": 48,
          "rotation": 0,
          "visible": true,
          "properties": [
            {
              "name": "assetKey",
              "type": "string",
              "value": "paper-cluster"
            },
            {
              "name": "visualRole",
              "type": "string",
              "value": "gameplayDecor"
            },
            {
              "name": "sector",
              "type": "string",
              "value": "calle-destino"
            },
            {
              "name": "depth",
              "type": "int",
              "value": 2
            },
            {
              "name": "runtimeId",
              "type": "string",
              "value": "level_10_llegada_san_telmo-visual-37"
            }
          ]
        },
        {
          "id": 38,
          "name": "umbral-decor-3",
          "type": "visual",
          "x": 4240,
          "y": 1134,
          "width": 180,
          "height": 76,
          "rotation": 0,
          "visible": true,
          "properties": [
            {
              "name": "assetKey",
              "type": "string",
              "value": "bank-bench"
            },
            {
              "name": "visualRole",
              "type": "string",
              "value": "gameplayDecor"
            },
            {
              "name": "sector",
              "type": "string",
              "value": "umbral"
            },
            {
              "name": "depth",
              "type": "int",
              "value": 2
            },
            {
              "name": "runtimeId",
              "type": "string",
              "value": "level_10_llegada_san_telmo-visual-38"
            }
          ]
        },
        {
          "id": 39,
          "name": "desenlace-decor-4",
          "type": "visual",
          "x": 5840,
          "y": 1162,
          "width": 180,
          "height": 48,
          "rotation": 0,
          "visible": true,
          "properties": [
            {
              "name": "assetKey",
              "type": "string",
              "value": "debris"
            },
            {
              "name": "visualRole",
              "type": "string",
              "value": "gameplayDecor"
            },
            {
              "name": "sector",
              "type": "string",
              "value": "desenlace"
            },
            {
              "name": "depth",
              "type": "int",
              "value": 2
            },
            {
              "name": "runtimeId",
              "type": "string",
              "value": "level_10_llegada_san_telmo-visual-39"
            }
          ]
        },
        {
          "id": 40,
          "name": "desenlace-decor-5",
          "type": "visual",
          "x": 7440,
          "y": 1134,
          "width": 180,
          "height": 76,
          "rotation": 0,
          "visible": true,
          "properties": [
            {
              "name": "assetKey",
              "type": "string",
              "value": "cold-light"
            },
            {
              "name": "visualRole",
              "type": "string",
              "value": "gameplayDecor"
            },
            {
              "name": "sector",
              "type": "string",
              "value": "desenlace"
            },
            {
              "name": "depth",
              "type": "int",
              "value": 2
            },
            {
              "name": "runtimeId",
              "type": "string",
              "value": "level_10_llegada_san_telmo-visual-40"
            }
          ]
        },
        {
          "id": 41,
          "name": "desenlace-decor-6",
          "type": "visual",
          "x": 9040,
          "y": 1134,
          "width": 180,
          "height": 76,
          "rotation": 0,
          "visible": true,
          "properties": [
            {
              "name": "assetKey",
              "type": "string",
              "value": "exit-sign"
            },
            {
              "name": "visualRole",
              "type": "string",
              "value": "gameplayDecor"
            },
            {
              "name": "sector",
              "type": "string",
              "value": "desenlace"
            },
            {
              "name": "depth",
              "type": "int",
              "value": 2
            },
            {
              "name": "runtimeId",
              "type": "string",
              "value": "level_10_llegada_san_telmo-visual-41"
            }
          ]
        }
      ]
    },
    {
      "id": 8,
      "name": "FrontProps",
      "type": "objectgroup",
      "draworder": "topdown",
      "opacity": 1,
      "visible": true,
      "objects": [
        {
          "id": 43,
          "name": "route-damage",
          "type": "visual",
          "x": 5568,
          "y": 1185,
          "width": 180,
          "height": 40,
          "rotation": 0,
          "visible": true,
          "properties": [
            {
              "name": "assetKey",
              "type": "string",
              "value": "floor-damage"
            },
            {
              "name": "visualRole",
              "type": "string",
              "value": "frontProp"
            },
            {
              "name": "sector",
              "type": "string",
              "value": "umbral"
            },
            {
              "name": "depth",
              "type": "int",
              "value": 6
            },
            {
              "name": "runtimeId",
              "type": "string",
              "value": "level_10_llegada_san_telmo-visual-43"
            }
          ]
        }
      ]
    },
    {
      "id": 9,
      "name": "Foreground",
      "type": "objectgroup",
      "draworder": "topdown",
      "opacity": 1,
      "visible": true,
      "objects": [
        {
          "id": 44,
          "name": "foreground-left",
          "type": "visual",
          "x": 192,
          "y": 980,
          "width": 90,
          "height": 260,
          "rotation": 0,
          "visible": true,
          "properties": [
            {
              "name": "assetKey",
              "type": "string",
              "value": "foreground-column"
            },
            {
              "name": "visualRole",
              "type": "string",
              "value": "foreground"
            },
            {
              "name": "sector",
              "type": "string",
              "value": "acceso"
            },
            {
              "name": "depth",
              "type": "int",
              "value": 80
            },
            {
              "name": "runtimeId",
              "type": "string",
              "value": "level_10_llegada_san_telmo-visual-44"
            }
          ]
        },
        {
          "id": 45,
          "name": "foreground-right",
          "type": "visual",
          "x": 8448,
          "y": 1010,
          "width": 150,
          "height": 230,
          "rotation": 0,
          "visible": true,
          "properties": [
            {
              "name": "assetKey",
              "type": "string",
              "value": "foreground-bars"
            },
            {
              "name": "visualRole",
              "type": "string",
              "value": "foreground"
            },
            {
              "name": "sector",
              "type": "string",
              "value": "desenlace"
            },
            {
              "name": "depth",
              "type": "int",
              "value": 80
            },
            {
              "name": "runtimeId",
              "type": "string",
              "value": "level_10_llegada_san_telmo-visual-45"
            }
          ]
        }
      ]
    },
    {
      "id": 10,
      "name": "LightingAnchors",
      "type": "objectgroup",
      "draworder": "topdown",
      "opacity": 1,
      "visible": true,
      "objects": [
        {
          "id": 49,
          "name": "practical-light-1",
          "type": "light-anchor",
          "x": 2112,
          "y": 890,
          "width": 1,
          "height": 1,
          "rotation": 0,
          "visible": true,
          "properties": [
            {
              "name": "lightAnchorId",
              "type": "string",
              "value": "level_10_llegada_san_telmo-light-1"
            },
            {
              "name": "tint",
              "type": "string",
              "value": "0xffd27a"
            },
            {
              "name": "qualityTier",
              "type": "string",
              "value": "balanced"
            },
            {
              "name": "runtimeId",
              "type": "string",
              "value": "level_10_llegada_san_telmo-visual-49"
            }
          ]
        },
        {
          "id": 50,
          "name": "practical-light-2",
          "type": "light-anchor",
          "x": 4992,
          "y": 890,
          "width": 1,
          "height": 1,
          "rotation": 0,
          "visible": true,
          "properties": [
            {
              "name": "lightAnchorId",
              "type": "string",
              "value": "level_10_llegada_san_telmo-light-2"
            },
            {
              "name": "tint",
              "type": "string",
              "value": "0xb9d8ff"
            },
            {
              "name": "qualityTier",
              "type": "string",
              "value": "balanced"
            },
            {
              "name": "runtimeId",
              "type": "string",
              "value": "level_10_llegada_san_telmo-visual-50"
            }
          ]
        },
        {
          "id": 51,
          "name": "practical-light-3",
          "type": "light-anchor",
          "x": 7680,
          "y": 890,
          "width": 1,
          "height": 1,
          "rotation": 0,
          "visible": true,
          "properties": [
            {
              "name": "lightAnchorId",
              "type": "string",
              "value": "level_10_llegada_san_telmo-light-3"
            },
            {
              "name": "tint",
              "type": "string",
              "value": "0xffd27a"
            },
            {
              "name": "qualityTier",
              "type": "string",
              "value": "balanced"
            },
            {
              "name": "runtimeId",
              "type": "string",
              "value": "level_10_llegada_san_telmo-visual-51"
            }
          ]
        }
      ]
    },
    {
      "id": 35,
      "name": "OcclusionZones",
      "type": "objectgroup",
      "draworder": "topdown",
      "opacity": 1,
      "visible": true,
      "objects": [
        {
          "id": 48,
          "name": "localized-darkness",
          "type": "occlusion-zone",
          "x": 6528,
          "y": 880,
          "width": 1536,
          "height": 300,
          "rotation": 0,
          "visible": true,
          "properties": [
            {
              "name": "alpha",
              "type": "float",
              "value": 0.18
            },
            {
              "name": "runtimeId",
              "type": "string",
              "value": "level_10_llegada_san_telmo-visual-48"
            }
          ]
        }
      ]
    },
    {
      "id": 34,
      "name": "ReflectionZones",
      "type": "objectgroup",
      "draworder": "topdown",
      "opacity": 1,
      "visible": true,
      "objects": [
        {
          "id": 47,
          "name": "wet-floor",
          "type": "reflection-zone",
          "x": 3360,
          "y": 1150,
          "width": 2880,
          "height": 70,
          "rotation": 0,
          "visible": true,
          "properties": [
            {
              "name": "reflectionStrength",
              "type": "float",
              "value": 0.28
            },
            {
              "name": "runtimeId",
              "type": "string",
              "value": "level_10_llegada_san_telmo-visual-47"
            }
          ]
        }
      ]
    },
    {
      "id": 33,
      "name": "AmbientZones",
      "type": "objectgroup",
      "draworder": "topdown",
      "opacity": 1,
      "visible": true,
      "objects": [
        {
          "id": 46,
          "name": "ambient-main",
          "type": "ambient-zone",
          "x": 0,
          "y": 0,
          "width": 9600,
          "height": 1280,
          "rotation": 0,
          "visible": true,
          "properties": [
            {
              "name": "tint",
              "type": "string",
              "value": "0x18212a"
            },
            {
              "name": "alpha",
              "type": "float",
              "value": 0.22
            },
            {
              "name": "qualityTier",
              "type": "string",
              "value": "balanced"
            },
            {
              "name": "runtimeId",
              "type": "string",
              "value": "level_10_llegada_san_telmo-visual-46"
            }
          ]
        }
      ]
    },
    {
      "id": 12,
      "name": "Collision",
      "type": "objectgroup",
      "draworder": "topdown",
      "opacity": 1,
      "visible": true,
      "objects": [
        {
          "id": 11,
          "name": "floor",
          "type": "floor",
          "x": 0,
          "y": 1186,
          "width": 9600,
          "height": 74,
          "rotation": 0,
          "visible": true,
          "properties": [
            {
              "name": "runtimeId",
              "type": "string",
              "value": "level_10_llegada_san_telmo-floor"
            },
            {
              "name": "collisionCategory",
              "type": "string",
              "value": "World"
            },
            {
              "name": "collisionMask",
              "type": "string",
              "value": "Player|Ally|Enemy|Projectile"
            },
            {
              "name": "sensor",
              "type": "bool",
              "value": false
            },
            {
              "name": "floorId",
              "type": "string",
              "value": "floor-32"
            }
          ]
        }
      ]
    },
    {
      "id": 13,
      "name": "OneWayPlatforms",
      "type": "objectgroup",
      "draworder": "topdown",
      "opacity": 1,
      "visible": true,
      "objects": []
    },
    {
      "id": 14,
      "name": "Stairs",
      "type": "objectgroup",
      "draworder": "topdown",
      "opacity": 1,
      "visible": true,
      "objects": []
    },
    {
      "id": 16,
      "name": "PlayerSpawns",
      "type": "objectgroup",
      "draworder": "topdown",
      "opacity": 1,
      "visible": true,
      "objects": [
        {
          "id": 15,
          "name": "default-spawn",
          "type": "default-spawn",
          "x": 220,
          "y": 1100,
          "width": 40,
          "height": 72,
          "rotation": 0,
          "visible": true,
          "properties": [
            {
              "name": "runtimeId",
              "type": "string",
              "value": "level_10_llegada_san_telmo-spawn-default"
            },
            {
              "name": "spawnId",
              "type": "string",
              "value": "default"
            },
            {
              "name": "floorId",
              "type": "string",
              "value": "floor-32"
            },
            {
              "name": "elevation",
              "type": "float",
              "value": 0
            }
          ]
        }
      ]
    },
    {
      "id": 17,
      "name": "AllySpawns",
      "type": "objectgroup",
      "draworder": "topdown",
      "opacity": 1,
      "visible": true,
      "objects": []
    },
    {
      "id": 18,
      "name": "EnemySpawns",
      "type": "objectgroup",
      "draworder": "topdown",
      "opacity": 1,
      "visible": true,
      "objects": []
    },
    {
      "id": 19,
      "name": "SpawnAreas",
      "type": "objectgroup",
      "draworder": "topdown",
      "opacity": 1,
      "visible": true,
      "objects": []
    },
    {
      "id": 21,
      "name": "Interactables",
      "type": "objectgroup",
      "draworder": "topdown",
      "opacity": 1,
      "visible": true,
      "objects": [
        {
          "id": 20,
          "name": "radio-san-telmo",
          "type": "radio-san-telmo",
          "x": 9000,
          "y": 1090,
          "width": 64,
          "height": 96,
          "rotation": 0,
          "visible": true,
          "properties": [
            {
              "name": "runtimeId",
              "type": "string",
              "value": "radio-san-telmo"
            },
            {
              "name": "interactionId",
              "type": "string",
              "value": "radio-san-telmo"
            },
            {
              "name": "prompt",
              "type": "string",
              "value": "Examinar transmisión"
            },
            {
              "name": "sensor",
              "type": "bool",
              "value": true
            }
          ]
        }
      ]
    },
    {
      "id": 22,
      "name": "Triggers",
      "type": "objectgroup",
      "draworder": "topdown",
      "opacity": 1,
      "visible": true,
      "objects": []
    },
    {
      "id": 24,
      "name": "Objectives",
      "type": "objectgroup",
      "draworder": "topdown",
      "opacity": 1,
      "visible": true,
      "objects": [
        {
          "id": 23,
          "name": "observar-san-telmo",
          "type": "observar-san-telmo",
          "x": 380,
          "y": 1004,
          "width": 48,
          "height": 48,
          "rotation": 0,
          "visible": true,
          "properties": [
            {
              "name": "runtimeId",
              "type": "string",
              "value": "observar-san-telmo"
            },
            {
              "name": "objectiveId",
              "type": "string",
              "value": "observar-san-telmo"
            },
            {
              "name": "targetId",
              "type": "string",
              "value": "san-telmo-desenlace"
            }
          ]
        }
      ]
    },
    {
      "id": 25,
      "name": "Checkpoints",
      "type": "objectgroup",
      "draworder": "topdown",
      "opacity": 1,
      "visible": true,
      "objects": []
    },
    {
      "id": 26,
      "name": "Pickups",
      "type": "objectgroup",
      "draworder": "topdown",
      "opacity": 1,
      "visible": true,
      "objects": []
    },
    {
      "id": 28,
      "name": "Exits",
      "type": "objectgroup",
      "draworder": "topdown",
      "opacity": 1,
      "visible": true,
      "objects": [
        {
          "id": 27,
          "name": "san-telmo-desenlace",
          "type": "san-telmo-desenlace",
          "x": 9300,
          "y": 1030,
          "width": 120,
          "height": 160,
          "rotation": 0,
          "visible": true,
          "properties": [
            {
              "name": "runtimeId",
              "type": "string",
              "value": "san-telmo-desenlace"
            },
            {
              "name": "interactionId",
              "type": "string",
              "value": "san-telmo-desenlace"
            },
            {
              "name": "connectorId",
              "type": "string",
              "value": "san-telmo-desenlace"
            },
            {
              "name": "targetNodeId",
              "type": "string",
              "value": "lvl10-cin03-desenlace-abierto"
            },
            {
              "name": "targetConnectorId",
              "type": "string",
              "value": "default"
            },
            {
              "name": "enabledByObjectiveId",
              "type": "string",
              "value": "observar-san-telmo"
            },
            {
              "name": "sensor",
              "type": "bool",
              "value": true
            },
            {
              "name": "prompt",
              "type": "string",
              "value": "Usar salida"
            }
          ]
        }
      ]
    },
    {
      "id": 30,
      "name": "CameraBounds",
      "type": "objectgroup",
      "draworder": "topdown",
      "opacity": 1,
      "visible": true,
      "objects": [
        {
          "id": 29,
          "name": "camera-bounds",
          "type": "camera-bounds",
          "x": 0,
          "y": 0,
          "width": 9600,
          "height": 1260,
          "rotation": 0,
          "visible": true,
          "properties": [
            {
              "name": "runtimeId",
              "type": "string",
              "value": "level_10_llegada_san_telmo-camera"
            },
            {
              "name": "editorOnly",
              "type": "bool",
              "value": false
            }
          ]
        }
      ]
    },
    {
      "id": 31,
      "name": "NavigationHints",
      "type": "objectgroup",
      "draworder": "topdown",
      "opacity": 1,
      "visible": true,
      "objects": []
    }
  ],
  "properties": [
    {
      "name": "schemaVersion",
      "type": "int",
      "value": 1
    },
    {
      "name": "nodeId",
      "type": "string",
      "value": "lvl10-esc03-llegada-a-san-telmo"
    },
    {
      "name": "canonicalNodeIds",
      "type": "string",
      "value": "lvl10-esc03-llegada-a-san-telmo"
    },
    {
      "name": "runtimeLevelId",
      "type": "string",
      "value": "level_10_llegada_san_telmo"
    },
    {
      "name": "locationId",
      "type": "string",
      "value": "level10_exterior_urbano"
    },
    {
      "name": "locationLabel",
      "type": "string",
      "value": "level_10_llegada_san_telmo"
    },
    {
      "name": "floorId",
      "type": "string",
      "value": "floor-32"
    },
    {
      "name": "floorLabel",
      "type": "string",
      "value": "Piso canónico 32"
    },
    {
      "name": "canonicalIndex",
      "type": "int",
      "value": 32
    },
    {
      "name": "entryConnectorId",
      "type": "string",
      "value": "default"
    },
    {
      "name": "exitConnectorId",
      "type": "string",
      "value": "san-telmo-desenlace"
    },
    {
      "name": "targetNodeId",
      "type": "string",
      "value": "lvl10-cin03-desenlace-abierto"
    },
    {
      "name": "defaultCameraZoom",
      "type": "float",
      "value": 1.34
    },
    {
      "name": "gravityScale",
      "type": "float",
      "value": 1
    },
    {
      "name": "referencePhotoPath",
      "type": "file",
      "value": "public/stairs.jpg"
    },
    {
      "name": "runtimeBackgroundPath",
      "type": "file",
      "value": ""
    },
    {
      "name": "supportsVerticalCamera",
      "type": "bool",
      "value": true
    },
    {
      "name": "musicProfile",
      "type": "string",
      "value": "campaign-default"
    },
    {
      "name": "environmentProfile",
      "type": "string",
      "value": "level10_exterior_urbano"
    }
  ],
  "backgroundcolor": "#111827"
}
